( Made using CamBam - http://www.cambam.co.uk )
( PCB2 10/13/2016 11:42:41 PM )
( T0 : 0.35 )
G21 G90 G40
G0 Z3.0
( T0 : 0.35 )
T0 M6
( Poche1 )
G17
M3 S1000
G0 X2.7465 Y39.5632
G0 Z1.25
G1 F150.0 Z-0.15
G3 X2.7472 I-0.0001 J0.525
G2 X2.7645 Y39.5164 I-0.1529 J-0.0831
G3 X2.7656 Y39.5113 I0.5135 J0.1095
G2 X2.7832 Y39.3425 I-0.7139 J-0.1596
G3 X2.7833 Y39.3262 I0.525 J-0.0066
G2 X2.7664 Y39.1648 I-0.6625 J-0.0123
G3 X2.7642 Y39.1551 I0.5115 J-0.1181
G2 X2.7472 Y39.1095 I-0.1606 J0.0339
G3 X2.7469 I-0.0009 J-0.525
G2 X2.7295 Y39.1581 I0.1774 J0.0909
G3 X2.729 Y39.1606 I-0.5131 J-0.1112
G2 X2.7117 Y39.3287 I0.7135 J0.1581
G3 Y39.3428 I-0.525 J0.0072
G2 X2.7291 Y39.5127 I0.7455 J0.0098
G3 X2.7299 Y39.5166 I-0.5127 J0.1128
G2 X2.7465 Y39.5632 I0.1836 J-0.0389
G1 X2.6841 Y39.5951
G2 X2.7004 Y39.6226 I0.2294 J-0.1174
G2 X2.7073 Y39.6285 I0.0247 J-0.0215
G2 X2.7368 Y39.6333 I0.0278 J-0.0782
G3 X2.7545 I0.0095 J0.4549
G2 X2.7868 Y39.6282 I0.0017 J-0.0944
G2 X2.792 Y39.6231 I-0.014 J-0.0197
G2 X2.833 Y39.531 I-0.1977 J-0.143
G3 X2.834 Y39.5266 I0.445 J0.0949
G2 X2.8532 Y39.3416 I-0.7822 J-0.1749
G3 Y39.3275 I0.455 J-0.0057
G2 X2.8346 Y39.149 I-0.7325 J-0.0136
G3 X2.8327 Y39.1406 I0.4433 J-0.1024
G2 X2.7924 Y39.0504 I-0.2291 J0.0484
G3 X2.7901 Y39.0473 I0.3668 J-0.2693
G2 X2.7883 Y39.0454 I-0.009 J0.0065
G2 X2.7518 Y39.0394 I-0.0352 J0.1016
G3 X2.7414 Y39.0395 I-0.0054 J-0.455
G2 X2.7056 Y39.0453 I-0.0012 J0.1063
G2 X2.7016 Y39.0489 I0.0136 J0.0188
G2 X2.6611 Y39.1433 I0.2227 J0.1515
G3 X2.6606 Y39.1454 I-0.4447 J-0.0963
G2 X2.6417 Y39.3297 I0.7818 J0.1733
G3 Y39.3419 I-0.455 J0.0062
G2 X2.6607 Y39.5278 I0.8155 J0.0107
G3 X2.6614 Y39.5311 I-0.4444 J0.0978
G2 X2.6841 Y39.5951 I0.2521 J-0.0535
G1 X2.5595 Y39.6589
G2 X2.588 Y39.7062 I0.354 J-0.1812
G2 X2.6477 Y39.7555 I0.1371 J-0.1051
G2 X2.7398 Y39.7733 I0.0874 J-0.2052
G3 X2.752 Y39.7732 I0.0066 J0.3149
G2 X2.8465 Y39.7552 I0.0042 J-0.2343
G2 X2.9049 Y39.706 I-0.0737 J-0.1467
G2 X2.9699 Y39.5602 I-0.3106 J-0.2259
G3 X2.9706 Y39.5571 I0.3081 J0.0657
G2 X2.9932 Y39.3399 I-0.9188 J-0.2054
G3 Y39.3301 I0.315 J-0.004
G2 X2.971 Y39.1175 I-0.8724 J-0.0162
G3 X2.9697 Y39.1117 I0.3069 J-0.0709
G2 X2.9052 Y38.9676 I-0.3661 J0.0773
G3 X2.9036 Y38.9654 I0.2539 J-0.1864
G2 X2.848 Y38.9183 I-0.1225 J0.0884
G2 X2.7501 Y38.8995 I-0.0949 J0.2287
G3 X2.743 I-0.0038 J-0.315
G2 X2.6459 Y38.9182 I-0.0027 J0.2463
G2 X2.5889 Y38.9658 I0.0732 J0.1459
G2 X2.5243 Y39.1137 I0.3354 J0.2346
G3 X2.524 Y39.1151 I-0.3079 J-0.0667
G2 X2.5017 Y39.3316 I0.9185 J0.2036
G3 Y39.34 I-0.315 J0.0043
G2 X2.524 Y39.5578 I0.9555 J0.0125
G3 X2.5245 Y39.5602 I-0.3076 J0.0677
G2 X2.5595 Y39.6589 I0.3891 J-0.0825
G1 X2.4349 Y39.7227
G2 X2.475 Y39.7888 I0.4786 J-0.245
G2 X2.5889 Y39.8826 I0.2501 J-0.1878
G2 X2.7427 Y39.9132 I0.1462 J-0.3323
G3 X2.7495 I0.0037 J0.175
G2 X2.9047 Y39.8826 I0.0067 J-0.3743
G2 X3.0179 Y39.7886 I-0.1319 J-0.274
G2 X3.1068 Y39.5894 I-0.4235 J-0.3086
G3 X3.1072 Y39.5877 I0.1712 J0.0365
G2 X3.1332 Y39.3381 I-1.0554 J-0.236
G3 Y39.3327 I0.175 J-0.0022
G2 X3.1074 Y39.086 I-1.0124 J-0.0188
G3 X3.1067 Y39.0828 I0.1705 J-0.0394
G2 X3.0181 Y38.8847 I-0.5031 J0.1062
G3 X3.0172 Y38.8835 I0.1411 J-0.1036
G2 X2.9056 Y38.7907 I-0.236 J0.1703
G2 X2.7485 Y38.7595 I-0.1525 J0.3563
G3 X2.7445 I-0.0021 J-0.175
G2 X2.5878 Y38.7908 I-0.0042 J0.3862
G2 X2.4755 Y38.8836 I0.1313 J0.2733
G2 X2.3874 Y39.084 I0.4488 J0.3167
G3 X2.3873 Y39.0849 I-0.171 J-0.0371
G2 X2.3618 Y39.3335 I1.0552 J0.2339
G3 Y39.3382 I-0.175 J0.0024
G2 X2.3872 Y39.5879 I1.0955 J0.0144
G3 X2.3875 Y39.5892 I-0.1709 J0.0376
G2 X2.4349 Y39.7227 I0.526 J-0.1116
G0 Z3.0
G0 X3.3988 Y39.8433
G0 Z1.25
G1 Z-0.15
G3 X3.4648 Y39.9038 I-0.0814 J0.1549
G1 Y39.6342
G3 X3.4575 Y39.6673 I-1.3201 J-0.2729
G3 X3.3988 Y39.8433 I-0.881 J-0.196
G0 Z3.0
G0 X3.4648 Y39.0394
G0 Z1.25
G1 Z-0.15
G1 Y38.7688
G3 X3.3992 Y38.8292 I-0.1474 J-0.0944
G3 X3.4576 Y39.006 I-0.8035 J0.3636
G3 X3.4648 Y39.0394 I-1.3804 J0.3125
G0 Z3.0
G0 X4.8533 Y38.931
G0 Z1.25
G1 Z-0.15
G2 X4.8572 Y38.9533 I0.1217 J-0.0095
G2 X4.8942 Y38.966 I0.0794 J-0.1708
G3 X4.8947 Y38.9662 I-0.0709 J0.3069
G2 X5.0544 Y38.9909 I0.2436 J-1.0455
G1 X5.151 Y38.9964
G1 X5.2089 Y38.9973
G2 X5.1641 Y38.9291 I-0.3044 J0.1512
G2 X4.9776 Y38.8468 I-0.1781 J0.1511
G3 X4.9621 Y38.847 I-0.0114 J-0.3148
G2 X4.8852 Y38.8571 I-0.0035 J0.2696
G3 X4.8839 Y38.8575 I-0.0857 J-0.3031
G2 X4.8629 Y38.8677 I0.0175 J0.0628
G2 X4.8527 Y38.8972 I0.0321 J0.0276
G3 X4.853 Y38.9187 I-0.3147 J0.0144
G2 X4.8533 Y38.931 I0.122 J0.0027
G1 X4.7137 Y38.9419
G2 X4.732 Y39.0196 I0.2613 J-0.0204
G2 X4.777 Y39.0695 I0.1003 J-0.0452
G2 X4.8626 Y39.1024 I0.1596 J-0.287
G3 X4.8629 Y39.1025 I-0.0394 J0.1705
G2 X5.045 Y39.1306 I0.2754 J-1.1818
G1 X5.1459 Y39.1363
G1 X5.2473 Y39.138
G1 X5.3897
G2 X5.366 Y39.0167 I-0.8382 J0.1012
G2 X5.271 Y38.8387 I-0.4614 J0.1319
G2 X4.9725 Y38.7069 I-0.285 J0.2416
G3 X4.9639 Y38.707 I-0.0063 J-0.1749
G2 X4.8471 Y38.7224 I-0.0054 J0.4095
G3 X4.8464 Y38.7226 I-0.0476 J-0.1684
G2 X4.7686 Y38.7638 I0.055 J0.1976
G2 X4.7129 Y38.9037 I0.1264 J0.1315
G3 X4.713 Y38.9156 I-0.1748 J0.008
G2 X4.7137 Y38.9419 I0.262 J0.0059
G0 Z3.0
G0 X5.6583 Y38.7809
G0 Z1.25
G1 Z-0.15
G3 X5.711 Y38.9181 I-0.7596 J0.3701
G3 X5.7111 Y38.9184 I-0.1682 J0.0482
G3 X5.7278 Y38.9849 I-1.0967 J0.3125
G1 Y38.7176
G3 X5.6583 Y38.7809 I-0.1482 J-0.093
G0 Z3.0
G0 X5.7278 Y39.4148
G0 Z1.25
G1 Z-0.15
G3 X5.7016 Y39.4472 I-0.1482 J-0.093
G3 X5.7278 Y39.4796 I-0.122 J0.1255
G2 X5.7279 Y39.4554 I-1.2944 J-0.0143
G3 X5.7278 Y39.4541 I0.175 J-0.0013
G1 Y39.4148
G0 Z3.0
G0 X6.366
G0 Z1.25
G1 Z-0.15
G1 Y39.4512
G3 X6.3613 Y39.6066 I-1.8622 J0.0222
G3 X6.4505 Y39.5978 I0.0892 J0.4459
G1 X6.6577
G1 X6.366 Y39.2584
G1 Y39.4148
G1 X6.226
G1 Y39.452
G3 X6.2144 Y39.674 I-1.7222 J0.0213
G3 X6.1682 Y39.9133 I-1.4758 J-0.1602
G3 X6.4505 Y39.7378 I0.2823 J0.1392
G1 X6.9626
G1 X6.226 Y38.8808
G1 Y39.4148
G0 Z3.0
G0 X6.1584 Y37.6059
G0 Z1.25
G1 Z-0.15
G3 X6.1996 Y37.5926 I0.2471 J0.6919
G1 X6.0923 Y37.5858
G3 X6.1584 Y37.6059 I-0.1811 J0.7121
G0 Z3.0
G0 X5.735 Y37.5631
G0 Z1.25
G1 Z-0.15
G1 X5.0918 Y37.5223
G3 X5.2246 Y37.5421 I-0.2091 J1.8629
G3 X5.2304 Y37.5432 I-0.134 J0.7224
G3 X5.3949 Y37.5845 I-0.2942 J1.5183
G3 X5.5708 Y37.5631 I0.1759 J0.7133
G1 X5.735
G0 Z3.0
G0 X4.9107 Y37.5108
G0 Z1.25
G1 Z-0.15
G1 X4.0937 Y37.459
G3 X4.2064 Y37.6573 I-1.3086 J0.8757
G3 X4.3894 Y37.5839 I0.5885 J1.2034
G3 X4.395 Y37.5822 I0.2225 J0.7002
G3 X4.8786 Y37.5106 I0.4742 J1.5352
G3 X4.9107 Y37.5108 I0.0042 J1.8746
G1 X4.9195 Y37.3711
G1 X3.8206 Y37.3014
G3 X3.7791 Y37.304 I-0.0883 J-1.0771
G3 X3.8543 Y37.3786 I-0.8918 J0.9741
G3 X3.8676 Y37.3935 I-0.4354 J0.4051
G3 X4.1378 Y37.8571 I-1.0826 J0.9413
G3 X4.4318 Y37.7174 I0.6572 J1.0036
G3 X4.4363 Y37.7159 I0.1801 J0.5668
G3 X4.8783 Y37.6506 I0.4329 J1.4015
G3 X5.1991 Y37.6797 I0.0044 J1.7346
G3 X5.2038 Y37.6806 I-0.1085 J0.5847
G3 X5.3917 Y37.7307 I-0.2675 J1.3809
G3 X5.5708 Y37.7031 I0.1791 J0.5671
G1 X5.9112
G3 X6.1584 Y37.7569 I0.0 J0.5947
G3 X6.4056 Y37.7031 I0.2472 J0.5409
G1 X8.0354
G3 X8.2823 Y37.7568 I0.0 J0.5947
G1 X8.2709 Y37.5837
G1 X4.9195 Y37.3711
G0 Z3.0
G0 X5.2733 Y34.418
G0 Z1.25
G1 Z-0.15
G2 X5.354 Y34.4271 I1.1716 J-10.0835
G3 X5.2657 Y34.2991 I0.7287 J-0.5977
G1 X5.2733 Y34.418
G0 Z3.0
G0 X1.5856 Y33.9828
G0 Z1.25
G1 Z-0.15
G1 Y36.1416
G0 Z3.0
G0 X5.9131 Y41.3656
G0 Z1.25
G1 Z-0.15
G1 X5.9473
G3 X5.9314 Y41.3578 I0.5033 J-1.0393
G3 X5.9131 Y41.3656 I-0.7295 J-1.69
G0 Z3.0
G0 X8.251 Y39.3557
G0 Z1.25
G1 Z-0.15
G1 X8.3991 Y39.528
G1 X8.3685 Y39.0644
G3 X8.0864 Y39.1642 I-0.3331 J-0.4927
G1 X8.251 Y39.3557
G0 Z3.0
G0 X8.3783 Y32.2813
G0 Z1.25
G1 Z-0.15
G1 X8.4085 Y32.2819
G3 X8.3189 Y32.0386 I1.3572 J-0.6382
G1 X8.3176 Y32.2802
G1 X8.3783 Y32.2813
G0 Z3.0
G0 X9.2792 Y29.218
G0 Z1.25
G1 Z-0.15
G3 X9.5471 Y29.1795 I0.4859 J2.431
G3 X9.277 Y29.0789 I0.8957 J-2.8159
G1 X9.2792 Y29.218
G1 X9.1392 Y29.2202
G1 X9.1419 Y29.3945
G3 X9.7565 Y29.31 I0.6231 J2.2545
G3 X9.8483 Y29.3123 I0.0057 J1.5747
G1 X10.0926 Y29.3257
G3 X10.0707 Y29.1539 I3.0543 J-0.4765
G3 X9.1334 Y28.8555 I0.3721 J-2.7903
G1 X9.1392 Y29.2202
G1 X8.9992 Y29.2224
G1 X9.0049 Y29.5855
G3 X9.757 Y29.45 I0.7601 J2.0635
G3 X9.8406 Y29.4521 I0.0052 J1.4347
G1 X10.2628 Y29.4752
G3 X10.2011 Y29.0276 I2.8841 J-0.626
G3 X9.0973 Y28.6755 I0.2417 J-2.664
G3 X8.9884 Y28.6091 I1.2786 J-2.2178
G1 X8.9925 Y28.7991
G3 X8.9926 Y28.8069 I-1.4344 J0.0305
G1 X8.9992 Y29.2224
G1 X8.8592 Y29.2247
G1 X8.8682 Y29.7955
G3 X9.7575 Y29.59 I0.8968 J1.8535
G3 X9.833 Y29.5919 I0.0047 J1.2947
G1 X10.442 Y29.6252
G1 X10.4455 Y29.6254
G3 X10.4255 Y29.554 I2.5094 J-0.742
G3 X10.422 Y29.5406 I1.2515 J-0.3318
G3 X10.3361 Y28.8963 I2.7249 J-0.6914
G3 X9.1674 Y28.5544 I0.1067 J-2.5327
G3 X8.8425 Y28.3299 I1.2084 J-2.0967
G1 X8.8525 Y28.8021
G3 X8.8526 Y28.8092 I-1.2944 J0.0275
G1 X8.8592 Y29.2247
G1 X8.7192 Y29.2269
G1 X8.7291 Y29.8543
G3 X8.7292 Y29.8589 I-1.1546 J0.0183
G1 X8.7312 Y30.0322
G3 X9.758 Y29.73 I1.0338 J1.6168
G3 X9.8253 Y29.7317 I0.0042 J1.1547
G1 X10.4349 Y29.765
G1 X10.6441 Y29.7749
G3 X10.5608 Y29.5181 I2.3108 J-0.8915
G3 X10.5577 Y29.5062 I1.1162 J-0.2959
G3 X10.4772 Y28.7581 I2.5892 J-0.657
G3 X10.4411 Y28.7585 I-0.0447 J-1.9501
G3 X10.4298 I-0.0051 J-1.1547
G3 X9.2376 Y28.4333 I0.013 J-2.3949
G3 X8.6954 Y27.9986 I1.1382 J-1.9755
G1 X8.7125 Y28.8051
G3 X8.7126 Y28.8114 I-1.1545 J0.0246
G1 X8.7192 Y29.2269
G1 X8.5792 Y29.2291
G1 X8.5892 Y29.8565
G3 Y29.8606 I-1.0146 J0.016
G1 X8.5938 Y30.2517
G3 X8.5939 Y30.2555 I-1.0146 J0.012
G1 X8.5943 Y30.3094
G3 X9.7585 Y29.87 I1.1707 J1.3396
G3 X9.8177 Y29.8715 I0.0037 J1.0147
G1 X10.4278 Y29.9048
G1 X10.8633 Y29.9253
G3 X10.6961 Y29.4822 I2.0916 J-1.042
G3 X10.6934 Y29.4717 I0.9808 J-0.26
G3 X10.6214 Y28.6784 I2.4535 J-0.6225
G3 X10.6266 Y28.6081 I3.1342 J0.194
G3 X10.4405 Y28.6185 I-0.194 J-1.8002
G3 X10.4305 I-0.0045 J-1.0147
G3 X9.3078 Y28.3121 I0.0123 J-2.2549
G3 X8.5462 Y27.5676 I1.0681 J-1.8544
G1 X8.5726 Y28.8081
G3 X8.5727 Y28.8136 I-1.0145 J0.0216
G1 X8.5792 Y29.2291
G1 X8.4393 Y29.2313
G1 X8.4492 Y29.8587
G3 Y29.8622 I-0.8746 J0.0138
G1 X8.4538 Y30.2533
G3 X8.4539 Y30.2566 I-0.8747 J0.0103
G1 X8.4571 Y30.6611
G3 X9.7591 Y30.01 I1.3079 J0.9879
G3 X9.81 Y30.0113 I0.0032 J0.8747
G1 X10.4206 Y30.0447
G1 X10.9547 Y30.0698
G3 X10.9553 I-0.0411 J0.8738
G2 X11.1107 Y30.077 I2.4892 J-52.1402
G3 X10.8315 Y29.4463 I1.8442 J-1.1936
G3 X10.8291 Y29.4373 I0.8455 J-0.2242
G3 X10.7612 Y28.6875 I2.3178 J-0.5881
G3 X10.7867 Y28.4406 I2.9945 J0.185
G3 X10.4399 Y28.4785 I-0.3541 J-1.6327
G3 X10.4313 I-0.0038 J-0.8747
G3 X9.378 Y28.191 I0.0115 J-2.1149
G3 X8.5963 Y27.3704 I0.9979 J-1.7332
G3 X8.5095 Y27.1784 I1.6781 J-0.8743
G3 X8.509 Y27.1772 I0.8159 J-0.3155
G1 X8.4725 Y27.0825
G3 X8.4597 Y27.0468 I0.8163 J-0.3142
G1 X8.4314 Y26.9626
G3 X8.4265 Y26.9476 I0.8292 J-0.2785
G3 X8.3879 Y26.8198 I5.0818 J-1.6055
G1 X8.3938 Y27.0454
G3 X8.3939 Y27.0471 I-0.8744 J0.0231
G1 X8.403 Y27.4179
G3 Y27.4207 I-0.8745 J0.0214
G1 X8.4326 Y28.811
G3 X8.4327 Y28.8158 I-0.8745 J0.0186
G1 X8.4393 Y29.2313
G1 X8.2993 Y29.2335
G1 X8.3092 Y29.8609
G3 Y29.8639 I-0.7346 J0.0116
G1 X8.3138 Y30.255
G3 X8.3139 Y30.2577 I-0.7347 J0.0087
G1 X8.3194 Y30.9423
G3 Y30.945 I-0.7347 J0.0059
G1 X8.3205 Y31.2017
G3 Y31.2042 I-0.7347 J0.0032
G1 X8.3206 Y31.248
G3 X9.7596 Y30.15 I1.4444 J0.401
G3 X9.8024 Y30.151 I0.0027 J0.7347
G1 X10.4135 Y30.1845
G1 X10.9482 Y30.2097
G3 X10.9487 I-0.0345 J0.7339
G2 X11.3996 Y30.2293 I2.4958 J-52.2801
G3 X10.9668 Y29.4105 I1.5553 J-1.3459
G3 X10.9648 Y29.4029 I0.7102 J-0.1883
G3 X10.9009 Y28.6965 I2.1821 J-0.5537
G3 X10.9656 Y28.2427 I2.8548 J0.1759
G3 X10.4393 Y28.3385 I-0.5331 J-1.4348
G3 X10.432 I-0.0032 J-0.7347
G3 X9.4481 Y28.0698 I0.0107 J-1.9749
G3 X8.7206 Y27.3061 I0.9277 J-1.6121
G3 X8.64 Y27.1279 I1.5537 J-0.81
G3 X8.6396 Y27.1269 I0.6853 J-0.265
G1 X8.6032 Y27.0322
G3 X8.5924 Y27.0022 I0.6857 J-0.2639
G1 X8.5641 Y26.918
G3 X8.56 Y26.9054 I0.6965 J-0.2339
G3 X8.465 Y26.5648 I4.9483 J-1.5633
G1 X8.4285 Y26.4264
G1 X8.4098 Y26.359
G1 X8.4008 Y26.3273
G1 X8.3905 Y26.2926
G3 X8.369 Y26.1957 I0.7048 J-0.2075
G1 X8.3558 Y26.1091
G3 X8.3555 Y26.1073 I0.7263 J-0.1107
G1 X8.2533 Y25.4254
G3 X8.2529 Y25.4231 I0.7266 J-0.1089
G1 X8.1978 Y25.0472
G1 X8.2035 Y25.2297
G3 Y25.2315 I-0.7344 J0.023
G1 X8.2315 Y26.1999
G3 Y26.2017 I-0.7344 J0.0212
G1 X8.2539 Y27.0491
G3 Y27.0505 I-0.7345 J0.0194
G1 X8.263 Y27.4213
G3 X8.2631 Y27.4236 I-0.7345 J0.018
G1 X8.2926 Y28.814
G3 X8.2927 Y28.818 I-0.7346 J0.0156
G1 X8.2993 Y29.2335
G1 X8.1593 Y29.2357
G1 X8.1692 Y29.8631
G3 Y29.8655 I-0.5946 J0.0094
G1 X8.1739 Y30.2566
G3 Y30.2588 I-0.5947 J0.007
G1 X8.1794 Y30.9434
G3 Y30.9456 I-0.5947 J0.0048
G1 X8.1805 Y31.2023
G3 Y31.2043 I-0.5947 J0.0026
G1 X8.181 Y31.6535
G3 Y31.6574 I-0.5947 J0.0006
G1 X8.1773 Y32.3311
G3 Y32.3343 I-0.5947 J-0.0032
G1 X8.1764 Y32.4177
G1 X8.6538 Y32.4263
G3 X8.406 Y31.6482 I1.1119 J-0.7826
G3 Y31.6441 I0.5947 J-0.002
G3 X9.7601 Y30.2899 I1.3591 J0.0049
G3 X9.7947 Y30.2908 I0.0022 J0.5947
G1 X10.4064 Y30.3243
G1 X10.9416 Y30.3495
G3 X10.942 I-0.028 J0.5941
G2 X11.751 Y30.3819 I2.5025 J-52.4199
G3 X11.5563 Y30.1941 I1.5778 J-1.831
G3 X11.1021 Y29.3746 I1.3986 J-1.3108
G3 X11.1005 Y29.3684 I0.5749 J-0.1524
G3 X11.0406 Y28.7056 I2.0464 J-0.5192
G3 X11.1049 Y28.2619 I2.7151 J0.1669
G3 X11.1259 Y28.173 I1.6926 J0.3542
G3 X11.1796 Y27.9809 I5.0435 J1.3057
G3 X10.4387 Y28.1985 I-0.7471 J-1.173
G3 X10.4328 I-0.0026 J-0.5947
G3 X9.5183 Y27.9487 I0.01 J-1.835
G3 X8.845 Y27.2418 I0.8575 J-1.4909
G3 X8.7706 Y27.0774 I1.4293 J-0.7457
G3 X8.7703 Y27.0766 I0.5547 J-0.2145
G1 X8.7338 Y26.9819
G3 X8.7251 Y26.9576 I0.555 J-0.2136
G1 X8.6968 Y26.8734
G3 X8.6935 Y26.8632 I0.5638 J-0.1894
G3 X8.6008 Y26.5304 I4.8148 J-1.5211
G1 X8.5636 Y26.3898
G1 X8.5446 Y26.321
G1 X8.5352 Y26.2883
G1 X8.5248 Y26.253
G3 X8.5074 Y26.1746 I0.5705 J-0.168
G1 X8.4942 Y26.088
G3 X8.494 Y26.0866 I0.5879 J-0.0896
G1 X8.3917 Y25.4046
G3 X8.3914 Y25.4028 I0.5881 J-0.0882
G1 X8.3038 Y24.8057
G3 X8.3036 Y24.8041 I0.5884 J-0.0863
G1 X8.2284 Y24.2814
G3 X8.228 Y24.2789 I0.5887 J-0.0847
G1 X8.1015 Y23.3727
G3 X8.0869 Y23.2651 I1.7149 J-0.2883
G1 X8.0435 Y22.9417
G3 X8.0433 Y22.9399 I0.5894 J-0.079
G1 X8.0051 Y22.6485
G3 X8.0047 Y22.6454 I0.5897 J-0.0772
G1 X7.9675 Y22.3492
G1 X7.986 Y22.86
G3 X7.9861 Y22.8615 I-0.5943 J0.0215
G1 X8.0288 Y24.1261
G3 X8.0289 Y24.1276 I-0.5944 J0.0201
G1 X8.0635 Y25.2341
G3 X8.0636 Y25.2356 I-0.5944 J0.0186
G1 X8.0915 Y26.2039
G3 X8.0916 Y26.2054 I-0.5945 J0.0172
G1 X8.1139 Y27.0528
G3 X8.114 Y27.054 I-0.5945 J0.0157
G1 X8.123 Y27.4247
G3 X8.1231 Y27.4266 I-0.5945 J0.0146
G1 X8.1527 Y28.817
G3 Y28.8202 I-0.5946 J0.0126
G1 X8.1593 Y29.2357
G0 Z3.0
G0 X11.6297 Y27.1697
G0 Z1.25
G1 Z-0.15
G3 X11.6755 Y27.097 I0.4059 J0.205
G3 X11.6457 Y27.112 I-8.5943 J-17.0417
G3 X11.6297 Y27.1697 I-1.2131 J-0.3041
G0 Z3.0
G0 X16.1595 Y25.4028
G0 Z1.25
G1 Z-0.15
G1 X16.2725 Y25.3996
G3 X16.2062 Y25.3567 I1.3475 J-2.1584
G1 X16.1595 Y25.4028
G1 X16.0612 Y25.3031
G1 X15.825 Y25.5362
G3 X15.8153 Y25.5457 I-1.2045 J-1.2204
G1 X15.8081 Y25.5528
G1 X16.8618 Y25.523
G3 X16.191 Y25.175 I0.7583 J-2.2819
G1 X16.0612 Y25.3031
G1 X15.9628 Y25.2035
G1 X15.7267 Y25.4365
G3 X15.7178 Y25.4453 I-1.1062 J-1.1208
G1 X15.4526 Y25.7028
G1 X18.3507 Y25.621
G1 X18.3299 Y25.4768
G1 X18.3177 Y25.3937
G3 X17.6239 Y25.5057 I-0.7033 J-2.1518
G3 X17.6109 I-0.0067 J-1.5747
G3 X16.1802 Y24.989 I0.0092 J-2.2645
G1 X15.9628 Y25.2035
G1 X15.8645 Y25.1039
G1 X15.6284 Y25.3369
G3 X15.6202 Y25.3449 I-1.0078 J-1.0211
G1 X15.1911 Y25.7617
G3 X15.1801 Y25.7723 I-0.9997 J-1.0291
G3 X15.0951 Y25.853 I-42.0643 J-44.2317
G1 X18.5116 Y25.7566
G1 X18.4685 Y25.4566
G1 X18.4309 Y25.2025
G3 X17.6234 Y25.3657 I-0.8165 J-1.9606
G3 X17.6115 I-0.0061 J-1.4347
G3 X16.1744 Y24.798 I0.0086 J-2.1245
G1 X15.8645 Y25.1039
G1 X15.7661 Y25.0042
G1 X15.53 Y25.2373
G3 X15.5227 Y25.2445 I-0.9095 J-0.9215
G1 X15.0935 Y25.6613
G3 X15.0836 Y25.6709 I-0.9021 J-0.9287
G3 X14.7312 Y26.0033 I-41.9679 J-44.1302
G1 X18.6725 Y25.8921
G1 X18.607 Y25.4364
G1 X18.5418 Y24.9956
G3 X17.6228 Y25.2257 I-0.9275 J-1.7537
G3 X17.612 I-0.0055 J-1.2947
G3 X16.1747 Y24.601 I0.008 J-1.9845
G1 X15.7661 Y25.0042
G1 X15.6678 Y24.9046
G1 X15.4317 Y25.1376
G3 X15.4251 Y25.144 I-0.8111 J-0.8218
G1 X14.996 Y25.5609
G3 X14.9871 Y25.5694 I-0.8046 J-0.8283
G3 X14.6147 Y25.9207 I-41.8714 J-44.0288
G3 X14.4091 Y26.1525 I-2.2407 J-1.7802
G1 X18.8304 Y26.0277
G3 X18.8281 Y25.9912 I1.9447 J-0.142
G1 X18.7456 Y25.4162
G1 X18.6637 Y24.8626
G1 X18.6491 Y24.7679
G3 X17.6222 Y25.0857 I-1.0348 J-1.526
G3 X17.6126 I-0.0049 J-1.1547
G3 X16.1823 Y24.3967 I0.0075 J-1.8445
G1 X15.6678 Y24.9046
G1 X15.5694 Y24.8049
G1 X15.3333 Y25.038
G3 X15.3276 Y25.0436 I-0.7128 J-0.7222
G1 X14.8984 Y25.4605
G3 X14.8907 Y25.468 I-0.707 J-0.7278
G3 X14.5114 Y25.8256 I-41.7749 J-43.9273
G3 X14.171 Y26.1846 I-2.1374 J-1.6851
G1 X14.1438 Y26.209
G3 X14.1406 Y26.2119 I-0.677 J-0.7559
G3 X14.0346 Y26.3031 I-3.0062 J-3.3859
G1 X18.9867 Y26.1633
G3 X18.9676 Y25.9776 I1.7885 J-0.2776
G1 X18.8841 Y25.396
G1 X18.8021 Y24.8418
G1 X18.7513 Y24.5108
G3 X17.6216 Y24.9457 I-1.137 J-1.2689
G3 X17.6132 I-0.0043 J-1.0147
G3 X16.1996 Y24.1833 I0.0069 J-1.7045
G1 X16.182 Y24.2003
G1 X15.5694 Y24.8049
G1 X15.4711 Y24.7053
G1 X15.235 Y24.9383
G3 X15.23 Y24.9432 I-0.6145 J-0.6226
G1 X14.8009 Y25.3601
G3 X14.7942 Y25.3665 I-0.6095 J-0.6274
G3 X14.4079 Y25.7306 I-41.6784 J-43.8259
G3 X14.0781 Y26.0799 I-2.0339 J-1.5901
G1 X14.0504 Y26.1047
G3 X14.0476 Y26.1072 I-0.5836 J-0.6516
G3 X13.729 Y26.3645 I-2.9133 J-3.2812
G3 X13.6032 Y26.4553 I-5.3952 J-7.3425
G1 X19.1571 Y26.2986
G3 X19.1071 Y25.9642 I1.6181 J-0.4129
G1 X19.0226 Y25.3758
G1 X18.9405 Y24.8209
G1 X18.8461 Y24.2053
G3 X17.621 Y24.8057 I-1.2318 J-0.9634
G3 X17.6137 I-0.0037 J-0.8747
G3 X16.2298 Y23.9588 I0.0063 J-1.5645
G1 X16.0841 Y24.1003
G1 X15.4711 Y24.7053
G1 X15.3728 Y24.6057
G1 X15.1366 Y24.8387
G3 X15.1325 Y24.8428 I-0.5161 J-0.5229
G1 X14.7033 Y25.2597
G3 X14.6977 Y25.2651 I-0.5119 J-0.527
G3 X14.3042 Y25.6359 I-41.582 J-43.7244
G3 X13.9852 Y25.9752 I-1.9303 J-1.4954
G1 X13.957 Y26.0004
G3 X13.9547 Y26.0025 I-0.4902 J-0.5473
G3 X13.6462 Y26.2517 I-2.8203 J-3.1765
G3 X13.1301 Y26.6039 I-5.3124 J-7.2296
G3 X13.1284 Y26.605 I-0.3928 J-0.6209
G3 X13.122 Y26.609 I-7.2848 J-11.5855
G1 X19.3466 Y26.4333
G3 X19.2467 Y25.951 I1.4285 J-0.5476
G1 X19.1612 Y25.3556
G1 X19.079 Y24.8
G1 X18.9294 Y23.8244
G3 X18.9266 Y23.8048 I0.7262 J-0.1114
G2 X18.9256 Y23.7968 I-0.752 J0.0946
G3 X17.6204 Y24.6657 I-1.3112 J-0.5549
G3 X17.6143 I-0.0031 J-0.7347
G3 X16.2775 Y23.7175 I0.0058 J-1.4245
G2 X16.2298 Y23.7636 I8.6552 J8.9881
G3 X16.2293 Y23.7641 I-0.5124 J-0.5265
G1 X15.9862 Y24.0002
G1 X15.3728 Y24.6057
G1 X15.2744 Y24.506
G1 X15.0383 Y24.7391
G3 X15.0349 Y24.7424 I-0.4178 J-0.4233
G1 X14.6058 Y25.1592
G3 X14.6012 Y25.1636 I-0.4144 J-0.4266
G3 X14.2003 Y25.5414 I-41.4855 J-43.623
G3 X13.8923 Y25.8704 I-1.8264 J-1.4009
G1 X13.8636 Y25.8962
G3 X13.8617 Y25.8979 I-0.3968 J-0.443
G3 X13.5633 Y26.1388 I-2.7274 J-3.0718
G3 X13.0552 Y26.4856 I-5.2295 J-7.1167
G3 X13.0539 Y26.4865 I-0.3179 J-0.5026
G3 X12.5924 Y26.764 I-7.2103 J-11.467
G1 X19.5638 Y26.5672
G3 X19.3863 Y25.9382 I1.2114 J-0.6815
G1 X19.2997 Y25.3354
G1 X19.2174 Y24.7792
G1 X19.0678 Y23.8032
G3 X19.0655 Y23.7873 I0.5878 J-0.0901
G2 X19.0569 Y23.7322 I-0.8909 J0.1121
G3 X19.054 Y23.7161 I0.5843 J-0.1107
G1 X18.9399 Y23.0082
G2 X18.793 Y22.1506 I-93.4023 J15.5557
G3 X18.6161 Y22.4447 I-1.179 J-0.5089
G3 X18.8981 Y23.2424 I-1.0022 J0.803
G3 Y23.2473 I-0.5947 J0.0025
G3 X17.6198 Y24.5257 I-1.2838 J-0.0054
G3 X17.6149 I-0.0025 J-0.5947
G3 X16.3532 Y23.4533 I0.0052 J-1.2845
G2 X16.1322 Y23.6633 I8.5796 J9.2522
G3 X16.1317 Y23.6637 I-0.4148 J-0.4262
G1 X15.8882 Y23.9002
G1 X15.2744 Y24.506
G1 X15.1761 Y24.4064
G1 X14.94 Y24.6394
G3 X14.9374 Y24.6419 I-0.3194 J-0.3236
G1 X14.5082 Y25.0588
G3 X14.5048 Y25.0622 I-0.3168 J-0.3262
G3 X14.0962 Y25.4471 I-41.389 J-43.5215
G3 X13.7995 Y25.7657 I-1.7222 J-1.3066
G1 X13.7702 Y25.7919
G3 X13.7688 Y25.7932 I-0.3034 J-0.3387
G3 X13.4805 Y26.026 I-2.6344 J-2.9672
G3 X12.9804 Y26.3673 I-5.1467 J-7.0039
G3 X12.9793 Y26.368 I-0.2431 J-0.3843
G3 X12.2105 Y26.8165 I-7.1358 J-11.3485
G3 X12.0172 Y26.9203 I-9.1293 J-16.7612
G3 X12.0228 Y26.9201 I0.0184 J0.4543
G1 X19.8268 Y26.6998
G3 X19.5259 Y25.9258 I0.9484 J-0.8141
G1 X19.4382 Y25.3152
G1 X19.3558 Y24.7583
G1 X19.2061 Y23.782
G3 X19.2044 Y23.7698 I0.4495 J-0.0689
G2 X19.1944 Y23.7061 I-1.0298 J0.1295
G3 X19.1923 Y23.6938 I0.4468 J-0.0847
G1 X19.078 Y22.9855
G2 X18.896 Y21.9296 I-93.5405 J15.5784
G3 X18.8931 Y21.9106 I0.4477 J-0.0798
G2 X18.8885 Y21.8857 I-0.2701 J0.0364
G3 X18.8849 Y21.8682 I0.4431 J-0.1022
G1 X18.7907 Y21.3719
G3 X18.7893 Y21.3639 I0.4468 J-0.0847
G2 X18.7817 Y21.3255 I-0.7263 J0.1243
G3 X18.7797 Y21.3163 I0.4435 J-0.1004
G1 X18.7626 Y21.2326
G1 X18.6789 Y21.2292
G3 X18.7581 Y21.6426 I-1.0646 J0.4182
G3 Y21.6464 I-0.4547 J0.0019
G3 X18.429 Y22.4447 I-1.1442 J-0.0047
G3 X18.7581 Y23.2429 I-0.8151 J0.803
G3 Y23.2468 I-0.4547 J0.0019
G3 X17.6192 Y24.3857 I-1.1438 J-0.0049
G3 X17.6154 I-0.0019 J-0.4547
G3 X16.4755 Y23.2472 I0.0046 J-1.1445
G3 Y23.2424 I0.4547 J-0.0024
G3 X16.4798 Y23.1498 I1.1449 J0.006
G2 X16.0346 Y23.5629 I8.453 J9.5558
G3 X16.0342 Y23.5633 I-0.3171 J-0.3259
G1 X15.7903 Y23.8002
G1 X15.1761 Y24.4064
G0 Z3.0
G0 X16.5175 Y18.9358
G0 Z1.25
G1 Z-0.15
G1 X16.5865 Y18.9329
G3 X16.5146 Y18.7379 I1.0336 J-0.4917
G1 X16.5175 Y18.9358
G0 Z3.0
G0 X16.5067 Y18.1832
G0 Z1.25
G1 Z-0.15
G3 X16.8051 Y17.6447 I1.1138 J0.2653
G3 X16.49 Y17.0225 I0.8154 J-0.8038
G1 X16.5067 Y18.1832
G0 Z3.0
G0 X16.616 Y16.047
G0 Z1.25
G1 Z-0.15
G3 X16.6178 Y16.0447 I1.0041 J0.8012
G3 X16.6159 Y16.0423 I1.0026 J-0.8036
G1 X16.616 Y16.047
G0 Z3.0
G0 X16.5934 Y14.4761
G0 Z1.25
G1 Z-0.15
G3 X16.6178 Y14.4447 I1.027 J0.7722
G3 X16.5925 Y14.412 I1.0022 J-0.8035
G1 X16.5934 Y14.4761
G0 Z3.0
G0 X16.5709 Y12.9072
G0 Z1.25
G1 Z-0.15
G3 X16.6179 Y12.8447 I1.0496 J0.7413
G3 X16.5691 Y12.7796 I1.0025 J-0.8038
G1 X16.5709 Y12.9072
G0 Z3.0
G0 X21.4242 Y9.383
G0 Z1.25
G1 Z-0.15
G1 X22.2345 Y9.4633
G1 X22.2656 Y9.4663
G3 X22.2694 Y9.3896 I4.7465 J0.1979
G1 X21.814
G3 X21.5051 Y9.3775 I0.0 J-3.9547
G3 X21.4242 Y9.383 I-0.3089 J-3.9426
G1 X21.4104 Y9.5223
G1 X22.2209 Y9.6026
G1 X22.4017 Y9.6199
G3 X22.4202 Y9.2496 I4.6104 J0.0443
G1 X21.814
G3 X21.5051 Y9.237 I0.0 J-3.8147
G3 X21.1962 Y9.2496 I-0.3089 J-3.8022
G1 X21.1436
G3 X21.3388 Y9.5152 I-3.5293 J2.7979
G1 X21.4104 Y9.5223
G1 X21.3966 Y9.6616
G1 X22.2074 Y9.742
G1 X22.543 Y9.774
G3 X22.5415 Y9.6753 I4.4687 J-0.116
G3 Y9.647 I3.6747 J-0.0141
G3 X22.576 Y9.1096 I4.4706 J0.0172
G3 X22.5632 I-0.0007 J-6.7335
G1 X21.814
G3 X21.5051 Y9.0965 I0.0 J-3.6747
G3 X21.1962 Y9.1096 I-0.3089 J-3.6617
G1 X20.841
G3 X21.2592 Y9.6479 I-3.2266 J2.9379
G1 X21.2938 Y9.6514
G1 X21.3966 Y9.6616
G1 X21.3828 Y9.8009
G1 X22.1938 Y9.8813
G1 X22.69 Y9.9287
G3 X22.6815 Y9.6747 I4.3217 J-0.2706
G3 Y9.6475 I3.5347 J-0.0136
G3 X22.7379 Y8.9676 I4.3306 J0.0166
G3 X22.5634 Y8.9696 I-0.1625 J-6.5915
G1 X21.814
G3 X21.5051 Y8.956 I0.0 J-3.5347
G3 X21.1962 Y8.9696 I-0.3089 J-3.5212
G1 X20.5069
G3 X21.1782 Y9.7804 I-2.8925 J3.0779
G1 X21.2798 Y9.7907
G1 X21.3828 Y9.8009
G1 X21.369 Y9.9402
G1 X22.1802 Y10.0206
G1 X22.8432 Y10.084
G3 X22.8215 Y9.6742 I4.1685 J-0.4259
G3 Y9.6481 I3.3947 J-0.0131
G3 X22.9072 Y8.821 I4.1906 J0.0161
G3 X22.5635 Y8.8296 I-0.3318 J-6.445
G1 X21.814
G3 X21.5051 Y8.8155 I0.0 J-3.3947
G3 X21.1962 Y8.8296 I-0.3089 J-3.3806
G1 X20.1288
G3 X21.0958 Y9.9128 I-2.5144 J3.2179
G1 X21.2659 Y9.93
G1 X21.369 Y9.9402
G1 X21.3552 Y10.0796
G1 X22.1667 Y10.16
G1 X22.8484 Y10.2251
G1 X23.0034 Y10.2394
G3 X22.9615 Y9.6736 I4.0083 J-0.5813
G3 Y9.6486 I3.2547 J-0.0125
G3 X23.0857 Y8.6689 I4.0506 J0.0156
G3 X22.5636 Y8.6896 I-0.5103 J-6.2929
G1 X21.814
G3 X21.5051 Y8.6749 I0.0 J-3.2547
G3 X21.1962 Y8.6896 I-0.3089 J-3.24
G1 X19.6826
G3 X21.0119 Y10.045 I-2.0683 J3.3579
G1 X21.0128 Y10.0451
G1 X21.2519 Y10.0693
G1 X21.3552 Y10.0796
G1 X21.3414 Y10.2189
G1 X22.1531 Y10.2993
G1 X22.8354 Y10.3645
G1 X23.1717 Y10.3955
G3 X23.1015 Y9.6731 I3.8401 J-0.7374
G3 Y9.6492 I3.1147 J-0.012
G3 X23.2758 Y8.5097 I3.9106 J0.015
G3 X22.5637 Y8.5496 I-0.7004 J-6.1337
G1 X21.814
G3 X21.5051 Y8.5342 I0.0 J-3.1147
G3 X21.1962 Y8.5496 I-0.3089 J-3.0994
G1 X19.4852
G3 X19.0281 Y8.5158 I0.0 J-3.1147
G1 Y8.5162
G3 X20.9264 Y10.1769 I-1.4137 J3.5313
G1 X20.9985 Y10.1844
G1 X21.238 Y10.2086
G1 X21.3414 Y10.2189
G1 X21.3276 Y10.3582
G1 X22.1396 Y10.4387
G1 X22.8223 Y10.5039
G1 X23.3296 Y10.5506
G1 X23.3491 Y10.5523
G3 X23.2415 Y9.6726 I3.6626 J-0.8942
G3 Y9.6497 I2.9747 J-0.0114
G3 X23.4812 Y8.3412 I3.7706 J0.0145
G3 X23.4579 Y8.3447 I-0.7032 J-4.5974
G3 X22.5639 Y8.4096 I-0.8826 J-5.9686
G1 X21.814
G3 X21.5051 Y8.3935 I0.0 J-2.9747
G3 X21.1962 Y8.4096 I-0.3089 J-2.9586
G1 X19.4852
G3 X18.8856 Y8.3485 I0.0 J-2.9747
G1 X18.8894 Y8.6127
G3 X20.8392 Y10.3086 I-1.2751 J3.4348
G1 X20.9842 Y10.3237
G1 X21.224 Y10.3479
G1 X21.3276 Y10.3582
G1 X21.3138 Y10.4975
G1 X22.126 Y10.578
G1 X22.8092 Y10.6433
G1 X23.3172 Y10.69
G1 X23.5186 Y10.7075
G3 X23.5274 Y10.6769 I3.4927 J0.9882
G3 X23.3815 Y9.672 I3.4843 J-1.0189
G3 Y9.6502 I2.8347 J-0.0109
G3 X23.7089 Y8.1575 I3.6306 J0.0139
G3 X23.4375 Y8.2062 I-0.9309 J-4.4138
G3 X22.564 Y8.2696 I-0.8621 J-5.8301
G1 X21.814
G3 X21.5051 Y8.2527 I0.0 J-2.8347
G3 X21.1962 Y8.2696 I-0.3089 J-2.8178
G1 X19.4852
G3 X18.7431 Y8.1707 I0.0 J-2.8347
G1 X18.7508 Y8.712
G3 X20.7502 Y10.4402 I-1.1365 J3.3355
G1 X20.97 Y10.4629
G1 X21.2101 Y10.4872
G1 X21.3138 Y10.4975
G1 X21.2999 Y10.6368
G1 X22.1124 Y10.7174
G1 X22.7961 Y10.7827
G1 X23.3047 Y10.8295
G1 X23.6237 Y10.8572
G3 X23.6735 Y10.6769 I3.3875 J0.8386
G3 X23.5215 Y9.6715 I3.3382 J-1.0189
G3 Y9.6508 I2.6947 J-0.0104
G3 X23.9279 Y8.0294 I3.4906 J0.0134
G3 X23.8059 Y7.9921 I0.7277 J-2.5946
G3 X23.417 Y8.0677 I-1.0279 J-4.2483
G3 X22.5641 Y8.1296 I-0.8416 J-5.6917
G1 X21.814
G3 X21.5051 Y8.1118 I0.0 J-2.6947
G3 X21.1962 Y8.1296 I-0.3089 J-2.677
G1 X19.4852
G3 X18.6003 Y7.9801 I0.0 J-2.6947
G1 X18.6123 Y8.8142
G3 X20.6593 Y10.5715 I-0.998 J3.2333
G1 X20.9557 Y10.6022
G1 X21.1961 Y10.6265
G1 X21.2999 Y10.6368
G1 X21.2861 Y10.7761
G1 X22.0989 Y10.8567
G1 X22.7831 Y10.9221
G1 X23.2922 Y10.9689
G1 X23.733 Y11.0072
G3 X23.8202 Y10.6769 I3.2782 J0.6885
G3 X23.6615 Y9.6709 I3.1915 J-1.0189
G3 Y9.6513 I2.5547 J-0.0098
G3 X24.1409 Y7.9372 I3.3506 J0.0129
G3 X23.8122 Y7.8463 I0.5148 J-2.5023
G3 X23.3965 Y7.9292 I-1.0342 J-4.1025
G3 X22.5643 Y7.9896 I-0.8211 J-5.5532
G1 X21.814
G3 X21.5051 Y7.9708 I0.0 J-2.5547
G3 X21.1962 Y7.9896 I-0.3089 J-2.536
G1 X19.4852
G3 X18.4573 Y7.7736 I0.0 J-2.5547
G1 X18.4738 Y8.9196
G3 X20.5662 Y10.7026 I-0.8595 J3.1279
G1 X20.9414 Y10.7415
G1 X21.1821 Y10.7658
G1 X21.2861 Y10.7761
G1 X21.2723 Y10.9155
G1 X22.0853 Y10.996
G1 X22.77 Y11.0614
G1 X23.2797 Y11.1084
G1 X23.8469 Y11.1576
G3 X23.9675 Y10.6769 I3.1643 J0.5381
G3 X23.8015 Y9.6704 I3.0442 J-1.0189
G3 Y9.6518 I2.4147 J-0.0093
G3 X24.3748 Y7.8332 I3.2106 J0.0123
G3 X23.819 Y7.7 I0.2808 J-2.3983
G3 X23.376 Y7.7907 I-1.041 J-3.9562
G3 X22.5644 Y7.8496 I-0.8007 J-5.4147
G1 X21.814
G3 X21.5051 Y7.8297 I0.0 J-2.4147
G3 X21.1962 Y7.8496 I-0.3089 J-2.3949
G1 X19.4852
G3 X18.3141 Y7.5465 I0.0 J-2.4147
G1 X18.3354 Y9.0286
G3 X20.4709 Y10.8335 I-0.721 J3.0189
G1 X20.9272 Y10.8807
G1 X21.1682 Y10.9051
G1 X21.2723 Y10.9155
G1 X21.2585 Y11.0548
G1 X22.0718 Y11.1354
G1 X22.7569 Y11.2008
G1 X23.2673 Y11.2478
G1 X23.966 Y11.3085
G3 X24.1155 Y10.6769 I3.0453 J0.3873
G3 X23.9415 Y9.6699 I2.8962 J-1.0189
G3 Y9.6524 I2.2747 J-0.0088
G3 X24.644 Y7.7095 I3.0706 J0.0118
G3 X23.8263 Y7.553 I0.0116 J-2.2747
G3 X23.3556 Y7.6522 I-1.0484 J-3.8093
G3 X22.5646 Y7.7096 I-0.7802 J-5.2762
G1 X21.814
G3 X21.5051 Y7.6885 I0.0 J-2.2747
G3 X21.1962 Y7.7096 I-0.3089 J-2.2537
G1 X19.4852
G3 X18.1704 Y7.291 I0.0 J-2.2747
G1 X18.197 Y9.1415
G3 X20.373 Y10.9641 I-0.5826 J2.906
G1 X20.9129 Y11.02
G1 X21.1542 Y11.0444
G1 X21.2585 Y11.0548
G1 X21.2447 Y11.1941
G1 X22.0582 Y11.2747
G1 X22.7439 Y11.3402
G1 X23.2548 Y11.3872
G1 X24.0227 Y11.4539
G1 X24.091 Y11.4594
G3 X24.2643 Y10.6769 I2.9202 J0.2363
G3 X24.0815 Y9.6693 I2.7474 J-1.0189
G3 Y9.6529 I2.1347 J-0.0082
G3 X24.9624 Y7.5696 I2.9306 J0.0113
G1 X24.6556
G3 X23.8344 Y7.4053 I0.0 J-2.1347
G3 X23.3351 Y7.5137 I-1.0564 J-3.6615
G3 X22.5647 Y7.5696 I-0.7597 J-5.1377
G1 X21.814
G3 X21.5051 Y7.5471 I0.0 J-2.1347
G3 X21.1962 Y7.5696 I-0.3089 J-2.1123
G1 X19.4852
G3 X18.0261 Y6.993 I0.0 J-2.1347
G1 X18.0586 Y9.2589
G3 X20.2724 Y11.0944 I-0.4443 J2.7886
G1 X20.8987 Y11.1593
G1 X21.1403 Y11.1838
G1 X21.2447 Y11.1941
G1 X21.2309 Y11.3334
G1 X22.0446 Y11.4141
G1 X22.7308 Y11.4796
G1 X23.2423 Y11.5267
G1 X24.0111 Y11.5935
G1 X24.2228 Y11.6104
G3 X24.4142 Y10.6769 I2.7885 J0.0853
G3 X24.2215 Y9.6688 I2.5975 J-1.0189
G3 Y9.6535 I1.9947 J-0.0077
G3 X25.3406 Y7.4296 I2.7906 J0.0107
G1 X24.6556
G3 X23.8433 Y7.2567 I0.0 J-1.9947
G3 X23.3146 Y7.3752 I-1.0653 J-3.5129
G3 X22.5648 Y7.4296 I-0.7392 J-4.9992
G1 X21.814
G3 X21.5051 Y7.4055 I0.0 J-1.9947
G3 X21.1962 Y7.4296 I-0.3089 J-1.9707
G1 X19.4852
G3 X17.8807 Y6.6199 I0.0 J-1.9947
G1 X17.9204 Y9.3812
G3 X20.1688 Y11.2244 I-0.306 J2.6663
G1 X20.8844 Y11.2986
G1 X21.1263 Y11.3231
G1 X21.2309 Y11.3334
G1 X21.2171 Y11.4727
G1 X22.0311 Y11.5534
G1 X22.7177 Y11.619
G1 X23.2299 Y11.6661
G1 X23.9994 Y11.733
G1 X24.3625 Y11.7621
G3 X24.3615 Y11.6995 I2.6495 J-0.0724
G3 Y11.6855 I1.8547 J-0.0068
G3 X24.5652 Y10.6769 I2.6498 J0.0102
G3 X24.3615 Y9.6683 I2.4465 J-1.0189
G3 Y9.654 I1.8547 J-0.0071
G3 X25.8344 Y7.2896 I2.6506 J0.0102
G1 X24.6556
G3 X23.8531 Y7.107 I0.0 J-1.8547
G3 X23.2942 Y7.2367 I-1.0752 J-3.3632
G3 X22.565 Y7.2896 I-0.7188 J-4.8607
G1 X21.814
G3 X21.5051 Y7.2637 I0.0 J-1.8547
G3 X21.1962 Y7.2896 I-0.3089 J-1.8288
G1 X19.4852
G3 X17.7324 Y6.041 I0.0 J-1.8547
G1 X17.7822 Y9.5092
G3 X20.0618 Y11.3541 I-0.1679 J2.5383
G1 X20.8701 Y11.4378
G1 X21.1124 Y11.4624
G1 X21.2171 Y11.4727
G0 Z3.0
G0 X23.611 Y14.902
G0 Z1.25
G1 Z-0.15
G3 X23.7268 Y14.976 I-0.3727 J0.7107
G3 X24.0567 Y15.5733 I-0.4708 J0.6498
G1 X24.3801 Y16.8525
G1 X24.0153 Y14.9077
G1 X23.6609 Y14.903
G3 X23.6592 Y14.9029 I0.0042 J-0.3147
G3 X23.611 Y14.902 I1.4687 J-79.5164
G0 Z3.0
G0 X22.4981 Y16.5269
G0 Z1.25
G1 Z-0.15
G2 X22.4416 Y16.5245 I-3.2743 J78.502
G3 X22.512 Y16.5817 I-0.5587 J0.759
G1 X22.4981 Y16.5269
G1 X22.5039 Y16.387
G2 X21.5374 Y16.3526 I-3.2801 J78.6418
G3 X21.5369 I0.0093 J-0.3146
G1 X20.6199 Y16.3242
G1 X20.6994 Y16.3359
G1 X20.991 Y16.377
G1 X21.2104 Y16.4067
G3 X21.2154 Y16.4074 I-0.0423 J0.3119
G2 X21.2856 Y16.4167 I0.267 J-1.7579
G3 X21.2911 Y16.4174 I-0.0348 J0.3128
G1 X21.363 Y16.4266
G1 X21.4881 Y16.4424
G1 X21.6772 Y16.4651
G3 X21.6914 Y16.4671 I-0.0375 J0.3125
G2 X21.7073 Y16.469 I0.0261 J-0.1568
G3 X21.7216 Y16.4702 I-0.02 J0.3141
G1 X21.8342 Y16.4826
G3 X22.4687 Y16.7351 I0.0487 J0.801
G3 X22.6203 Y16.9726 I-0.53 J0.5053
G3 X22.6227 Y16.979 I-0.2929 J0.1151
G1 X22.6507 Y17.0551
G3 X22.6514 Y17.0569 I-0.2953 J0.1088
G3 X22.6813 Y17.1493 I-1.3663 J0.4936
G1 X23.219 Y18.807
G1 X22.6083 Y16.3914
G2 X22.5039 Y16.387 I-3.3844 J78.6374
G0 Z3.0
G0 X21.2728 Y18.035
G0 Z1.25
G1 Z-0.15
G1 X21.238 Y18.0309
G1 X21.013 Y18.0086
G3 X21.0118 Y18.0085 I0.0311 J-0.3132
G2 X20.8081 Y17.9907 I-0.6597 J6.3893
G3 X20.807 Y17.9906 I0.0223 J-0.3139
G1 X20.7991 Y17.99
G3 X21.2472 Y18.2736 I-0.181 J0.7818
G3 X21.4181 Y18.6385 I-0.6179 J0.5119
G1 X22.2372 Y21.2167
G1 X21.2728 Y18.035
G0 Z3.0
G0 X20.0095 Y19.5048
G0 Z1.25
G1 Z-0.15
G2 X19.4552 Y19.4379 I-0.9069 J5.1789
G3 X19.4549 Y19.4378 I0.0211 J-0.314
G2 X19.0685 Y19.418 I-0.7872 J11.5656
G1 X19.6228 Y19.5651
G3 X19.9295 Y19.6631 I-0.0858 J0.7976
G3 X19.952 Y19.6759 I-0.2431 J0.4541
G3 X19.9735 Y19.6892 I-0.2485 J0.4272
G3 X20.0992 Y19.7875 I-0.4289 J0.6782
G1 X20.0095 Y19.5048
G0 Z3.0
G0 X23.7509 Y20.4467
G0 Z1.25
G1 Z-0.15
G1 X23.8015 Y20.6025
G1 X23.8235 Y20.6062
G1 X23.8706 Y20.6133
G2 X24.2876 Y20.6658 I1.4907 J-10.1568
G3 X23.8877 Y20.5369 I1.0487 J-3.9391
G3 X23.8325 Y20.5094 I0.1118 J-0.2942
G3 X23.7509 Y20.4467 I0.2844 J-0.4541
G0 Z3.0
G0 X24.873 Y18.8022
G0 Z1.25
G1 Z-0.15
G2 X25.2123 Y18.8051 I0.2106 J-4.841
G3 X25.216 Y18.805 I0.0084 J0.3146
G2 X25.2596 Y18.8043 I-0.1289 J-8.6917
G3 X24.8888 Y18.6718 I0.5142 J-2.0248
G3 X24.8312 Y18.6369 I0.1333 J-0.2851
G1 X24.873 Y18.8022
G0 Z3.0
G0 X27.951 Y18.8048
G0 Z1.25
G1 Z-0.15
G3 X28.0245 Y18.8783 I-0.9457 J1.0188
G3 X28.0979 Y18.8049 I1.0196 J0.9462
G3 X28.0244 Y18.7314 I0.9462 J-1.0196
G3 X27.951 Y18.8048 I-1.0194 J-0.9455
G1 X27.8558 Y18.9074
G3 X28.0244 Y19.0997 I-0.8505 J0.9162
G3 X28.3192 Y18.8049 I1.0196 J0.7248
G3 X28.0244 Y18.51 I0.7248 J-1.0196
G3 X27.7297 Y18.8048 I-1.0193 J-0.7241
G3 X27.8558 Y18.9074 I-0.7244 J1.0188
G1 X27.7605 Y19.01
G3 X28.0244 Y19.3834 I-0.7552 J0.8136
G3 X28.6028 Y18.8049 I1.0197 J0.4411
G3 X28.0243 Y18.2263 I0.4412 J-1.0196
G3 X27.4462 Y18.8048 I-1.0193 J-0.4403
G3 X27.7605 Y19.01 I-0.4409 J1.0188
G0 Z3.0
G0 X28.0244 Y20.7637
G0 Z1.25
G1 Z-0.15
G3 X27.9511 Y20.837 I-1.019 J-0.9453
G3 X28.0244 Y20.9103 I-0.9452 J1.0184
G3 X28.0977 Y20.837 I1.0188 J0.9458
G3 X28.0244 Y20.7637 I0.946 J-1.0193
G1 X27.9218 Y20.6684
G3 X27.7298 Y20.837 I-0.9163 J-0.8501
G3 X28.0244 Y21.1316 I-0.7239 J1.0184
G3 X28.3191 Y20.837 I1.0188 J0.7244
G3 X28.0244 Y20.5423 I0.7246 J-1.0194
G3 X27.9218 Y20.6684 I-1.0189 J-0.7239
G1 X27.8192 Y20.5732
G3 X27.4461 Y20.837 I-0.8137 J-0.7548
G3 X28.0243 Y21.4153 I-0.4402 J1.0184
G3 X28.6028 Y20.837 I1.0188 J0.4408
G3 X28.0243 Y20.2586 I0.4409 J-1.0194
G3 X27.8192 Y20.5732 I-1.0189 J-0.4402
G0 Z3.0
G0 X29.9833 Y20.837
G0 Z1.25
G1 Z-0.15
G3 X30.1579 Y21.0328 I-0.9454 J1.0188
G1 X30.1526 Y20.6484
G3 X29.9833 Y20.837 I-1.115 J-0.8303
G0 Z3.0
G0 X30.1798 Y22.6422
G0 Z1.25
G1 Z-0.15
G3 X29.9831 Y22.869 I-1.1427 J-0.7926
G3 X30.1861 Y23.1049 I-0.9455 J1.0192
G1 X30.1798 Y22.6422
G0 Z3.0
G0 X30.3261 Y24.4039
G0 Z1.25
G1 Z-0.15
G3 X30.2957 Y24.4734 I-1.2881 J-0.5218
G1 X30.3862 Y24.4695
G3 X30.3261 Y24.4039 I0.4074 J-0.4332
G0 Z3.0
G0 X28.0726 Y24.6695
G0 Z1.25
G1 Z-0.15
G3 X28.0244 Y24.6061 I0.9707 J-0.788
G3 X27.9762 Y24.6695 I-1.0185 J-0.7237
G1 X28.0726
G1 Y24.8095
G1 X28.4338
G3 X28.0244 Y24.3224 I0.6096 J-0.928
G3 X27.6152 Y24.8095 I-1.0185 J-0.4401
G1 X28.0726
G0 Z3.0
G0 X28.0244 Y22.9425
G0 Z1.25
G1 Z-0.15
G3 X28.098 Y22.869 I1.0192 J0.946
G3 X28.0244 Y22.7954 I0.9461 J-1.0197
G3 X27.9509 Y22.869 I-1.0194 J-0.9455
G3 X28.0244 Y22.9425 I-0.9453 J1.0188
G1 X27.9218 Y23.0377
G3 X28.0244 Y23.1639 I-0.9162 J0.85
G3 X28.3194 Y22.869 I1.0192 J0.7246
G3 X28.0244 Y22.574 I0.7246 J-1.0197
G3 X27.7295 Y22.869 I-1.0193 J-0.7241
G3 X27.9218 Y23.0377 I-0.7239 J1.0188
G1 X27.8192 Y23.1329
G3 X28.0243 Y23.4476 I-0.8136 J0.7548
G3 X28.6031 Y22.869 I1.0192 J0.4409
G3 X28.0243 Y22.2903 I0.4409 J-1.0197
G3 X27.4458 Y22.869 I-1.0193 J-0.4403
G3 X27.8192 Y23.1329 I-0.4402 J1.0187
G0 Z3.0
G0 X30.1296 Y18.9636
G0 Z1.25
G1 Z-0.15
G1 X30.1254 Y18.6514
G3 X29.9832 Y18.8049 I-1.0882 J-0.8658
G3 X30.1296 Y18.9636 I-0.946 J1.0192
G1 X30.0197 Y19.0503
G3 X30.2794 Y19.6795 I-0.9824 J0.7738
G1 X30.2573 Y18.06
G3 X29.7619 Y18.8049 I-1.2202 J-0.2744
G3 X30.0197 Y19.0503 I-0.7246 J1.0192
G0 Z3.0
G0 X30.1015 Y16.897
G0 Z1.25
G1 Z-0.15
G1 X30.0981 Y16.6529
G3 X29.9833 Y16.773 I-1.0605 J-0.8989
G3 X30.1015 Y16.897 I-0.9454 J1.0188
G1 X29.9943 Y16.9872
G3 X30.2495 Y17.4847 I-0.9564 J0.8047
G1 X30.231 Y16.1268
G3 X29.762 Y16.773 I-1.1934 J-0.3727
G3 X29.9943 Y16.9872 I-0.7241 J1.0188
G0 Z3.0
G0 X28.0725 Y17.0043
G0 Z1.25
G1 Z-0.15
G1 X27.9762
G3 X28.0244 Y17.0676 I-0.9703 J0.7872
G3 X28.0725 Y17.0043 I1.0188 J0.7244
G1 Y16.8643
G1 X27.6152
G3 X28.0243 Y17.3513 I-0.6093 J0.9272
G3 X28.4336 Y16.8643 I1.0188 J0.4408
G1 X28.0725
G0 Z3.0
G0 Y14.5095
G0 Z1.25
G1 Z-0.15
G1 X28.0727
G3 X28.0244 Y14.4461 I0.9707 J-0.788
G3 X27.9762 Y14.5095 I-1.0185 J-0.7237
G1 X28.0725
G1 Y14.6495
G1 X28.4338
G3 X28.0244 Y14.1624 I0.6096 J-0.928
G3 X27.6152 Y14.6495 I-1.0184 J-0.44
G1 X28.0725
G0 Z3.0
G0 X28.0244 Y12.7825
G0 Z1.25
G1 Z-0.15
G3 X28.098 Y12.709 I1.0192 J0.946
G3 X28.0244 Y12.6354 I0.9461 J-1.0197
G3 X27.9509 Y12.709 I-1.0194 J-0.9455
G3 X28.0244 Y12.7825 I-0.9453 J1.0188
G1 X27.9218 Y12.8777
G3 X28.0244 Y13.0039 I-0.9162 J0.85
G3 X28.3194 Y12.709 I1.0192 J0.7246
G3 X28.0244 Y12.414 I0.7247 J-1.0197
G3 X27.7295 Y12.709 I-1.0193 J-0.7241
G3 X27.9218 Y12.8777 I-0.7239 J1.0187
G1 X27.8192 Y12.973
G3 X28.0243 Y13.2876 I-0.8136 J0.7548
G3 X28.6031 Y12.709 I1.0192 J0.4409
G3 X28.0243 Y12.1303 I0.4409 J-1.0197
G3 X27.4458 Y12.709 I-1.0193 J-0.4403
G3 X27.8192 Y12.973 I-0.4403 J1.0187
G0 Z3.0
G0 X29.9831 Y12.709
G0 Z1.25
G1 Z-0.15
G3 X30.0452 Y12.7703 I-0.9455 J1.0192
G1 X30.0435 Y12.6494
G3 X29.9831 Y12.709 I-1.0064 J-0.9598
G1 X29.8879 Y12.6064
G3 X29.7617 Y12.709 I-0.8507 J-0.9167
G3 X30.1917 Y13.2474 I-0.7241 J1.0192
G1 X30.1774 Y12.2033
G3 X29.8879 Y12.6064 I-1.1403 J-0.5137
G0 Z3.0
G0 X30.017 Y10.7094
G0 Z1.25
G1 Z-0.15
G1 X30.0162 Y10.6455
G3 X29.9833 Y10.677 I-0.9786 J-0.9875
G3 X30.017 Y10.7094 I-0.9454 J1.0188
G1 X30.157 Y10.7075
G1 X30.1508 Y10.2539
G3 X30.1513 Y10.2261 I0.4547 J-0.0062
G3 X29.762 Y10.677 I-1.1137 J-0.568
G3 X30.1631 Y11.1516 I-0.724 J1.0188
G1 X30.157 Y10.7075
G0 Z3.0
G0 X30.4276 Y9.6802
G0 Z1.25
G1 Z-0.15
G3 X30.5966 Y9.653 I0.1779 J0.5675
G1 X30.6666 Y9.652
G3 X30.6308 Y9.6238 I2.7976 J-3.5863
G1 X30.617 Y9.617
G3 X30.6155 Y9.6162 I0.2625 J-0.5337
G1 X30.4708 Y9.5445
G3 X30.4675 Y9.5429 I0.264 J-0.5329
G1 X30.4202 Y9.5191
G3 X30.4278 Y9.6589 I-1.383 J0.1449
G3 Y9.6634 I-0.5947 J0.0022
G3 X30.4276 Y9.6802 I-1.3902 J-0.0053
G1 X30.4695 Y9.8138
G3 X30.5987 Y9.793 I0.136 J0.4339
G1 X31.0985 Y9.7855
G3 X30.7063 Y9.5049 I2.3658 J-3.7199
G1 X30.6788 Y9.4913
G3 X30.6777 Y9.4908 I0.2007 J-0.408
G1 X30.5329 Y9.4191
G3 X30.5304 Y9.4178 I0.2018 J-0.4075
G1 X30.3921 Y9.3483
G3 X30.2212 Y9.2614 I3.2201 J-6.5435
G3 X30.2878 Y9.6594 I-1.1839 J0.4027
G3 Y9.6629 I-0.4547 J0.0017
G3 X30.2496 Y9.9646 I-1.2502 J-0.0048
G3 X30.4695 Y9.8138 I0.3559 J0.2831
G0 Z3.0
G0 X28.0977 Y10.677
G0 Z1.25
G1 Z-0.15
G3 X28.0244 Y10.6037 I0.946 J-1.0193
G3 X27.9511 Y10.677 I-1.019 J-0.9453
G3 X28.0244 Y10.7503 I-0.9452 J1.0184
G3 X28.0977 Y10.677 I1.0188 J0.9458
G1 X28.193 Y10.5743
G3 X28.0244 Y10.3823 I0.8507 J-0.9167
G3 X27.7298 Y10.677 I-1.0189 J-0.7239
G3 X28.0244 Y10.9716 I-0.7239 J1.0184
G3 X28.3191 Y10.677 I1.0188 J0.7244
G3 X28.193 Y10.5743 I0.7246 J-1.0194
G1 X28.2882 Y10.4717
G3 X28.0243 Y10.0986 I0.7555 J-0.8141
G3 X27.4461 Y10.677 I-1.0189 J-0.4402
G3 X28.0243 Y11.2553 I-0.4402 J1.0184
G3 X28.6028 Y10.677 I1.0188 J0.4408
G3 X28.2882 Y10.4717 I0.4409 J-1.0194
G0 Z3.0
G0 X30.0708 Y14.652
G0 Z1.25
G1 Z-0.15
G3 X29.9833 Y14.7409 I-1.0328 J-0.9299
G3 X30.0733 Y14.8326 I-0.946 J1.0192
G1 X30.0708 Y14.652
G1 X30.2108 Y14.6501
G1 X30.2043 Y14.1713
G3 X29.7619 Y14.7409 I-1.1662 J-0.4492
G3 X30.2204 Y15.3551 I-0.7246 J1.0192
G1 X30.2108 Y14.6501
G0 Z3.0
G0 X26.0661 Y14.7409
G0 Z1.25
G1 Z-0.15
G3 X25.8572 Y14.4962 I0.9453 J-1.019
G1 X25.9313 Y14.8851
G3 X26.0661 Y14.7409 I1.0808 J0.8751
G0 Z3.0
G0 X23.0231 Y22.6887
G0 Z1.25
G1 Z-0.15
G3 X22.8296 Y22.619 I0.2205 J-0.9163
G1 X22.8524 Y22.6907
G1 X23.0231 Y22.6887
G1 X23.0248 Y22.8287
G1 X24.9014 Y22.8069
G3 X24.9088 I0.0037 J0.3147
G2 X24.9594 Y22.8063 I0.0125 J-1.0473
G3 X24.9668 Y22.8061 I0.0114 J0.3145
G1 X25.6004 Y22.7981
G1 X25.3941 Y22.7703
G1 X24.8663 Y22.7002
G1 X24.669 Y22.6759
G3 X24.6669 Y22.6756 I0.0385 J-0.3124
G2 X24.3298 Y22.6381 I-1.1959 J9.2095
G3 X24.3197 Y22.637 I0.0291 J-0.3134
G2 X24.2055 Y22.6257 I-0.268 J2.131
G3 X24.1995 Y22.6252 I0.0225 J-0.3139
G1 X24.0857 Y22.6148
G2 X23.3231 Y22.5705 I-1.178 J13.6881
G3 X23.2568 Y22.5747 I-0.0902 J-0.897
G3 X23.2516 Y22.5748 I-0.0084 J-0.3146
G3 X22.7354 Y22.3934 I-0.0079 J-0.8024
G3 X22.5371 Y22.1609 I0.5003 J-0.6274
G1 X22.7503 Y22.8319
G1 X22.7978 Y22.8313
G1 X23.0248 Y22.8287
G0 Z3.0
G0 X21.6119 Y24.5592
G0 Z1.25
G1 Z-0.15
G3 X21.5807 Y24.541 I0.5305 J-0.9436
G1 X21.5848 Y24.5593
G1 X21.6119 Y24.5592
G1 X21.6127 Y24.6992
G1 X23.534 Y24.6886
G1 X23.353 Y24.6665
G2 X22.2214 Y24.5646 I-2.372 J20.0115
G3 X22.1825 Y24.5664 I-0.0628 J-0.9571
G3 X22.1795 I-0.0113 J-0.4546
G3 X21.7814 Y24.4862 I-0.0172 J-0.9423
G3 X21.3416 Y24.1125 I0.361 J-0.8706
G1 X21.4728 Y24.6999
G1 X21.6127 Y24.6992
G1 X21.6135 Y24.8392
G1 X25.5002 Y24.8178
G1 X25.3901 Y24.8026
G3 X25.3886 Y24.8024 I0.043 J-0.3118
G1 X24.5873 Y24.6878
G1 X23.9873 Y24.6049
G1 X23.7637 Y24.5757
G1 X23.3697 Y24.5275
G2 X22.2208 Y24.4243 I-2.3887 J20.1505
G3 X22.179 Y24.4264 I-0.0621 J-0.8168
G3 X22.1769 I-0.0078 J-0.3146
G3 X21.8365 Y24.3575 I-0.0147 J-0.8023
G3 X21.3456 Y23.7108 I0.3059 J-0.7419
G1 X20.5461 Y21.194
G1 X21.3608 Y24.8406
G1 X21.6135 Y24.8392
G0 Z3.0
G0 X19.1057 Y29.9889
G0 Z1.25
G1 Z-0.15
G1 X17.9132 Y30.2597
G1 X18.4428 Y30.2736
G3 X18.4518 Y30.2739 I-0.023 J0.8744
G2 X18.6998 Y30.2801 I0.3881 J-10.6129
G3 X18.7082 Y30.2802 I-0.0115 J0.8746
G1 X19.1404 Y30.2901
G3 X19.1057 Y29.9889 I1.6351 J-0.3407
G1 X19.0747 Y29.8523
G1 X16.8083 Y30.3671
G1 X17.8679 Y30.3986
G1 X18.4391 Y30.4136
G3 X18.4467 Y30.4138 I-0.0193 J0.7345
G2 X18.6979 Y30.4201 I0.3932 J-10.7528
G3 X18.705 Y30.4202 I-0.0097 J0.7347
G1 X19.3241 Y30.4343
G3 X19.2453 Y29.9553 I1.4513 J-0.4849
G3 Y29.9496 I0.7347 J-0.0028
G3 X19.252 Y29.8121 I1.5298 J0.0059
G1 X19.0747 Y29.8523
G1 X19.0437 Y29.7158
G1 X16.6982 Y30.2485
G1 X16.0618 Y30.4826
G1 X16.5581 Y30.4997
G1 X17.864 Y30.5385
G1 X18.4355 Y30.5535
G3 X18.4416 Y30.5537 I-0.0156 J0.5945
G2 X18.6961 Y30.56 I0.3983 J-10.8928
G3 X18.7018 Y30.5601 I-0.0078 J0.5947
G1 X19.5361 Y30.5792
G3 X19.3853 Y29.9547 I1.2394 J-0.6298
G3 Y29.9502 I0.5947 J-0.0023
G3 X19.4241 Y29.6294 I1.3898 J0.0054
G1 X19.0437 Y29.7158
G1 X19.0127 Y29.5793
G1 X16.6584 Y30.114
G1 X15.7677 Y30.4416
G3 X15.7006 Y30.6097 I-1.0928 J-0.339
G1 X15.8579 Y30.6157
G1 X16.5536 Y30.6396
G1 X17.8601 Y30.6785
G1 X18.4318 Y30.6935
G3 X18.4365 Y30.6936 I-0.0119 J0.4546
G2 X18.6942 Y30.7 I0.4035 J-11.0327
G3 X18.6986 Y30.7001 I-0.006 J0.4547
G1 X19.7378 Y30.7238
G1 X19.7949 Y30.725
G3 X19.5253 Y29.9542 I0.9806 J-0.7756
G3 Y29.9507 I0.4547 J-0.0017
G3 X19.6378 Y29.4373 I1.2498 J0.0048
G1 X19.0127 Y29.5793
G1 X18.9817 Y29.4428
G1 X16.6185 Y29.9795
G1 X15.6518 Y30.3351
G3 X15.4508 Y30.74 I-0.9769 J-0.2325
G1 X15.494 Y30.7419
G1 X15.8528 Y30.7556
G1 X16.5492 Y30.7796
G1 X17.8562 Y30.8184
G1 X18.4281 Y30.8334
G3 X18.4314 Y30.8335 I-0.0083 J0.3146
G2 X18.6924 Y30.84 I0.4086 J-11.1726
G3 X18.6954 Y30.8401 I-0.0042 J0.3147
G1 X19.7348 Y30.8638
G1 X20.1582 Y30.8722
G3 X19.6653 Y29.9537 I0.6173 J-0.9228
G3 Y29.9512 I0.3147 J-0.0012
G3 X19.9394 Y29.2252 I1.1098 J0.0043
G1 X18.9817 Y29.4428
G0 Z3.0
G0 X22.53 Y35.3448
G0 Z1.25
G1 Z-0.15
G3 X22.6146 Y35.453 I-0.9716 J0.8472
G3 X22.7006 Y35.3486 I1.138 J0.8501
G1 X22.53 Y35.3448
G1 X22.4244 Y35.4368
G3 X22.5197 Y35.5626 I-0.866 J0.7551
G3 X22.5232 Y35.5679 I-0.4976 J0.3258
G3 X22.6063 Y35.7323 I-0.7711 J0.4932
G3 X22.9135 Y35.3358 I1.1462 J0.5708
G3 X23.0672 Y35.2165 I0.9939 J1.1215
G1 X22.1348 Y35.1962
G3 X22.2284 Y35.2586 I-1.0555 J1.6862
G3 X22.2351 Y35.2634 I-0.3436 J0.4855
G3 X22.4244 Y35.4368 I-0.6767 J0.9286
G1 X22.3189 Y35.5289
G3 X22.4026 Y35.6393 I-0.7605 J0.6631
G3 X22.4052 Y35.6434 I-0.3804 J0.2491
G3 X22.5269 Y36.0319 I-0.6532 J0.4178
G2 X22.6148 Y36.3844 I7.437 J-1.6678
G3 X22.6121 Y36.3085 I1.2168 J-0.0812
G3 X23.0058 Y35.4411 I1.1404 J-0.0054
G3 X23.3676 Y35.2106 I0.9016 J1.0162
G3 X23.755 Y35.0953 I0.6348 J1.4235
G1 X23.775 Y35.0919
G1 X21.5955 Y35.0444
G1 X21.3803 Y35.0398
G3 X21.5748 Y35.0967 I-1.4023 J5.153
G3 X21.5893 Y35.1015 I-0.136 J0.4339
G1 X21.6928 Y35.1378
G3 X21.6934 Y35.138 I-0.1504 J0.4291
G3 X22.1475 Y35.3728 I-0.6142 J1.7443
G3 X22.1527 Y35.3765 I-0.2627 J0.3712
G3 X22.3189 Y35.5289 I-0.5943 J0.8155
G0 Z3.0
G0 X24.7734 Y38.2877
G0 Z1.25
G1 Z-0.15
G2 X24.8166 Y38.2914 I0.0608 J-0.4614
G1 X24.9298 Y38.2913
G3 X24.9278 Y38.2679 I2.0823 J-0.1856
G3 X24.7734 Y38.2877 I-2.0989 J-15.7329
G1 X24.7563 Y38.1488
G3 X24.7 Y38.1556 I-1.9274 J-15.6138
G3 X24.4915 Y38.1794 I-0.6199 J-4.5158
G3 X24.318 Y38.1972 I-0.6847 J-5.8003
G2 X24.3397 Y38.2163 I1.0261 J-1.1467
G3 X24.3524 Y38.2274 I-0.7537 J0.8748
G2 X24.6001 Y38.3846 I0.6108 J-0.6883
G2 X24.8141 Y38.4314 I0.2341 J-0.5583
G1 X25.0889 Y38.4313
G3 X25.0615 Y38.1175 I1.9232 J-0.3255
G1 X24.9618 Y38.122
G1 X24.9509 Y38.1235
G3 X24.9479 Y38.1239 I-0.1585 J-1.1438
G3 X24.7563 Y38.1488 I-2.119 J-15.589
G1 X24.7391 Y38.0098
G3 X24.6822 Y38.0168 I-1.9102 J-15.4749
G3 X24.477 Y38.0401 I-0.602 J-4.377
G3 X24.1692 Y38.0681 I-0.6702 J-5.6611
G3 X24.0148 Y38.0772 I-0.4338 J-6.0861
G2 X24.0513 Y38.1215 I2.333 J-1.8862
G3 X24.0542 Y38.125 I-0.7767 J0.653
G2 X24.2484 Y38.3223 I1.2899 J-1.0744
G3 X24.2595 Y38.3321 I-0.6623 J0.7687
G2 X24.5454 Y38.5135 I0.7037 J-0.793
G2 X24.812 Y38.5714 I0.2888 J-0.6872
G1 X25.2624 Y38.5712
G3 X25.2015 Y38.1124 I1.7497 J-0.4655
G3 Y38.1048 I1.0147 J-0.0037
G3 X25.207 Y37.9708 I1.8098 J0.007
G1 X24.949 Y37.9824
G1 X24.9317 Y37.9848
G3 X24.929 Y37.9852 I-0.1393 J-1.0051
G3 X24.7391 Y38.0098 I-2.1001 J-15.4502
G1 X24.7219 Y37.8709
G3 X24.6643 Y37.8779 I-1.8931 J-15.3359
G3 X24.4624 Y37.9009 I-0.5842 J-4.2381
G3 X24.1597 Y37.9284 I-0.6557 J-5.5218
G3 X23.8449 Y37.9426 I-0.4244 J-5.9464
G3 X23.8256 Y37.9427 I-0.0161 J-0.8746
G3 X23.74 Y37.9401 I0.0059 J-1.6395
G2 X23.9441 Y38.2115 I2.6078 J-1.7492
G3 X23.9467 Y38.2146 I-0.6696 J0.5629
G2 X24.157 Y38.4284 I1.3974 J-1.164
G3 X24.1666 Y38.4368 I-0.571 J0.6627
G2 X24.4907 Y38.6424 I0.7966 J-0.8977
G2 X24.81 Y38.7114 I0.3435 J-0.8161
G1 X25.455 Y38.7111
G3 X25.3415 Y38.1119 I1.557 J-0.6054
G3 Y38.1053 I0.8747 J-0.0032
G3 X25.3666 Y37.8235 I1.6698 J0.0064
G1 X24.9362 Y37.8429
G1 X24.9124 Y37.8462
G3 X24.9102 Y37.8465 I-0.1201 J-0.8664
G3 X24.7219 Y37.8709 I-2.0813 J-15.3115
G1 X24.7048 Y37.7319
G3 X24.6464 Y37.739 I-1.8759 J-15.197
G3 X24.4479 Y37.7616 I-0.5663 J-4.0992
G3 X24.1503 Y37.7888 I-0.6412 J-5.3825
G3 X23.8423 Y37.8026 I-0.4149 J-5.8067
G3 X23.8261 Y37.8027 I-0.0135 J-0.7346
G3 X23.4632 Y37.7568 I0.0054 J-1.4995
G2 X23.5531 Y37.9082 I3.4609 J-1.9513
G3 X23.5552 Y37.9116 I-0.6234 J0.3888
G2 X23.837 Y38.3016 I2.7926 J-1.7207
G3 X23.8391 Y38.3042 I-0.5624 J0.4728
G2 X24.0656 Y38.5345 I1.505 J-1.2536
G3 X24.0737 Y38.5415 I-0.4796 J0.5566
G2 X24.436 Y38.7712 I0.8895 J-1.0024
G2 X24.8082 Y38.8514 I0.3982 J-0.945
G1 X25.6752 Y38.851
G3 X25.4815 Y38.1114 I1.3368 J-0.7453
G3 Y38.1058 I0.7347 J-0.0027
G3 X25.5451 Y37.6753 I1.5298 J0.0059
G1 X24.9235 Y37.7033
G1 X24.8932 Y37.7075
G3 X24.8913 Y37.7078 I-0.1009 J-0.7278
G3 X24.7048 Y37.7319 I-2.0624 J-15.1728
G1 X24.6876 Y37.593
G3 X24.6285 Y37.6002 I-1.8588 J-15.058
G3 X24.4334 Y37.6223 I-0.5484 J-3.9604
G3 X24.1409 Y37.6491 I-0.6267 J-5.2433
G3 X23.8397 Y37.6626 I-0.4055 J-5.667
G3 X23.8267 Y37.6627 I-0.0109 J-0.5946
G3 X23.1689 Y37.4903 I0.0049 J-1.3595
G2 X23.2881 Y37.7282 I5.5608 J-2.6376
G2 X23.4343 Y37.9823 I3.636 J-1.9228
G3 X23.436 Y37.985 I-0.5046 J0.3148
G2 X23.7298 Y38.3917 I2.9118 J-1.7941
G3 X23.7315 Y38.3938 I-0.4552 J0.3827
G2 X23.9742 Y38.6405 I1.6126 J-1.3432
G3 X23.9808 Y38.6462 I-0.3882 J0.4506
G2 X24.3813 Y38.9001 I0.9825 J-1.1071
G2 X24.8065 Y38.9914 I0.4529 J-1.0738
G1 X25.9396 Y38.9909
G3 X25.6215 Y38.1109 I1.0724 J-0.8852
G3 Y38.1064 I0.5947 J-0.0022
G3 X25.751 Y37.5258 I1.3898 J0.0054
G1 X24.9107 Y37.5637
G1 X24.874 Y37.5688
G3 X24.8724 Y37.569 I-0.0817 J-0.5891
G3 X24.6876 Y37.593 I-2.0436 J-15.0341
G1 X24.6705 Y37.4541
G3 X24.6106 Y37.4613 I-1.8416 J-14.9191
G3 X24.4189 Y37.4831 I-0.5305 J-3.8215
G3 X24.1315 Y37.5094 I-0.6122 J-5.104
G3 X23.8372 Y37.5226 I-0.3961 J-5.5273
G3 X23.8272 Y37.5227 I-0.0084 J-0.4546
G3 X22.7893 Y36.9364 I0.0044 J-1.2195
G2 X22.8269 Y37.0387 I7.1745 J-2.5723
G3 X22.8274 Y37.0403 I-0.4258 J0.1596
G2 X23.1644 Y37.7937 I5.9022 J-2.1876
G2 X23.3155 Y38.0564 I3.7598 J-1.9882
G3 X23.3168 Y38.0585 I-0.3858 J0.2407
G2 X23.6226 Y38.4818 I3.031 J-1.8676
G3 X23.624 Y38.4834 I-0.3481 J0.2926
G2 X23.8828 Y38.7466 I1.7202 J-1.4328
G3 X23.8878 Y38.751 I-0.2968 J0.3445
G2 X24.3265 Y39.029 I1.0754 J-1.2118
G2 X24.8049 Y39.1314 I0.5076 J-1.2027
G1 X26.2957 Y39.1308
G3 X25.7615 Y38.1103 I0.7163 J-1.025
G3 Y38.1069 I0.4547 J-0.0017
G3 X26.0022 Y37.3744 I1.2498 J0.0048
G1 X24.8979 Y37.4242
G1 X24.8548 Y37.4302
G3 X24.8536 Y37.4303 I-0.0624 J-0.4504
G3 X24.6705 Y37.4541 I-2.0247 J-14.8953
G0 Z3.0
G0 X27.9215 Y37.2612
G0 Z1.25
G1 Z-0.15
G3 X28.0244 Y37.3876 I-0.9156 J0.8502
G3 X28.1113 Y37.2787 I1.0188 J0.7244
G1 X27.9215 Y37.2612
G1 X27.8189 Y37.3564
G3 X28.0243 Y37.6713 I-0.813 J0.755
G3 X28.4629 Y37.1657 I1.0188 J0.4408
G3 X28.2666 Y37.1525 I0.6426 J-10.9948
G3 X28.2616 Y37.152 I0.024 J-0.3138
G1 X27.815 Y37.1107
G3 X27.5546 Y37.1471 I-0.9224 J-5.6521
G3 X27.8189 Y37.3564 I-0.5486 J0.9643
G0 Z3.0
G0 X28.0244 Y38.83
G0 Z1.25
G1 Z-0.15
G3 X27.7222 Y39.1302 I-1.0193 J-0.7241
G1 X28.3263 Y39.1299
G3 X28.0244 Y38.83 I0.7177 J-1.0246
G0 Z3.0
G0 X31.1198 Y38.2887
G0 Z1.25
G1 Z-0.15
G1 X31.5244 Y38.2886
G1 X31.5168 Y38.0449
G3 X31.4449 Y38.0465 I-0.0822 J-2.0578
G1 X31.4095 Y38.0467
G2 X31.1272 Y38.061 I0.074 J4.2678
G3 X31.1278 Y38.1035 I-2.0893 J0.0509
G3 Y38.1136 I-1.2947 J0.0052
G3 X31.1198 Y38.2887 I-2.0906 J-0.008
G1 X30.9803 Y38.2765
G3 X30.9608 Y38.4288 I-1.9432 J-0.1709
G1 X31.6689 Y38.4285
G1 X31.6521 Y37.8942
G3 X31.4441 Y37.9065 I-0.2175 J-1.9071
G1 X31.4078 Y37.9067
G2 X30.9798 Y37.935 I0.0756 J4.4078
G3 X30.9878 Y38.1041 I-1.9419 J0.1769
G3 Y38.1131 I-1.1547 J0.0046
G3 X30.9803 Y38.2765 I-1.9506 J-0.0075
G1 X30.8408 Y38.2642
G3 X30.7875 Y38.5689 I-1.8037 J-0.1586
G1 X31.8133 Y38.5685
G1 X31.7871 Y37.7313
G3 X31.4434 Y37.7665 I-0.3525 J-1.7442
G1 X31.4062 Y37.7667
G2 X30.8841 Y37.8058 I0.0773 J4.5477
G3 X30.8228 Y37.812 I-0.1337 J-1.0059
G3 X30.8478 Y38.1046 I-1.7849 J0.2998
G3 Y38.1126 I-1.0147 J0.0041
G3 X30.8408 Y38.2642 I-1.8106 J-0.007
G1 X30.7014 Y38.252
G3 X30.5951 Y38.709 I-1.6642 J-0.1463
G1 X31.9578 Y38.7084
G1 X31.9215 Y37.5525
G3 X31.4426 Y37.6265 I-0.4869 J-1.5655
G1 X31.4046 Y37.6267
G2 X30.8656 Y37.667 I0.0789 J4.6877
G3 X30.7944 Y37.6735 I-0.1153 J-0.8671
G1 X30.6512 Y37.6807
G3 X30.7078 Y38.1052 I-1.6133 J0.4311
G3 Y38.112 I-0.8747 J0.0035
G3 X30.7014 Y38.252 I-1.6706 J-0.0064
G1 X30.5619 Y38.2397
G3 X30.3751 Y38.8491 I-1.5248 J-0.1341
G1 X32.1023 Y38.8483
G1 X32.0553 Y37.352
G3 X31.4418 Y37.4865 I-0.6207 J-1.365
G1 X31.403 Y37.4868
G2 X30.8472 Y37.5282 I0.0805 J4.8277
G3 X30.7874 Y37.5337 I-0.0968 J-0.7283
G1 X30.461 Y37.5501
G3 X30.5678 Y38.1057 I-1.423 J0.5617
G3 Y38.1115 I-0.7347 J0.0029
G3 X30.5619 Y38.2397 I-1.5306 J-0.0059
G1 X30.4225 Y38.2274
G3 X30.1111 Y38.9892 I-1.3853 J-0.1218
G1 X32.2467 Y38.9883
G1 X32.188 Y37.1186
G3 X31.441 Y37.3465 I-0.7535 J-1.1316
G1 X31.4014 Y37.3468
G2 X30.8287 Y37.3894 I0.0821 J4.9677
G3 X30.7803 Y37.3938 I-0.0784 J-0.5895
G1 X30.2439 Y37.4209
G3 X30.4278 Y38.1063 I-1.206 J0.6909
G3 Y38.111 I-0.5947 J0.0024
G3 X30.4225 Y38.2274 I-1.3906 J-0.0053
G1 X30.283 Y38.2152
G3 X29.7556 Y39.1293 I-1.2458 J-0.1095
G1 X32.3912 Y39.1282
G1 X32.3189 Y36.8267
G3 X31.4402 Y37.2065 I-0.8844 J-0.8397
G1 X31.3998 Y37.2068
G2 X30.8103 Y37.2506 I0.0837 J5.1077
G3 X30.7733 Y37.254 I-0.0599 J-0.4508
G1 X30.0923 Y37.2884
G3 X29.983 Y37.2939 I-1.8713 J-36.0597
G3 X30.2878 Y38.1069 I-0.9451 J0.8179
G3 Y38.1104 I-0.4547 J0.0018
G3 X30.283 Y38.2152 I-1.2506 J-0.0048
G1 X30.1435 Y38.2029
G3 X29.042 Y39.2163 I-1.1064 J-0.0973
G3 X29.0393 I-0.0014 J-0.3147
G3 X28.0243 Y38.5463 I0.0047 J-1.111
G3 X27.0101 Y39.2163 I-1.0193 J-0.4403
G3 X27.0073 I-0.0014 J-0.3147
G3 X25.9015 Y38.1098 I0.0047 J-1.1105
G3 Y38.1075 I0.3147 J-0.0012
G3 X26.3607 Y37.2127 I1.1098 J0.0043
G2 X26.1171 Y37.229 I4.7234 J72.5254
G3 X26.1097 Y37.2294 I-0.0215 J-0.314
G1 X24.8851 Y37.2846
G1 X24.8356 Y37.2915
G3 X24.8347 Y37.2916 I-0.0432 J-0.3117
G3 X24.5927 Y37.3225 I-2.0058 J-14.7566
G3 X24.4045 Y37.3438 I-0.5125 J-3.6827
G3 X24.122 Y37.3697 I-0.5977 J-4.9647
G3 X23.8346 Y37.3826 I-0.3867 J-5.3877
G3 X23.8277 Y37.3827 I-0.0058 J-0.3147
G3 X22.7521 Y36.3078 I0.0039 J-1.0795
G3 X23.0981 Y35.5464 I1.0004 J-0.0047
G3 X23.4239 Y35.3388 I0.8093 J0.9109
G3 X23.7777 Y35.2334 I0.5785 J1.2953
G1 X24.4784 Y35.1149
G3 X24.5198 Y35.1107 I0.0525 J0.3103
G1 X26.0785 Y35.0559
G1 X26.2326 Y35.034
G3 X26.1962 Y35.0063 I0.3664 J-0.5188
G1 X23.8048 Y34.9525
G1 X21.5985 Y34.9044
G1 X20.6333 Y34.8838
G1 X17.0134 Y34.809
G1 X16.3348 Y34.7954
G1 X13.7896 Y34.7462
G2 X11.8808 Y34.7114 I-69.747 J3770.4606
G1 X11.7019 Y34.7083
G1 X8.9279 Y34.6625
G3 X8.9223 Y34.6623 I0.0052 J-0.3147
G2 X8.7608 Y34.6599 I-0.1447 J4.2279
G3 X8.7518 Y34.6598 I-0.0012 J-0.3147
G2 X8.5954 Y34.6574 I-0.1967 J7.9276
G3 X8.5926 I0.0016 J-0.3147
G1 X7.3736 Y34.6403
G1 X7.0689 Y34.6364
G3 X7.0668 I0.0041 J-0.3147
G2 X6.6143 Y34.6308 I-0.5953 J30.342
G3 X6.6123 I0.0015 J-0.3147
G1 X6.1786 Y34.626
G3 X6.1415 Y34.6297 I-0.0986 J-0.8069
G2 X6.9463 Y34.6749 I3.0193 J-46.503
G1 X7.2202 Y34.688
G1 X7.7506 Y34.7111
G1 X8.7468 Y34.7485
G1 X9.1826 Y34.763
G1 X9.2845 Y34.7662
G1 X10.0895 Y34.7904
G1 X11.4989 Y34.8267
G1 X12.027 Y34.8387
G1 X12.9519 Y34.8576
G1 X14.3394 Y34.8809
G1 X15.0325 Y34.8894
G1 X15.3782 Y34.8922
G1 X15.5502 Y34.8927
G1 X15.6355 Y34.8924
G1 X15.6566 Y34.8923
G3 X15.6678 Y34.8924 I0.0022 J0.3147
G2 X15.7056 Y34.8919 I0.0126 J-0.4359
G3 X15.7158 Y34.8915 I0.0182 J0.3142
G1 X16.1202 Y34.8812
G3 X16.1204 I0.008 J0.3146
G1 X16.4999 Y34.8718
G3 X16.5019 I0.0077 J0.3146
G1 X16.858 Y34.8653
G3 X16.8588 I0.0057 J0.3147
G3 X18.2056 Y34.8655 I0.6668 J42.6201
G3 X19.2254 Y34.9001 I-0.4347 J27.8674
G3 X19.227 Y34.9002 I-0.0164 J0.3143
G1 X19.4174 Y34.9111
G3 X19.4217 Y34.9114 I-0.0181 J0.3142
G1 X19.7789 Y34.9368
G3 X19.7835 Y34.9372 I-0.0224 J0.3139
G1 X19.9403 Y34.9507
G3 X19.9451 Y34.9511 I-0.027 J0.3136
G1 X20.2392 Y34.981
G3 X20.2414 Y34.9812 I-0.0318 J0.3131
G3 X20.7739 Y35.0542 I-1.0313 J9.5037
G3 X20.7759 Y35.0545 I-0.0515 J0.3105
G1 X20.8733 Y35.0713
G3 X20.8796 Y35.0725 I-0.0535 J0.3101
G1 X21.0619 Y35.1078
G3 X21.0713 Y35.1097 I-0.0598 J0.309
G1 X21.2308 Y35.1457
G3 X21.2379 Y35.1473 I-0.0692 J0.307
G3 X21.533 Y35.2303 I-1.2599 J5.0455
G3 X21.5429 Y35.2336 I-0.0941 J0.3003
G1 X21.6465 Y35.2699
G3 X21.6469 Y35.2701 I-0.1041 J0.297
G3 X22.0667 Y35.4871 I-0.5677 J1.6123
G3 X22.0702 Y35.4897 I-0.1818 J0.2569
G3 X22.2855 Y35.716 I-0.5118 J0.7023
G3 X22.2873 Y35.7188 I-0.2633 J0.1724
G3 X22.3873 Y36.0493 I-0.5353 J0.3424
G2 X22.6958 Y37.0879 I7.5766 J-1.6852
G3 X22.6962 Y37.0889 I-0.2947 J0.1104
G2 X23.0406 Y37.8591 I6.0335 J-2.2363
G2 X23.1967 Y38.1305 I3.8835 J-2.0536
G3 X23.1976 Y38.1319 I-0.267 J0.1666
G2 X23.5155 Y38.5719 I3.1501 J-1.941
G3 X23.5164 Y38.573 I-0.2409 J0.2025
G2 X23.7914 Y38.8526 I1.8277 J-1.5224
G3 X23.7949 Y38.8557 I-0.2054 J0.2384
G2 X24.2718 Y39.1578 I1.1683 J-1.3165
G2 X24.8034 Y39.2714 I0.5624 J-1.3315
G1 X32.5356 Y39.2682
G1 X32.4446 Y36.368
G3 X31.4395 Y37.0665 I-1.01 J-0.3809
G1 X31.3982 Y37.0668
G2 X30.7918 Y37.1119 I0.0853 J5.2477
G3 X30.7662 Y37.1142 I-0.0415 J-0.312
G1 X30.0851 Y37.1486
G3 X29.6243 Y37.1695 I-1.8641 J-35.9199
G3 X30.1478 Y38.1074 I-0.5864 J0.9423
G3 Y38.1099 I-0.3147 J0.0013
G3 X30.1435 Y38.2029 I-1.1106 J-0.0043
G0 Z3.0
G0 X28.1125 Y34.8762
G0 Z1.25
G1 Z-0.15
G3 X28.0244 Y34.7661 I0.9309 J-0.8347
G3 X27.9419 Y34.87 I-1.0185 J-0.7237
G1 X28.1125 Y34.8762
G1 X28.2167 Y34.7827
G3 X28.0244 Y34.4824 I0.8267 J-0.7412
G3 X27.58 Y34.9917 I-1.0185 J-0.44
G3 X27.6885 Y35.0009 I-0.5673 J7.3343
G1 X28.2731 Y35.0221
G3 X28.355 Y35.013 I0.2122 J1.5382
G1 X28.4829 Y35.0
G3 X28.2167 Y34.7827 I0.5605 J-0.9585
G0 Z3.0
G0 X28.0244 Y33.1025
G0 Z1.25
G1 Z-0.15
G3 X28.098 Y33.029 I1.0192 J0.946
G3 X28.0244 Y32.9554 I0.9461 J-1.0197
G3 X27.9509 Y33.029 I-1.0194 J-0.9455
G3 X28.0244 Y33.1025 I-0.9453 J1.0188
G1 X27.9218 Y33.1977
G3 X28.0244 Y33.3239 I-0.9162 J0.85
G3 X28.3194 Y33.029 I1.0192 J0.7246
G3 X28.0244 Y32.734 I0.7246 J-1.0197
G3 X27.7295 Y33.029 I-1.0193 J-0.7241
G3 X27.9218 Y33.1977 I-0.7239 J1.0187
G1 X27.8192 Y33.293
G3 X28.0243 Y33.6076 I-0.8136 J0.7548
G3 X28.6031 Y33.029 I1.0193 J0.4409
G3 X28.0243 Y32.4503 I0.4409 J-1.0197
G3 X27.4458 Y33.029 I-1.0193 J-0.4403
G3 X27.8192 Y33.293 I-0.4403 J1.0187
G0 Z3.0
G0 X28.0244 Y31.0703
G0 Z1.25
G1 Z-0.15
G3 X28.0977 Y30.997 I1.0188 J0.9458
G3 X28.0244 Y30.9236 I0.946 J-1.0193
G3 X27.9511 Y30.997 I-1.019 J-0.9453
G3 X28.0244 Y31.0703 I-0.9452 J1.0184
G1 X28.127 Y31.1655
G3 X28.3191 Y30.997 I0.9162 J0.8505
G3 X28.0244 Y30.7023 I0.7246 J-1.0194
G3 X27.7298 Y30.997 I-1.0189 J-0.7239
G3 X28.0244 Y31.2916 I-0.7239 J1.0184
G3 X28.127 Y31.1655 I1.0188 J0.7244
G1 X28.2296 Y31.2608
G3 X28.6028 Y30.997 I0.8136 J0.7553
G3 X28.0243 Y30.4186 I0.4409 J-1.0194
G3 X27.4461 Y30.997 I-1.0189 J-0.4402
G3 X28.0243 Y31.5753 I-0.4402 J1.0184
G3 X28.2296 Y31.2608 I1.0188 J0.4408
G0 Z3.0
G0 X28.0244 Y29.2597
G0 Z1.25
G1 Z-0.15
G3 X28.0726 Y29.1963 I1.0196 J0.7248
G1 X27.9763
G3 X28.0244 Y29.2597 I-0.971 J0.7874
G1 X28.1385 Y29.3408
G3 X28.4336 Y29.0563 I0.9055 J0.6437
G1 X27.6154
G3 X28.0244 Y29.5434 I-0.6102 J0.9274
G3 X28.1385 Y29.3408 I1.0197 J0.4411
G0 Z3.0
G0 X31.1463 Y30.7042
G0 Z1.25
G1 Z-0.15
G3 X31.0214 Y30.997 I-2.1087 J-0.7261
G3 X31.1666 Y31.3517 I-1.9835 J1.0189
G1 X31.1463 Y30.7042
G0 Z3.0
G0 X31.2039 Y32.5397
G0 Z1.25
G1 Z-0.15
G3 X31.0213 Y33.0289 I-2.1667 J-0.5301
G3 X31.2403 Y33.6989 I-1.9837 J1.0192
G1 X31.2039 Y32.5397
G1 X31.3438 Y32.5353
G1 X31.2666 Y30.0763
G1 X31.1257 Y30.0722
G3 X30.8626 Y30.997 I-2.0881 J-0.0942
G3 X31.1278 Y32.0075 I-1.8247 J1.0189
G3 Y32.0176 I-1.2947 J0.0052
G3 X30.8625 Y33.029 I-2.0906 J-0.008
G3 X31.1255 Y33.9501 I-1.8249 J1.0192
G3 X31.3877 Y33.9344 I0.3678 J3.942
G1 X31.3438 Y32.5353
G1 X31.4838 Y32.531
G1 X31.4024 Y29.9402
G1 X30.987 Y29.9281
G3 X30.9878 Y29.9769 I-1.9497 J0.0559
G3 Y29.9856 I-1.1547 J0.0043
G3 X30.7004 Y30.997 I-1.9502 J-0.0075
G3 X30.9878 Y32.008 I-1.6625 J1.0189
G3 Y32.0171 I-1.1547 J0.0046
G3 X30.7003 Y33.029 I-1.9506 J-0.0075
G3 X30.9878 Y34.0407 I-1.6627 J1.0192
G3 Y34.0496 I-1.1547 J0.0044
G3 X30.9867 Y34.1067 I-1.9498 J-0.0075
G3 X31.4137 Y34.0738 I0.5065 J3.7854
G3 X31.442 Y34.0735 I0.0241 J1.1545
G3 X31.5323 Y34.076 I-0.007 J1.9191
G1 X31.4838 Y32.531
G1 X31.6237 Y32.5266
G1 X31.5382 Y29.8036
G2 X31.4748 Y29.8022 I-0.1168 J3.7805
G3 X31.4595 Y29.8018 I0.0143 J-1.0146
G1 X30.8503 Y29.7841
G1 X30.8367 Y29.7837
G3 X30.8478 Y29.9774 I-1.7994 J0.2003
G3 Y29.985 I-1.0147 J0.0037
G3 X30.5338 Y30.997 I-1.8102 J-0.007
G3 X30.8478 Y32.0086 I-1.4959 J1.0189
G3 Y32.0166 I-1.0147 J0.0041
G3 X30.5336 Y33.029 I-1.8106 J-0.007
G3 X30.8478 Y34.0412 I-1.496 J1.0192
G3 Y34.049 I-1.0147 J0.0039
G3 X30.8333 Y34.2708 I-1.8098 J-0.007
G3 X30.9753 Y34.2496 I0.41 J2.262
G3 X31.4166 Y34.2137 I0.5179 J3.6425
G3 X31.4415 Y34.2135 I0.0211 J1.0145
G3 X31.6772 Y34.2301 I-0.0065 J1.7791
G1 X31.6237 Y32.5266
G1 X31.7636 Y32.5222
G1 X31.6741 Y29.6686
G1 X31.6231 Y29.6669
G3 X31.6102 Y29.6663 I0.0293 J-0.8742
G2 X31.4768 Y29.6622 I-0.1888 J3.9178
G3 X31.4636 Y29.6619 I0.0123 J-0.8746
G1 X30.854 Y29.6441
G1 X30.6719 Y29.6398
G3 X30.7078 Y29.9779 I-1.6347 J0.3443
G3 Y29.9845 I-0.8747 J0.0032
G3 X30.361 Y30.997 I-1.6702 J-0.0064
G3 X30.7078 Y32.0092 I-1.3231 J1.0188
G3 Y32.016 I-0.8747 J0.0035
G3 X30.3608 Y33.029 I-1.6706 J-0.0064
G3 X30.7078 Y34.0418 I-1.3232 J1.0192
G3 Y34.0485 I-0.8747 J0.0034
G3 X30.6586 Y34.4443 I-1.6698 J-0.0064
G3 X30.8411 Y34.4117 I1.3944 J7.273
G3 X30.9933 Y34.3884 I0.4022 J2.121
G3 X31.4196 Y34.3537 I0.4999 J3.5036
G3 X31.441 Y34.3535 I0.0182 J0.8745
G3 X31.8226 Y34.4 I-0.006 J1.6391
G1 X31.7636 Y32.5222
G1 X31.9036 Y32.5178
G1 X31.8099 Y29.533
G1 X31.6278 Y29.5269
G3 X31.617 Y29.5265 I0.0246 J-0.7343
G2 X31.4788 Y29.5222 I-0.1955 J4.0576
G3 X31.4677 Y29.522 I0.0104 J-0.7346
G1 X30.8577 Y29.5042
G1 X30.4877 Y29.4954
G3 X30.5678 Y29.9784 I-1.4504 J0.4887
G3 Y29.9839 I-0.7347 J0.0027
G3 X30.1792 Y30.997 I-1.5302 J-0.0059
G3 X30.5678 Y32.0097 I-1.1413 J1.0188
G3 Y32.0155 I-0.7347 J0.0029
G3 X30.179 Y33.029 I-1.5306 J-0.0059
G3 X30.5678 Y34.0423 I-1.1414 J1.0192
G3 Y34.0479 I-0.7347 J0.0028
G3 X30.4518 Y34.6263 I-1.5298 J-0.0059
G1 X30.4668 Y34.6271
G3 X30.8656 Y34.5496 I1.5862 J7.0902
G3 X31.0113 Y34.5273 I0.3777 J1.9832
G3 X31.4225 Y34.4937 I0.482 J3.3648
G3 X31.4405 Y34.4935 I0.0153 J0.7346
G3 X31.9687 Y34.5917 I-0.0055 J1.4991
G1 X31.9036 Y32.5178
G1 X32.0435 Y32.5134
G1 X31.9457 Y29.3975
G1 X31.6324 Y29.387
G3 X31.6237 Y29.3867 I0.0199 J-0.5944
G2 X31.4808 Y29.3822 I-0.2023 J4.1975
G3 X31.4718 Y29.382 I0.0084 J-0.5947
G1 X30.8614 Y29.3642
G1 X30.275 Y29.3503
G3 X30.4278 Y29.9789 I-1.2377 J0.6338
G3 Y29.9834 I-0.5947 J0.0022
G3 X29.9833 Y30.997 I-1.3902 J-0.0053
G3 X30.4278 Y32.0103 I-0.9454 J1.0188
G3 Y32.015 I-0.5947 J0.0024
G3 X29.9831 Y33.029 I-1.3906 J-0.0053
G3 X30.4278 Y34.0428 I-0.9455 J1.0192
G3 Y34.0474 I-0.5947 J0.0023
G3 X30.2313 Y34.7545 I-1.3898 J-0.0054
G1 X30.4786 Y34.768
G3 X30.8901 Y34.6874 I1.5745 J6.9493
G3 X31.0293 Y34.6661 I0.3531 J1.8454
G3 X31.4254 Y34.6337 I0.464 J3.2259
G3 X31.4399 Y34.6335 I0.0124 J0.5946
G3 X32.1158 Y34.8163 I-0.005 J1.3591
G1 X32.0435 Y32.5134
G1 X32.1834 Y32.509
G1 X32.0815 Y29.262
G1 X31.6371 Y29.2471
G3 X31.6305 Y29.2468 I0.0152 J-0.4545
G2 X31.4827 Y29.2422 I-0.209 J4.3373
G3 X31.4759 Y29.2421 I0.0064 J-0.4547
G1 X30.8651 Y29.2242
G1 X30.0147 Y29.204
G3 X30.2878 Y29.9794 I-0.9775 J0.78
G3 Y29.9829 I-0.4547 J0.0017
G3 X29.762 Y30.997 I-1.2502 J-0.0048
G3 X30.2878 Y32.0109 I-0.724 J1.0188
G3 Y32.0144 I-0.4547 J0.0018
G3 X29.7617 Y33.029 I-1.2506 J-0.0048
G3 X30.2878 Y34.0434 I-0.7241 J1.0192
G3 Y34.0469 I-0.4547 J0.0017
G3 X29.9652 Y34.8801 I-1.2498 J-0.0048
G1 X30.4905 Y34.9089
G3 X30.9147 Y34.8252 I1.5625 J6.8085
G3 X31.0472 Y34.805 I0.3285 J1.7075
G3 X31.4283 Y34.7736 I0.4461 J3.0871
G3 X31.4394 Y34.7735 I0.0095 J0.4546
G3 X32.2647 Y35.0995 I-0.0044 J1.2191
G1 X32.1834 Y32.509
G1 X32.3233 Y32.5046
G1 X32.2173 Y29.1264
G1 X31.6418 Y29.1072
G3 X31.6372 Y29.107 I0.0105 J-0.3145
G2 X31.4847 Y29.1022 I-0.2158 J4.4771
G3 X31.48 Y29.1021 I0.0044 J-0.3147
G1 X30.8688 Y29.0843
G1 X29.9529 Y29.0625
G1 X29.6503 Y29.058
G3 X30.1478 Y29.98 I-0.613 J0.926
G3 Y29.9823 I-0.3147 J0.0012
G3 X29.4783 Y30.9971 I-1.1102 J-0.0043
G3 X30.1478 Y32.0114 I-0.4404 J1.0188
G3 Y32.0139 I-0.3147 J0.0013
G3 X29.478 Y33.029 I-1.1106 J-0.0043
G3 X30.1478 Y34.0439 I-0.4404 J1.0191
G3 Y34.0463 I-0.3147 J0.0012
G3 X29.6095 Y34.9934 I-1.1098 J-0.0043
G3 X29.9389 Y35.0188 I-1.7658 J25.0101
G1 X30.5027 Y35.0497
G3 X30.9394 Y34.9631 I1.5503 J6.6676
G3 X31.0651 Y34.9439 I0.3039 J1.5697
G3 X31.4312 Y34.9136 I0.4282 J2.9482
G3 X31.4389 Y34.9135 I0.0066 J0.3147
G3 X32.4189 Y35.5496 I-0.0039 J1.0791
G1 X32.3233 Y32.5046
G0 Z3.0
G0 X34.3505 Y26.9108
G0 Z1.25
G1 Z-0.15
G3 X34.3504 Y26.8927 I101.2471 J-0.6836
G3 X34.3362 Y26.9006 I-0.6726 J-1.1901
G3 X34.3505 Y26.9108 I-0.7684 J1.1032
G1 X34.269 Y27.0246
G3 X34.3077 Y27.0535 I-0.7012 J0.9793
G3 X34.315 Y27.0593 I-0.2793 J0.3588
G3 X34.4933 Y27.2413 I-0.7072 J0.8709
G3 X34.489 Y26.6232 I101.1043 J-1.0142
G3 X34.0104 Y26.8837 I-0.8112 J-0.9206
G3 X34.269 Y27.0246 I-0.4426 J1.1202
G1 X34.1875 Y27.1384
G3 X34.2217 Y27.1639 I-0.6197 J0.8655
G3 X34.2268 Y27.168 I-0.1933 J0.2483
G3 X34.5398 Y27.6211 I-0.6189 J0.7622
G3 X34.6151 Y27.96 I-1.4558 J0.5012
G1 X34.6262 Y28.0633
G3 X34.6273 Y28.0762 I-0.3129 J0.0337
G1 X34.6393 Y28.2582
G3 X34.6397 Y28.2652 I-0.314 J0.0208
G1 X34.6517 Y28.5368
G1 X34.6569 Y28.6322
G3 X34.6282 Y26.2302 I100.9407 J-2.4051
G3 X33.6914 Y26.7896 I-0.9504 J-0.5275
G1 X33.5541 Y26.7975
G3 X33.5537 I-0.0181 J-0.3142
G1 X32.4301 Y26.8606
G3 X32.4298 Y26.8607 I-0.0177 J-0.3142
G1 X32.4034 Y26.8621
G3 X32.4028 Y26.8622 I-0.0174 J-0.3142
G1 X32.0492 Y26.881
G1 X33.1484 Y26.8953
G3 X33.3151 Y26.8966 I0.0661 J2.1518
G3 X33.6426 Y26.9276 I-0.0534 J2.3113
G3 X33.6441 Y26.9279 I-0.0519 J0.3104
G3 X33.945 Y27.0085 I-0.2896 J1.6815
G3 X33.9487 Y27.0099 I-0.1089 J0.2953
G3 X34.1875 Y27.1384 I-0.3809 J0.994
G0 Z3.0
G0 X34.6882 Y24.7882
G0 Z1.25
G1 Z-0.15
G3 X35.0359 Y24.5033 I1.0283 J0.9005
G3 X34.862 Y24.4489 I0.0887 J-0.5881
G3 X34.5005 Y24.5779 I-0.37 J-0.4656
G1 X34.4469 Y24.5787
G3 X34.6882 Y24.7882 I-0.7695 J1.1303
G1 X34.5847 Y24.8825
G3 X34.6905 Y25.0161 I-0.9073 J0.8265
G3 X35.6605 Y24.4631 I1.0261 J0.6726
G3 X35.7888 Y24.4419 I0.4243 J2.1651
G3 X36.3481 Y24.3805 I1.1376 J7.7844
G1 X35.1207 Y24.37
G3 X34.843 Y24.2723 I0.0039 J-0.4547
G3 X34.4985 Y24.438 I-0.3511 J-0.289
G1 X30.8001 Y24.4909
G3 X30.3389 Y24.0425 I-0.0065 J-0.4547
G1 X30.2828 Y19.9295
G3 X29.762 Y20.837 I-1.2452 J-0.1114
G3 X30.2878 Y21.8509 I-0.724 J1.0188
G3 Y21.8544 I-0.4547 J0.0018
G3 X29.7617 Y22.869 I-1.2506 J-0.0048
G3 X30.2878 Y23.8834 I-0.7241 J1.0192
G3 Y23.8869 I-0.4547 J0.0017
G3 X30.0433 Y24.6246 I-1.2498 J-0.0048
G1 X31.4856 Y24.5615
G3 X31.4868 Y24.5614 I0.0199 J0.4543
G1 X32.0306 Y24.539
G3 X32.0317 Y24.5389 I0.0187 J0.4543
G1 X32.8474 Y24.5073
G3 X32.8493 Y24.5072 I0.0176 J0.4544
G1 X33.2573 Y24.4931
G3 X33.2588 I0.0157 J0.4544
G1 X33.3596 Y24.4899
G3 X33.5122 Y24.4855 I0.3659 J10.0114
G3 X33.5993 Y24.4833 I0.0919 J1.955
G1 X33.6712 Y24.4818
G3 X33.6831 Y24.4817 I0.0098 J0.4546
G3 X34.5847 Y24.8825 I-0.0057 J1.2273
G0 Z3.0
G0 X45.2984 Y24.7211
G0 Z1.25
G1 Z-0.15
G3 X45.4466 Y25.1495 I-0.5864 J0.4426
G1 X45.4483 Y25.2393
G3 X45.6725 Y24.9106 I1.3652 J0.6902
G3 X45.485 Y24.65 I1.1419 J-1.0191
G3 X45.2984 Y24.7211 I-0.3525 J-0.6446
G0 Z3.0
G0 X45.7219 Y23.0371
G0 Z1.25
G1 Z-0.15
G3 X45.8683 Y22.8785 I1.0921 J0.8603
G3 X45.7202 Y22.7176 I0.9454 J-1.0188
G1 X45.7219 Y23.0371
G1 X45.5819 Y23.0379
G1 X45.5854 Y23.6662
G3 X46.0896 Y22.8785 I1.2286 J0.2312
G3 X45.5765 Y22.0376 I0.724 J-1.0188
G1 X45.5819 Y23.0379
G0 Z3.0
G0 X45.711 Y21.0195
G0 Z1.25
G1 Z-0.15
G3 X45.8684 Y20.8466 I1.1034 J0.8464
G3 X45.7091 Y20.6713 I0.946 J-1.0192
G1 X45.711 Y21.0195
G1 X45.571 Y21.0203
G1 X45.5747 Y21.7011
G3 X46.0897 Y20.8466 I1.2397 J0.1648
G3 X45.5648 Y19.878 I0.7246 J-1.0192
G1 X45.571 Y21.0203
G0 Z3.0
G0 X45.7001 Y19.0018
G0 Z1.25
G1 Z-0.15
G3 X45.8682 Y18.8147 I1.1135 J0.8316
G3 X45.698 Y18.6248 I0.9458 J-1.0189
G1 X45.7001 Y19.0018
G0 Z3.0
G0 X45.6891 Y16.9848
G0 Z1.25
G1 Z-0.15
G3 X45.8685 Y16.7825 I1.1253 J0.8171
G3 X45.6869 Y16.5772 I0.9455 J-1.0192
G1 X45.6891 Y16.9848
G0 Z3.0
G0 X45.6782 Y14.9679
G0 Z1.25
G1 Z-0.15
G3 X45.8683 Y14.7506 I1.1354 J0.8015
G3 X45.6758 Y14.5298 I0.946 J-1.0192
G1 X45.6782 Y14.9679
G0 Z3.0
G0 X45.6673 Y12.9515
G0 Z1.25
G1 Z-0.15
G3 X45.8683 Y12.7185 I1.1467 J0.7859
G3 X45.6647 Y12.4817 I0.9454 J-1.0188
G1 X45.6673 Y12.9515
G0 Z3.0
G0 X45.4883 Y10.9416
G0 Z1.25
G1 Z-0.15
G3 X45.5081 Y10.9082 I1.3262 J0.7643
G1 X45.4378 Y10.909
G3 X45.4883 Y10.9416 I-0.3729 J0.633
G1 X45.4076 Y11.056
G3 X45.5304 Y11.1719 I-0.3427 J0.486
G3 X45.7904 Y10.765 I1.284 J0.534
G1 X44.2447 Y10.7825
G2 X45.114 Y10.9493 I1.2119 J-3.9661
G3 X45.4076 Y11.056 I-0.0491 J0.5927
G1 X45.3269 Y11.1704
G3 X45.5196 Y11.5396 I-0.262 J0.3716
G1 X45.5644 Y19.7955
G3 X46.0896 Y18.8147 I1.2492 J0.0379
G3 X45.5638 Y17.8006 I0.7244 J-1.019
G3 Y17.7971 I0.4547 J-0.0017
G3 X46.0899 Y16.7825 I1.2506 J0.0048
G3 X45.5638 Y15.7681 I0.7241 J-1.0192
G3 Y15.7646 I0.4547 J-0.0017
G3 X46.0897 Y14.7506 I1.2498 J0.0048
G3 X45.5638 Y13.7361 I0.7246 J-1.0192
G3 Y13.7326 I0.4547 J-0.0017
G3 X46.0896 Y12.7185 I1.2502 J0.0048
G3 X45.5638 Y11.7046 I0.724 J-1.0188
G3 Y11.7011 I0.4547 J-0.0018
G3 X46.0912 Y10.6856 I1.2506 J0.0048
G3 X46.0104 Y10.6225 I0.7236 J-1.0101
G1 X43.5498 Y10.6504
G3 X43.5379 Y10.6519 I-0.1255 J-0.9386
G2 X44.0512 Y10.8666 I2.1029 J-4.3061
G2 X45.1024 Y11.0889 I1.4054 J-4.0503
G3 X45.3269 Y11.1704 I-0.0376 J0.4532
G0 Z3.0
G0 X47.8204 Y10.7528
G0 Z1.25
G1 Z-0.15
G3 X47.8273 Y10.7602 I-1.0129 J0.9534
G3 X47.8341 Y10.7528 I1.0196 J0.9457
G1 X47.8204
G1 Y10.6128
G1 X47.6229
G3 X47.5308 Y10.6855 I-0.8164 J-0.9394
G3 X47.8273 Y10.9816 I-0.7233 J1.0207
G3 X48.1236 Y10.6856 I1.0196 J0.7243
G3 X48.0316 Y10.6128 I0.7241 J-1.0115
G1 X47.8204
G1 Y10.4728
G1 X47.5688
G3 X47.2476 Y10.6861 I-0.7622 J-0.7994
G3 X47.8273 Y11.2654 I-0.44 J1.0201
G3 X48.4068 Y10.6861 I1.0196 J0.4405
G3 X48.0857 Y10.4728 I0.4409 J-1.0121
G1 X47.8204
G0 Z3.0
G0 X49.4844 Y10.5718
G0 Z1.25
G1 Z-0.15
G1 X49.9269 Y10.5558
G1 X49.9302 Y9.8771
G3 X49.4844 Y10.5718 I-1.0904 J-0.2095
G0 Z3.0
G0 X49.9353 Y8.8422
G0 Z1.25
G1 Z-0.15
G1 X49.9402 Y7.837
G2 X49.9344 Y8.2457 I35.1842 J0.706
G1 X49.9332 Y8.5998
G1 X49.9353 Y8.8422
G0 Z3.0
G0 X47.8273 Y12.6451
G0 Z1.25
G1 Z-0.15
G3 X47.7539 Y12.7185 I-1.0189 J-0.9456
G3 X47.8273 Y12.7919 I-0.946 J1.0193
G3 X47.9007 Y12.7185 I1.0192 J0.9455
G3 X47.8273 Y12.6451 I0.9454 J-1.0188
G1 X47.7247 Y12.5498
G3 X47.5325 Y12.7185 I-0.9163 J-0.8504
G3 X47.8273 Y13.0133 I-0.7246 J1.0194
G3 X48.1221 Y12.7185 I1.0192 J0.7241
G3 X47.8273 Y12.4237 I0.7241 J-1.0188
G3 X47.7247 Y12.5498 I-1.0189 J-0.7243
G1 X47.6221 Y12.4546
G3 X47.2488 Y12.7185 I-0.8137 J-0.7552
G3 X47.8273 Y13.297 I-0.4409 J1.0194
G3 X48.4058 Y12.7184 I1.0191 J0.4404
G3 X47.8274 Y12.1401 I0.4404 J-1.0188
G3 X47.6221 Y12.4546 I-1.0189 J-0.4406
G0 Z3.0
G0 X47.8273 Y14.6771
G0 Z1.25
G1 Z-0.15
G3 X47.7537 Y14.7506 I-1.0197 J-0.9461
G3 X47.8272 Y14.8242 I-0.9455 J1.0194
G3 X47.9008 Y14.7506 I1.0188 J0.9453
G3 X47.8273 Y14.6771 I0.946 J-1.0192
G1 X47.9299 Y14.5819
G3 X47.8273 Y14.4556 I0.9169 J-0.8504
G3 X47.5323 Y14.7507 I-1.0197 J-0.7246
G3 X47.8273 Y15.0455 I-0.7241 J1.0193
G3 X48.1222 Y14.7506 I1.0188 J0.7239
G3 X47.9299 Y14.5819 I0.7246 J-1.0192
G1 X48.0326 Y14.4866
G3 X47.8273 Y14.1719 I0.8142 J-0.7552
G3 X47.2485 Y14.7507 I-1.0197 J-0.4409
G3 X47.8273 Y15.3292 I-0.4403 J1.0193
G3 X48.4058 Y14.7507 I1.0187 J0.4402
G3 X48.0326 Y14.4866 I0.4409 J-1.0193
G0 Z3.0
G0 X47.8273 Y16.7088
G0 Z1.25
G1 Z-0.15
G3 X47.7536 Y16.7825 I-1.0193 J-0.9458
G3 X47.8273 Y16.8562 I-0.9461 J1.0197
G3 X47.901 Y16.7825 I1.0196 J0.9457
G3 X47.8273 Y16.7088 I0.9455 J-1.0192
G1 X47.9299 Y16.6136
G3 X47.8273 Y16.4875 I0.9165 J-0.8503
G3 X47.5322 Y16.7825 I-1.0193 J-0.7245
G3 X47.8273 Y17.0776 I-0.7246 J1.0197
G3 X48.1223 Y16.7825 I1.0196 J0.7243
G3 X47.9299 Y16.6136 I0.7241 J-1.0192
G1 X48.0326 Y16.5184
G3 X47.8273 Y16.2037 I0.8139 J-0.7551
G3 X47.2485 Y16.7825 I-1.0193 J-0.4407
G3 X47.8273 Y17.3614 I-0.4409 J1.0197
G3 X48.4061 Y16.7825 I1.0195 J0.4405
G3 X48.0326 Y16.5184 I0.4404 J-1.0191
G0 Z3.0
G0 X47.8273 Y18.5199
G0 Z1.25
G1 Z-0.15
G3 X47.7788 Y18.5837 I-1.0193 J-0.7245
G1 X47.8758
G3 X47.8273 Y18.5199 I0.9707 J-0.7879
G1 X47.9414 Y18.4388
G3 X47.8273 Y18.2362 I0.905 J-0.6431
G3 X47.4177 Y18.7237 I-1.0193 J-0.4407
G1 X48.2369
G3 X47.9414 Y18.4388 I0.6096 J-0.9279
G0 Z3.0
G0 X47.8756 Y21.078
G0 Z1.25
G1 Z-0.15
G1 X47.779
G3 X47.8273 Y21.1416 I-0.9714 J0.7882
G3 X47.8756 Y21.078 I1.0196 J0.7243
G1 Y20.938
G1 X47.418
G3 X47.8273 Y21.4253 I-0.6105 J0.9282
G3 X48.2365 Y20.938 I1.0195 J0.4405
G1 X47.8756
G0 Z3.0
G0 X47.8273 Y22.8051
G0 Z1.25
G1 Z-0.15
G3 X47.7539 Y22.8785 I-1.0189 J-0.9456
G3 X47.8273 Y22.9519 I-0.946 J1.0193
G3 X47.9007 Y22.8785 I1.0192 J0.9455
G3 X47.8273 Y22.8051 I0.9454 J-1.0188
G1 X47.7247 Y22.7098
G3 X47.5325 Y22.8785 I-0.9163 J-0.8504
G3 X47.8273 Y23.1733 I-0.7246 J1.0194
G3 X48.1221 Y22.8785 I1.0192 J0.7241
G3 X47.8273 Y22.5837 I0.724 J-1.0188
G3 X47.7247 Y22.7098 I-1.0189 J-0.7243
G1 X47.6221 Y22.6146
G3 X47.2488 Y22.8785 I-0.8137 J-0.7552
G3 X47.8273 Y23.457 I-0.4409 J1.0194
G3 X48.4058 Y22.8784 I1.0191 J0.4404
G3 X47.8274 Y22.3 I0.4404 J-1.0188
G3 X47.6221 Y22.6146 I-1.0189 J-0.4406
G0 Z3.0
G0 X47.8273 Y24.8371
G0 Z1.25
G1 Z-0.15
G3 X47.7537 Y24.9106 I-1.0197 J-0.9461
G3 X47.8272 Y24.9842 I-0.9455 J1.0194
G3 X47.9008 Y24.9106 I1.0188 J0.9453
G3 X47.8273 Y24.8371 I0.946 J-1.0192
G1 X47.9299 Y24.7419
G3 X47.8273 Y24.6157 I0.9169 J-0.8504
G3 X47.5323 Y24.9107 I-1.0197 J-0.7246
G3 X47.8273 Y25.2055 I-0.7241 J1.0193
G3 X48.1221 Y24.9106 I1.0188 J0.7239
G3 X47.9299 Y24.7419 I0.7246 J-1.0192
G1 X48.0326 Y24.6466
G3 X47.8273 Y24.3319 I0.8142 J-0.7552
G3 X47.2485 Y24.9107 I-1.0197 J-0.4409
G3 X47.8273 Y25.4892 I-0.4403 J1.0193
G3 X48.4058 Y24.9107 I1.0187 J0.4402
G3 X48.0326 Y24.6466 I0.4409 J-1.0192
G0 Z3.0
G0 X47.8273 Y26.8688
G0 Z1.25
G1 Z-0.15
G3 X47.7536 Y26.9425 I-1.0193 J-0.9458
G3 X47.8273 Y27.0162 I-0.9461 J1.0197
G3 X47.901 Y26.9425 I1.0196 J0.9457
G3 X47.8273 Y26.8688 I0.9455 J-1.0192
G1 X47.7247 Y26.7736
G3 X47.5322 Y26.9425 I-0.9167 J-0.8506
G3 X47.8273 Y27.2376 I-0.7246 J1.0197
G3 X48.1223 Y26.9425 I1.0196 J0.7243
G3 X47.8273 Y26.6475 I0.7241 J-1.0192
G3 X47.7247 Y26.7736 I-1.0193 J-0.7245
G1 X47.6221 Y26.6784
G3 X47.2485 Y26.9425 I-0.814 J-0.7554
G3 X47.8273 Y27.5213 I-0.4409 J1.0197
G3 X48.4061 Y26.9425 I1.0195 J0.4405
G3 X47.8273 Y26.3637 I0.4404 J-1.0191
G3 X47.6221 Y26.6784 I-1.0193 J-0.4407
G0 Z3.0
G0 X45.6726 Y26.9425
G0 Z1.25
G1 Z-0.15
G3 X45.492 Y26.6939 I1.1414 J-1.0192
G1 X45.497 Y26.8444
G1 X45.5085 Y27.1636
G3 X45.6726 Y26.9425 I1.306 J0.7983
G0 Z3.0
G0 X45.5687 Y28.8449
G0 Z1.25
G1 Z-0.15
G1 X45.5775 Y29.0921
G3 X45.6724 Y28.9747 I1.2361 J0.9013
G3 X45.5687 Y28.8449 I1.1416 J-1.0189
G1 X45.6826 Y28.7636
G3 X45.4238 Y27.9611 I1.1314 J-0.8078
G3 Y27.9565 I0.5947 J-0.0023
G3 X45.8685 Y26.9425 I1.3906 J0.0053
G3 X45.4238 Y25.9287 I0.9455 J-1.0192
G3 Y25.9241 I0.5947 J-0.0023
G3 X45.8683 Y24.9106 I1.3898 J0.0053
G3 X45.5371 Y24.4412 I0.946 J-1.0192
G3 X45.1284 Y24.6 I-0.4046 J-0.4359
G1 X44.9104 Y24.5986
G3 X44.9984 Y24.6425 I-0.513 J1.1377
G3 X45.3066 Y25.1522 I-0.2864 J0.5212
G1 X45.3114 Y25.4013
G1 X45.3251 Y25.8923
G1 X45.3571 Y26.8492
G1 X45.4586 Y29.6843
G3 X45.8682 Y28.9747 I1.3549 J0.3092
G3 X45.6826 Y28.7636 I0.9458 J-1.0189
G0 Z3.0
G0 X47.7538 Y28.9748
G0 Z1.25
G1 Z-0.15
G3 X47.8272 Y29.0482 I-0.9456 J1.0192
G3 X47.9007 Y28.9747 I1.0188 J0.9453
G3 X47.8273 Y28.9013 I0.9458 J-1.0189
G3 X47.7538 Y28.9748 I-1.0193 J-0.9458
G1 X47.6586 Y29.0774
G3 X47.8273 Y29.2695 I-0.8504 J0.9166
G3 X48.122 Y28.9747 I1.0188 J0.7239
G3 X47.8273 Y28.6799 I0.7244 J-1.019
G3 X47.5324 Y28.9748 I-1.0193 J-0.7245
G3 X47.6586 Y29.0774 I-0.7242 J1.0192
G1 X47.5634 Y29.18
G3 X47.8273 Y29.5532 I-0.7552 J0.814
G3 X48.4057 Y28.9747 I1.0187 J0.4402
G3 X47.8273 Y28.3962 I0.4407 J-1.019
G3 X47.2487 Y28.9748 I-1.0193 J-0.4407
G3 X47.5634 Y29.18 I-0.4405 J1.0192
G0 Z3.0
G0 X47.8273 Y30.9331
G0 Z1.25
G1 Z-0.15
G3 X47.7537 Y31.0066 I-1.0197 J-0.9461
G3 X47.8273 Y31.0802 I-0.9462 J1.0196
G3 X47.9008 Y31.0066 I1.0196 J0.9457
G3 X47.8273 Y30.9331 I0.946 J-1.0192
G1 X47.7246 Y30.8378
G3 X47.5324 Y31.0066 I-0.9171 J-0.8508
G3 X47.8273 Y31.3016 I-0.7248 J1.0196
G3 X48.1221 Y31.0066 I1.0196 J0.7243
G3 X47.8273 Y30.7117 I0.7246 J-1.0192
G3 X47.7246 Y30.8378 I-1.0197 J-0.7246
G1 X47.622 Y30.7426
G3 X47.2488 Y31.0066 I-0.8144 J-0.7556
G3 X47.8273 Y31.5853 I-0.4412 J1.0196
G3 X48.4057 Y31.0066 I1.0195 J0.4405
G3 X47.8273 Y30.4279 I0.4411 J-1.0192
G3 X47.622 Y30.7426 I-1.0197 J-0.4409
G0 Z3.0
G0 X45.6725 Y31.0066
G0 Z1.25
G1 Z-0.15
G3 X45.6438 Y30.9736 I1.1418 J-1.0192
G1 X45.646 Y31.0372
G3 X45.6725 Y31.0066 I1.1685 J0.9887
G1 X45.7769 Y31.0999
G3 X45.8684 Y31.0066 I1.0375 J0.926
G3 X45.484 Y30.392 I0.946 J-1.0192
G1 X45.4859 Y30.4456
G3 Y30.4468 I-0.5943 J0.0213
G1 X45.5087 Y31.1214
G3 X45.5088 Y31.1222 I-0.5944 J0.0201
G1 X45.5215 Y31.5137
G3 X45.7769 Y31.0999 I1.2929 J0.5122
G0 Z3.0
G0 X45.5555 Y32.6103
G0 Z1.25
G1 Z-0.15
G1 X45.5657 Y32.942
G3 X45.5796 Y33.4179 I-139.5976 J4.3391
G3 X45.8683 Y33.0385 I1.2344 J0.6395
G3 X45.5555 Y32.6103 I0.9454 J-1.0188
G0 Z3.0
G0 X45.6124 Y34.7507
G0 Z1.25
G1 Z-0.15
G1 X45.6158 Y34.8929
G3 Y34.8946 I-0.5946 J0.0142
G1 X45.6242 Y35.2918
G3 X45.6258 Y35.3678 I-116.505 J2.6085
G3 X45.8683 Y35.0706 I1.1877 J0.7216
G3 X45.6124 Y34.7507 I0.946 J-1.0192
G0 Z3.0
G0 X45.6485 Y36.8412
G0 Z1.25
G1 Z-0.15
G3 X45.6521 Y37.3584 I-116.5294 J1.0591
G3 X45.8685 Y37.1025 I1.1624 J0.7634
G3 X45.6485 Y36.8412 I0.9455 J-1.0192
G0 Z3.0
G0 X47.7536 Y37.1025
G0 Z1.25
G1 Z-0.15
G3 X47.8273 Y37.1762 I-0.9461 J1.0197
G3 X47.901 Y37.1025 I1.0196 J0.9457
G3 X47.8273 Y37.0288 I0.9455 J-1.0192
G3 X47.7536 Y37.1025 I-1.0193 J-0.9458
G1 X47.6584 Y37.2051
G3 X47.8273 Y37.3976 I-0.8508 J0.9171
G3 X48.1223 Y37.1025 I1.0196 J0.7243
G3 X47.8273 Y36.8075 I0.7241 J-1.0192
G3 X47.5322 Y37.1025 I-1.0193 J-0.7245
G3 X47.6584 Y37.2051 I-0.7246 J1.0197
G1 X47.5632 Y37.3078
G3 X47.8273 Y37.6813 I-0.7556 J0.8144
G3 X48.4061 Y37.1024 I1.0195 J0.4405
G3 X47.8273 Y36.5237 I0.4404 J-1.0191
G3 X47.2485 Y37.1024 I-1.0193 J-0.4407
G3 X47.5632 Y37.3078 I-0.4409 J1.0197
G0 Z3.0
G0 X47.8272 Y35.1442
G0 Z1.25
G1 Z-0.15
G3 X47.9008 Y35.0706 I1.0188 J0.9453
G3 X47.8273 Y34.9971 I0.946 J-1.0192
G3 X47.7537 Y35.0706 I-1.0197 J-0.9461
G3 X47.8272 Y35.1442 I-0.9455 J1.0194
G1 X47.7246 Y35.2394
G3 X47.8273 Y35.3655 I-0.9164 J0.8506
G3 X48.1221 Y35.0706 I1.0188 J0.7239
G3 X47.8273 Y34.7756 I0.7246 J-1.0192
G3 X47.5323 Y35.0707 I-1.0197 J-0.7246
G3 X47.7246 Y35.2394 I-0.7241 J1.0193
G1 X47.622 Y35.3346
G3 X47.8273 Y35.6492 I-0.8138 J0.7554
G3 X48.4058 Y35.0707 I1.0187 J0.4402
G3 X47.8273 Y34.4919 I0.4409 J-1.0192
G3 X47.2485 Y35.0707 I-1.0197 J-0.4409
G3 X47.622 Y35.3346 I-0.4403 J1.0193
G0 Z3.0
G0 X47.8273 Y33.1119
G0 Z1.25
G1 Z-0.15
G3 X47.9007 Y33.0385 I1.0192 J0.9455
G3 X47.8273 Y32.9651 I0.9454 J-1.0188
G3 X47.7539 Y33.0385 I-1.0189 J-0.9456
G3 X47.8273 Y33.1119 I-0.946 J1.0193
G1 X47.9299 Y33.2072
G3 X48.1221 Y33.0384 I0.9165 J0.8503
G3 X47.8273 Y32.7437 I0.724 J-1.0188
G3 X47.5325 Y33.0385 I-1.0189 J-0.7243
G3 X47.8273 Y33.3333 I-0.7246 J1.0194
G3 X47.9299 Y33.2072 I1.0192 J0.7241
G1 X48.0325 Y33.3024
G3 X48.4058 Y33.0384 I0.8139 J0.7551
G3 X47.8274 Y32.46 I0.4404 J-1.0188
G3 X47.2488 Y33.0385 I-1.0189 J-0.4406
G3 X47.8273 Y33.617 I-0.4409 J1.0194
G3 X48.0325 Y33.3024 I1.0191 J0.4404
G0 Z3.0
G0 X49.2809 Y33.0384
G0 Z1.25
G1 Z-0.15
G3 X49.9501 Y34.0533 I-0.4406 J1.0186
G3 Y34.0555 I-0.3147 J0.001
G3 X49.2807 Y35.0707 I-1.1103 J-0.0038
G3 X49.9501 Y36.0853 I-0.4401 J1.0185
G3 Y36.0875 I-0.3147 J0.0011
G3 X49.2806 Y37.1024 I-1.1099 J-0.0038
G3 X49.9501 Y38.1178 I-0.4406 J1.0189
G3 Y38.1199 I-0.3147 J0.001
G3 X48.8446 Y39.226 I-1.1099 J-0.0038
G3 X48.8422 I-0.0013 J-0.3147
G3 X47.8273 Y38.5562 I0.0043 J-1.1102
G3 X46.8121 Y39.226 I-1.0193 J-0.4407
G3 X46.8097 I-0.0012 J-0.3147
G3 X45.7038 Y38.12 I0.0043 J-1.1102
G3 Y38.1176 I0.3147 J-0.0012
G3 X46.3736 Y37.1024 I1.1106 J0.0043
G3 X45.7038 Y36.0876 I0.4404 J-1.0191
G3 Y36.0852 I0.3147 J-0.0012
G3 X46.3734 Y35.0707 I1.1098 J0.0043
G3 X45.7038 Y34.0555 I0.4409 J-1.0192
G3 Y34.0532 I0.3147 J-0.0012
G3 X46.3733 Y33.0384 I1.1102 J0.0043
G3 X45.7038 Y32.0241 I0.4404 J-1.0188
G3 Y32.0216 I0.3147 J-0.0013
G3 X46.3732 Y31.0066 I1.1106 J0.0043
G3 X45.7038 Y29.9915 I0.4411 J-1.0192
G3 Y29.9892 I0.3147 J-0.0012
G3 X46.3733 Y28.9747 I1.1098 J0.0043
G3 X45.7038 Y27.96 I0.4407 J-1.019
G3 Y27.9576 I0.3147 J-0.0012
G3 X46.3736 Y26.9425 I1.1106 J0.0043
G3 X45.7038 Y25.9276 I0.4404 J-1.0191
G3 Y25.9252 I0.3147 J-0.0012
G3 X46.3734 Y24.9107 I1.1098 J0.0043
G3 X45.7038 Y23.8955 I0.4409 J-1.0192
G3 Y23.8932 I0.3147 J-0.0012
G3 X46.3733 Y22.8784 I1.1102 J0.0043
G3 X45.7038 Y21.8641 I0.4404 J-1.0188
G3 Y21.8616 I0.3147 J-0.0013
G3 X46.3732 Y20.8466 I1.1106 J0.0043
G3 X45.7038 Y19.8315 I0.4411 J-1.0192
G3 Y19.8292 I0.3147 J-0.0012
G3 X46.3733 Y18.8147 I1.1098 J0.0043
G3 X45.7038 Y17.8 I0.4407 J-1.019
G3 Y17.7976 I0.3147 J-0.0012
G3 X46.3736 Y16.7825 I1.1106 J0.0043
G3 X45.7038 Y15.7676 I0.4404 J-1.0191
G3 Y15.7652 I0.3147 J-0.0012
G3 X46.3734 Y14.7507 I1.1098 J0.0043
G3 X45.7038 Y13.7355 I0.4409 J-1.0192
G3 Y13.7332 I0.3147 J-0.0012
G3 X46.3733 Y12.7184 I1.1102 J0.0043
G3 X45.7038 Y11.7041 I0.4404 J-1.0188
G3 Y11.7016 I0.3147 J-0.0013
G3 X46.3743 Y10.6862 I1.1106 J0.0043
G3 X46.0629 Y10.4819 I0.4405 J-1.0107
G1 X43.5394 Y10.5105
G3 X43.4192 Y10.5187 I-0.115 J-0.7988
G3 X43.4172 I0.002 J-0.3147
G3 X43.0588 Y10.4289 I0.0101 J-0.8008
G3 X43.0125 Y10.4032 I0.2452 J-0.4963
G3 X42.6194 Y9.6059 I0.4027 J-0.6941
G3 X42.5681 Y9.3579 I3.0268 J-0.7559
G3 X42.4936 Y8.791 I8.0833 J-1.3503
G3 X42.4935 Y8.7896 I0.3133 J-0.0301
G1 X42.4825 Y8.6698
G3 X42.4822 Y8.6672 I0.3134 J-0.0287
G3 X42.4493 Y8.1937 I17.5312 J-1.4589
G3 X42.4492 Y8.1919 I0.3142 J-0.0176
G3 X42.4117 Y6.5442 I29.8577 J-1.5034
G1 X42.4125 Y6.3405
G3 Y6.3391 I0.3147 J0.0013
G1 X42.414 Y6.161
G3 X42.4433 Y4.9086 I36.8986 J0.2369
G1 Y3.2891
G3 X42.758 Y2.9744 I0.3147 J0.0
G1 X44.3834
G3 X44.6982 Y3.2891 I0.0 J0.3147
G1 Y4.8417
G3 X44.7009 Y4.8431 I-0.1443 J0.2797
G2 X44.9551 Y4.9444 I0.5995 J-1.135
G3 X44.9561 Y4.9447 I-0.0847 J0.3031
G2 X45.545 Y5.0783 I1.5591 J-5.5082
G3 X45.5466 Y5.0786 I-0.0533 J0.3102
G1 X45.6842 Y5.103
G3 X45.6903 Y5.1041 I-0.055 J0.3099
G2 X45.7408 Y5.1127 I0.1889 J-0.9563
G3 X45.7464 Y5.1136 I-0.0447 J0.3115
G1 X46.0086 Y5.156
G1 X46.2545 Y5.1938
G1 X46.3704 Y5.2113
G1 X46.596 Y5.2451
G1 X46.5961
G1 X46.6491 Y5.253
G3 X46.6501 Y5.2532 I-0.0467 J0.3112
G1 X47.0667 Y5.3171
G3 X47.1623 Y5.3323 I-0.6294 J4.262
G3 X47.8823 Y5.4603 I-2.6065 J16.7429
G3 X48.432 Y5.5854 I-1.9278 J9.7427
G3 X48.8574 Y5.7126 I-1.189 J4.7517
G3 X48.8624 Y5.7144 I-0.1037 J0.2971
G1 X49.0113 Y5.7692
G3 X49.0185 Y5.7719 I-0.1087 J0.2954
G3 X49.2991 Y5.8987 I-1.2023 J3.0364
G3 X49.5184 Y6.0308 I-0.7442 J1.4835
G3 X49.8237 Y6.3296 I-0.6815 J1.0014
G3 X49.8249 Y6.3313 I-0.2564 J0.1825
G3 X49.9463 Y6.5903 I-0.6776 J0.4757
G1 X49.9488 Y6.0698
G1 X47.5132 Y5.228
G3 X46.4433 Y4.1033 I0.0606 J-1.1288
G3 Y4.101 I0.3147 J-0.0012
G3 X47.5506 Y2.9745 I1.1309 J0.0042
G1 X47.657 Y2.9623
G1 X47.8964 Y2.929
G1 X48.1248 Y2.8961
G3 X48.1254 Y2.896 I0.0448 J0.3115
G1 X48.1794 Y2.8884
G3 X48.1804 Y2.8882 I0.0442 J0.3116
G3 X48.6076 Y2.8315 I5.4003 J39.0377
G3 X48.8045 Y2.8086 I0.6354 J4.5983
G3 X49.5328 Y2.7505 I1.2461 J11.0227
G3 X49.5329 I0.0147 J0.3144
G3 X50.1058 Y2.7483 I0.3122 J6.7453
G3 X50.109 Y2.7484 I-0.0121 J0.3145
G1 X50.1613 Y2.751
G3 X50.1632 Y2.7511 I-0.0154 J0.3143
G3 X50.6002 Y2.798 I-0.231 J4.2104
G3 X50.6046 Y2.7987 I-0.0499 J0.3107
G3 X50.9456 Y2.8808 I-0.4816 J2.7512
G3 X50.9495 Y2.882 I-0.0927 J0.3008
G3 X51.216 Y2.9937 I-0.5234 J1.6228
G3 X51.5953 Y3.3135 I-0.5044 J0.9829
G3 X51.601 Y3.3213 I-0.2517 J0.1889
G3 X51.7751 Y3.8198 I-0.7899 J0.5555
G3 X51.7756 Y3.8404 I-0.3142 J0.0186
G1 X51.7246 Y11.6813
G1 Y11.6834
G1 Y11.6909
G3 X50.9396 Y12.5051 I-0.8024 J0.012
G3 X50.8571 Y12.5027 I-0.0176 J-0.8059
G1 X50.7829 Y12.5178
G3 X50.3083 Y12.609 I-3.2676 J-15.7123
G1 X49.958 Y12.6714
G3 X49.9538 Y12.6721 I-0.0552 J-0.3098
G1 X49.6903 Y12.7154
G3 X49.686 Y12.7161 I-0.051 J-0.3106
G1 X49.4881 Y12.7459
G3 X49.3709 Y12.7623 I-0.7865 J-5.1863
G3 X49.9501 Y13.7333 I-0.5306 J0.9747
G3 Y13.7355 I-0.3147 J0.001
G3 X49.2807 Y14.7507 I-1.1103 J-0.0038
G3 X49.9501 Y15.7653 I-0.44 J1.0185
G3 Y15.7675 I-0.3147 J0.0011
G3 X49.2806 Y16.7824 I-1.1099 J-0.0038
G3 X49.9501 Y17.7978 I-0.4406 J1.0189
G3 Y17.7999 I-0.3147 J0.001
G3 X49.2809 Y18.8147 I-1.1099 J-0.0038
G3 X49.9501 Y19.8293 I-0.4402 J1.0184
G3 Y19.8315 I-0.3147 J0.0011
G3 X49.281 Y20.8466 I-1.1103 J-0.0038
G3 X49.9501 Y21.8618 I-0.441 J1.0188
G3 Y21.8639 I-0.3147 J0.001
G3 X49.2809 Y22.8784 I-1.1095 J-0.0038
G3 X49.9501 Y23.8933 I-0.4406 J1.0186
G3 Y23.8955 I-0.3147 J0.001
G3 X49.2807 Y24.9107 I-1.1103 J-0.0038
G3 X49.9501 Y25.9253 I-0.4401 J1.0185
G3 Y25.9275 I-0.3147 J0.0011
G3 X49.2806 Y26.9424 I-1.1099 J-0.0038
G3 X49.9501 Y27.9578 I-0.4406 J1.0189
G3 Y27.9599 I-0.3147 J0.001
G3 X49.2809 Y28.9747 I-1.1099 J-0.0038
G3 X49.9501 Y29.9893 I-0.4402 J1.0184
G3 Y29.9915 I-0.3147 J0.0011
G3 X49.281 Y31.0066 I-1.1103 J-0.0038
G3 X49.9501 Y32.0218 I-0.441 J1.0188
G3 Y32.0239 I-0.3147 J0.001
G3 X49.2809 Y33.0384 I-1.1095 J-0.0038
G1 X49.2254 Y33.1667
G3 X49.8104 Y34.0538 I-0.3851 J0.8903
G3 Y34.055 I-0.175 J0.0006
G3 X48.8442 Y35.0222 I-0.9706 J-0.0033
G3 X48.8426 I-0.0008 J-0.175
G3 X47.876 Y34.055 I0.0041 J-0.9708
G3 Y34.0537 I0.175 J-0.0006
G3 X48.8427 Y33.0869 I0.9705 J0.0037
G3 X48.8441 I0.0007 J0.175
G3 X49.2254 Y33.1667 I-0.0037 J0.97
G1 X49.1492 Y32.9394
G3 X48.844 Y32.9898 I-0.3085 J-0.9193
G3 X48.8428 I-0.0006 J-0.175
G3 X47.876 Y32.0235 I0.0033 J-0.9702
G3 Y32.0221 I0.175 J-0.0007
G3 X48.8426 Y31.0549 I0.9709 J0.0037
G3 X48.8441 I0.0008 J0.175
G3 X49.8104 Y32.0223 I-0.0041 J0.9704
G3 Y32.0234 I-0.175 J0.0005
G3 X49.1492 Y32.9394 I-0.9697 J-0.0034
G0 Z3.0
G0 X47.7116 Y32.3744
G0 Z1.25
G1 Z-0.15
G3 X46.8115 Y32.9898 I-0.9031 J-0.355
G3 X46.8103 I-0.0005 J-0.175
G3 X45.8435 Y32.0235 I0.0033 J-0.9702
G3 Y32.0221 I0.175 J-0.0007
G3 X46.8102 Y31.0549 I0.9709 J0.0037
G3 X46.8117 I0.0008 J0.175
G3 X47.7788 Y32.0221 I-0.0041 J0.9712
G3 Y32.0236 I-0.175 J0.0007
G3 X47.7116 Y32.3744 I-0.9704 J-0.0041
G0 Z3.0
G0 X47.2671 Y33.2024
G0 Z1.25
G1 Z-0.15
G3 X47.7788 Y34.0536 I-0.4592 J0.8555
G3 Y34.0551 I-0.175 J0.0008
G3 X46.8117 Y35.0222 I-0.9712 J-0.0041
G3 X46.8102 I-0.0007 J-0.175
G3 X45.8435 Y34.055 I0.0041 J-0.9708
G3 Y34.0537 I0.175 J-0.0006
G3 X46.8103 Y33.0869 I0.9705 J0.0037
G3 X46.8116 I0.0007 J0.175
G3 X47.2671 Y33.2024 I-0.0037 J0.9709
G0 Z3.0
G0 X46.9605 Y35.1314
G0 Z1.25
G1 Z-0.15
G3 X47.7788 Y36.0856 I-0.1523 J0.9586
G3 Y36.0871 I-0.175 J0.0008
G3 X46.8116 Y37.0538 I-0.9708 J-0.0041
G3 X46.8103 I-0.0006 J-0.175
G3 X45.8435 Y36.087 I0.0037 J-0.9705
G3 Y36.0857 I0.175 J-0.0007
G3 X46.8104 Y35.1194 I0.97 J0.0037
G3 X46.8115 I0.0006 J0.175
G3 X46.9605 Y35.1314 I-0.0033 J0.9706
G0 Z3.0
G0 X47.9812 Y35.65
G0 Z1.25
G1 Z-0.15
G3 X48.8428 Y35.1194 I0.8648 J0.4394
G3 X48.844 I0.0006 J0.175
G3 X49.8104 Y36.0858 I-0.0033 J0.9697
G3 Y36.087 I-0.175 J0.0006
G3 X48.8441 Y37.0538 I-0.9702 J-0.0033
G3 X48.8427 I-0.0007 J-0.175
G3 X47.876 Y36.087 I0.0037 J-0.9705
G3 Y36.0857 I0.175 J-0.0007
G3 X47.9812 Y35.65 I0.97 J0.0037
G0 Z3.0
G0 X48.526 Y37.2055
G0 Z1.25
G1 Z-0.15
G3 X48.8426 Y37.1509 I0.3209 J0.9164
G3 X48.8441 I0.0008 J0.175
G3 X49.8104 Y38.1183 I-0.0041 J0.9704
G3 Y38.1194 I-0.175 J0.0005
G3 X48.8441 Y39.0862 I-0.9702 J-0.0033
G3 X48.8427 I-0.0007 J-0.175
G3 X47.876 Y38.1195 I0.0037 J-0.9705
G3 Y38.1181 I0.175 J-0.0007
G3 X48.526 Y37.2055 I0.9709 J0.0037
G0 Z3.0
G0 X47.6645 Y37.6651
G0 Z1.25
G1 Z-0.15
G3 X47.7788 Y38.1181 I-0.8569 J0.4571
G3 Y38.1196 I-0.175 J0.0007
G3 X46.8116 Y39.0862 I-0.9708 J-0.0041
G3 X46.8103 I-0.0006 J-0.175
G3 X45.8435 Y38.1195 I0.0037 J-0.9705
G3 Y38.1181 I0.175 J-0.0007
G3 X46.8102 Y37.1509 I0.9709 J0.0037
G3 X46.8117 I0.0008 J0.175
G3 X47.6645 Y37.6651 I-0.0041 J0.9712
G0 Z3.0
G0 X46.9153 Y30.9523
G0 Z1.25
G1 Z-0.15
G3 X46.8117 Y30.9582 I-0.1077 J-0.9653
G3 X46.8102 I-0.0007 J-0.175
G3 X45.8435 Y29.991 I0.0041 J-0.9708
G3 Y29.9897 I0.175 J-0.0006
G3 X46.8104 Y29.0234 I0.97 J0.0037
G3 X46.8115 I0.0006 J0.175
G3 X47.7788 Y29.9896 I-0.0033 J0.9706
G3 Y29.9911 I-0.175 J0.0008
G3 X46.9153 Y30.9523 I-0.9712 J-0.0041
G0 Z3.0
G0 X47.9783 Y30.4213
G0 Z1.25
G1 Z-0.15
G3 X47.876 Y29.991 I0.8685 J-0.4338
G3 Y29.9897 I0.175 J-0.0006
G3 X48.8428 Y29.0234 I0.97 J0.0037
G3 X48.844 I0.0006 J0.175
G3 X49.8104 Y29.9898 I-0.0033 J0.9697
G3 Y29.991 I-0.175 J0.0006
G3 X48.8442 Y30.9582 I-0.9706 J-0.0033
G3 X48.8426 I-0.0008 J-0.175
G3 X47.9783 Y30.4213 I0.0041 J-0.9708
G0 Z3.0
G0 X48.5241 Y28.8712
G0 Z1.25
G1 Z-0.15
G3 X47.876 Y27.9595 I0.3223 J-0.9154
G3 Y27.9581 I0.175 J-0.0007
G3 X48.8426 Y26.991 I0.9709 J0.0037
G3 X48.8441 I0.0008 J0.175
G3 X49.8104 Y27.9583 I-0.0041 J0.9704
G3 Y27.9594 I-0.175 J0.0005
G3 X48.8441 Y28.9262 I-0.9702 J-0.0033
G3 X48.8427 I-0.0007 J-0.175
G3 X48.5241 Y28.8712 I0.0037 J-0.9705
G0 Z3.0
G0 X47.6645 Y28.4125
G0 Z1.25
G1 Z-0.15
G3 X46.8116 Y28.9262 I-0.8565 J-0.457
G3 X46.8103 I-0.0006 J-0.175
G3 X45.8435 Y27.9595 I0.0037 J-0.9705
G3 Y27.9581 I0.175 J-0.0007
G3 X46.8102 Y26.991 I0.9709 J0.0037
G3 X46.8117 I0.0008 J0.175
G3 X47.7788 Y27.9581 I-0.0041 J0.9712
G3 Y27.9596 I-0.175 J0.0007
G3 X47.6645 Y28.4125 I-0.9708 J-0.0041
G0 Z3.0
G0 X47.1238 Y26.841
G0 Z1.25
G1 Z-0.15
G3 X46.8116 Y26.8938 I-0.3158 J-0.918
G3 X46.8103 I-0.0006 J-0.175
G3 X45.8435 Y25.927 I0.0037 J-0.9705
G3 Y25.9257 I0.175 J-0.0007
G3 X46.8104 Y24.9594 I0.97 J0.0037
G3 X46.8115 I0.0006 J0.175
G3 X47.7788 Y25.9256 I-0.0033 J0.9706
G3 Y25.9271 I-0.175 J0.0008
G3 X47.1238 Y26.841 I-0.9708 J-0.0041
G0 Z3.0
G0 X47.9899 Y26.3796
G0 Z1.25
G1 Z-0.15
G3 X47.876 Y25.9271 I0.8565 J-0.4563
G3 Y25.9257 I0.175 J-0.0007
G3 X48.8428 Y24.9594 I0.97 J0.0037
G3 X48.844 I0.0006 J0.175
G3 X49.8104 Y25.9258 I-0.0033 J0.9697
G3 Y25.927 I-0.175 J0.0006
G3 X48.8441 Y26.8938 I-0.9702 J-0.0033
G3 X48.8427 I-0.0007 J-0.175
G3 X47.9899 Y26.3796 I0.0037 J-0.9705
G0 Z3.0
G0 X48.5307 Y24.8093
G0 Z1.25
G1 Z-0.15
G3 X47.876 Y23.895 I0.3161 J-0.9179
G3 Y23.8937 I0.175 J-0.0006
G3 X48.8427 Y22.927 I0.9705 J0.0037
G3 X48.8441 I0.0007 J0.175
G3 X49.8104 Y23.8938 I-0.0037 J0.97
G3 Y23.895 I-0.175 J0.0006
G3 X48.8442 Y24.8622 I-0.9706 J-0.0033
G3 X48.8426 I-0.0008 J-0.175
G3 X48.5307 Y24.8093 I0.0041 J-0.9708
G0 Z3.0
G0 X47.6647 Y24.3478
G0 Z1.25
G1 Z-0.15
G3 X46.8117 Y24.8622 I-0.8571 J-0.4568
G3 X46.8102 I-0.0007 J-0.175
G3 X45.8435 Y23.895 I0.0041 J-0.9708
G3 Y23.8937 I0.175 J-0.0006
G3 X46.8103 Y22.927 I0.9705 J0.0037
G3 X46.8116 I0.0007 J0.175
G3 X47.7788 Y23.8936 I-0.0037 J0.9709
G3 Y23.8951 I-0.175 J0.0008
G3 X47.6647 Y24.3478 I-0.9712 J-0.0041
G0 Z3.0
G0 X47.1242 Y22.777
G0 Z1.25
G1 Z-0.15
G3 X46.8115 Y22.8298 I-0.3157 J-0.9176
G3 X46.8103 I-0.0005 J-0.175
G3 X45.8435 Y21.8635 I0.0033 J-0.9702
G3 Y21.8621 I0.175 J-0.0007
G3 X46.8102 Y20.895 I0.9709 J0.0037
G3 X46.8117 I0.0008 J0.175
G3 X47.7788 Y21.8621 I-0.0041 J0.9712
G3 Y21.8636 I-0.175 J0.0007
G3 X47.1242 Y22.777 I-0.9704 J-0.0041
G0 Z3.0
G0 X47.9899 Y22.3158
G0 Z1.25
G1 Z-0.15
G3 X47.876 Y21.8635 I0.8562 J-0.4562
G3 Y21.8621 I0.175 J-0.0007
G3 X48.8426 Y20.895 I0.9709 J0.0037
G3 X48.8441 I0.0008 J0.175
G3 X49.8104 Y21.8623 I-0.0041 J0.9704
G3 Y21.8634 I-0.175 J0.0005
G3 X48.844 Y22.8298 I-0.9697 J-0.0034
G3 X48.8428 I-0.0006 J-0.175
G3 X47.9899 Y22.3158 I0.0033 J-0.9702
G0 Z3.0
G0 Y20.7982
G0 Z1.25
G1 Z-0.15
G1 X46.8109
G3 X46.8102 I0.0 J-0.175
G3 X45.8435 Y19.831 I0.0041 J-0.9708
G3 Y19.8297 I0.175 J-0.0006
G3 X46.8104 Y18.8634 I0.97 J0.0037
G3 X46.8109 I0.0006 J0.175
G1 X48.8434
G3 X48.844 I0.0 J0.175
G3 X49.8104 Y19.8298 I-0.0033 J0.9697
G3 Y19.831 I-0.175 J0.0006
G3 X48.8442 Y20.7982 I-0.9706 J-0.0033
G3 X48.8434 I-0.0008 J-0.175
G1 X47.9899
G0 Z3.0
G0 X48.5802 Y18.729
G0 Z1.25
G1 Z-0.15
G3 X47.876 Y17.7995 I0.2662 J-0.9333
G3 Y17.7981 I0.175 J-0.0007
G3 X48.8426 Y16.831 I0.9709 J0.0037
G3 X48.8441 I0.0008 J0.175
G3 X49.8104 Y17.7983 I-0.0041 J0.9704
G3 Y17.7994 I-0.175 J0.0005
G3 X48.8441 Y18.7662 I-0.9702 J-0.0033
G3 X48.8427 I-0.0007 J-0.175
G3 X48.5802 Y18.729 I0.0037 J-0.9705
G0 Z3.0
G0 X47.6669 Y18.2479
G0 Z1.25
G1 Z-0.15
G3 X46.8116 Y18.7662 I-0.8589 J-0.4525
G3 X46.8103 I-0.0006 J-0.175
G3 X45.8435 Y17.7995 I0.0037 J-0.9705
G3 Y17.7981 I0.175 J-0.0007
G3 X46.8102 Y16.831 I0.9709 J0.0037
G3 X46.8117 I0.0008 J0.175
G3 X47.7788 Y17.7981 I-0.0041 J0.9712
G3 Y17.7996 I-0.175 J0.0007
G3 X47.6669 Y18.2479 I-0.9708 J-0.0041
G0 Z3.0
G0 X47.1252 Y16.6805
G0 Z1.25
G1 Z-0.15
G3 X46.8116 Y16.7338 I-0.3172 J-0.9175
G3 X46.8103 I-0.0006 J-0.175
G3 X45.8435 Y15.7671 I0.0037 J-0.9705
G3 Y15.7657 I0.175 J-0.0007
G3 X46.8104 Y14.7994 I0.97 J0.0037
G3 X46.8115 I0.0006 J0.175
G3 X47.7788 Y15.7656 I-0.0033 J0.9706
G3 Y15.7671 I-0.175 J0.0008
G3 X47.1252 Y16.6805 I-0.9708 J-0.0041
G0 Z3.0
G0 X47.99 Y16.2197
G0 Z1.25
G1 Z-0.15
G3 X47.876 Y15.7671 I0.8565 J-0.4564
G3 Y15.7657 I0.175 J-0.0007
G3 X48.8428 Y14.7994 I0.97 J0.0037
G3 X48.844 I0.0006 J0.175
G3 X49.8104 Y15.7658 I-0.0033 J0.9697
G3 Y15.767 I-0.175 J0.0006
G3 X48.8441 Y16.7338 I-0.9702 J-0.0033
G3 X48.8427 I-0.0007 J-0.175
G3 X47.99 Y16.2197 I0.0037 J-0.9705
G0 Z3.0
G0 X48.5307 Y14.6494
G0 Z1.25
G1 Z-0.15
G3 X47.876 Y13.735 I0.3161 J-0.9179
G3 Y13.7337 I0.175 J-0.0006
G3 X48.8427 Y12.7669 I0.9705 J0.0037
G3 X48.8441 I0.0007 J0.175
G3 X49.8104 Y13.7338 I-0.0037 J0.97
G3 Y13.735 I-0.175 J0.0006
G3 X48.8442 Y14.7022 I-0.9706 J-0.0033
G3 X48.8426 I-0.0008 J-0.175
G3 X48.5307 Y14.6494 I0.0041 J-0.9708
G0 Z3.0
G0 X47.6647 Y14.1878
G0 Z1.25
G1 Z-0.15
G3 X46.8117 Y14.7022 I-0.8571 J-0.4568
G3 X46.8102 I-0.0007 J-0.175
G3 X45.8435 Y13.735 I0.0041 J-0.9708
G3 Y13.7337 I0.175 J-0.0006
G3 X46.8103 Y12.7669 I0.9705 J0.0037
G3 X46.8116 I0.0007 J0.175
G3 X47.7788 Y13.7336 I-0.0037 J0.9709
G3 Y13.7351 I-0.175 J0.0008
G3 X47.6647 Y14.1878 I-0.9712 J-0.0041
G0 Z3.0
G0 X47.1242 Y12.617
G0 Z1.25
G1 Z-0.15
G3 X46.8115 Y12.6698 I-0.3157 J-0.9176
G3 X46.8103 I-0.0005 J-0.175
G3 X45.8435 Y11.7035 I0.0033 J-0.9702
G3 Y11.7021 I0.175 J-0.0007
G3 X46.8102 Y10.735 I0.9709 J0.0037
G3 X46.8117 I0.0008 J0.175
G3 X47.7788 Y11.7021 I-0.0041 J0.9712
G3 Y11.7036 I-0.175 J0.0007
G3 X47.1242 Y12.617 I-0.9704 J-0.0041
G0 Z3.0
G0 X47.9899 Y12.1558
G0 Z1.25
G1 Z-0.15
G3 X47.876 Y11.7035 I0.8562 J-0.4562
G3 Y11.7022 I0.175 J-0.0007
G3 X48.8397 Y10.735 I0.9709 J0.0037
G1 X50.066 Y10.6905
G1 X50.089 Y5.9704
G1 X47.5397 Y5.0893
G3 X46.583 Y4.1028 I0.0341 J-0.9902
G3 Y4.1015 I0.175 J-0.0007
G3 X47.5598 Y3.1141 I0.9912 J0.0037
G1 X47.6746 Y3.1009
G1 X47.916 Y3.0674
G1 X48.1447 Y3.0344
G3 X48.145 I0.0249 J0.1732
G1 X48.199 Y3.0267
G3 X48.1996 Y3.0266 I0.0246 J0.1733
G3 X48.626 Y2.97 I5.3811 J38.8993
G3 X48.819 Y2.9476 I0.617 J4.4598
G3 X49.5393 Y2.89 I1.2317 J10.8838
G1 X49.5394
G3 X50.1004 Y2.8879 I0.3057 J6.6057
G3 X50.1022 Y2.888 I-0.0068 J0.1749
G1 X50.1545 Y2.8905
G3 X50.1555 Y2.8906 I-0.0085 J0.1748
G3 X50.578 Y2.9359 I-0.2233 J4.0709
G3 X50.5805 Y2.9364 I-0.0277 J0.1728
G3 X50.9045 Y3.0143 I-0.4575 J2.6136
G3 X50.9067 Y3.015 I-0.0515 J0.1672
G3 X51.1517 Y3.1177 I-0.4806 J1.4898
G3 X51.4835 Y3.3973 I-0.4401 J0.8589
G3 X51.4867 Y3.4017 I-0.14 J0.105
G3 X51.6356 Y3.828 I-0.6756 J0.4751
G3 X51.6359 Y3.8395 I-0.1747 J0.0103
G1 X51.5848 Y11.6808
G1 Y11.6834
G1 Y11.692
G3 X50.9365 Y12.3654 I-0.6626 J0.0109
G3 X50.8496 Y12.3617 I-0.0146 J-0.6662
G1 X50.7548 Y12.3809
G3 X50.2839 Y12.4715 I-3.2395 J-15.5755
G1 X49.9335 Y12.5339
G3 X49.9312 Y12.5343 I-0.0307 J-0.1723
G1 X49.6676 Y12.5776
G3 X49.6653 Y12.5779 I-0.0284 J-0.1727
G1 X49.4672 Y12.6077
G3 X49.3133 Y12.6287 I-0.7657 J-5.0481
G1 X49.2015 Y12.6423
G3 X49.1991 Y12.6426 I-0.0212 J-0.1737
G1 X49.1156 Y12.6516
G3 X48.8471 Y12.6698 I-0.3298 J-2.8767
G3 X48.8428 I-0.0037 J-0.175
G3 X47.9899 Y12.1558 I0.0033 J-0.9702
G0 Z3.0
G0 X48.5327 Y10.5854
G0 Z1.25
G1 Z-0.15
G3 X48.1439 Y10.3331 I0.315 J-0.9113
G1 X47.5106
G3 X46.8119 Y10.6383 I-0.7041 J-0.6597
G3 X46.8101 I-0.001 J-0.175
G3 X46.1195 Y10.3415 I0.0047 J-0.9628
G1 X43.5281 Y10.3709
G3 X43.4201 Y10.379 I-0.1038 J-0.6591
G3 X43.419 I0.0011 J-0.175
G3 X43.1219 Y10.3042 I0.0083 J-0.6611
G3 X43.0844 Y10.2834 I0.1821 J-0.3716
G3 X42.7617 Y9.5986 I0.3308 J-0.5743
G3 X42.7059 Y9.335 I2.8845 J-0.7486
G3 X42.6327 Y8.7776 I7.9455 J-1.3274
G3 X42.6326 Y8.7769 I0.1742 J-0.0167
G1 X42.6216 Y8.6571
G3 X42.6215 Y8.6556 I0.1743 J-0.016
G3 X42.5888 Y8.1859 I17.3919 J-1.4474
G3 X42.5887 Y8.1849 I0.1747 J-0.0098
G3 X42.5514 Y6.5448 I29.7182 J-1.4963
G1 X42.5522 Y6.341
G3 Y6.3403 I0.175 J0.0007
G1 X42.5537 Y6.162
G3 X42.583 Y4.9114 I36.7589 J0.2359
G1 Y3.2891
G3 X42.758 Y3.1141 I0.175 J0.0
G1 X44.3834
G3 X44.5584 Y3.2891 I0.0 J0.175
G1 Y4.9039
G2 X44.634 Y4.9658 I0.1826 J-0.1459
G3 X44.6356 Y4.9667 I-0.0801 J0.1556
G2 X44.9175 Y5.079 I0.6648 J-1.2586
G3 X44.918 Y5.0791 I-0.0471 J0.1685
G2 X45.5213 Y5.216 I1.5972 J-5.6426
G3 X45.5222 Y5.2161 I-0.0297 J0.1725
G1 X45.6598 Y5.2406
G3 X45.6632 Y5.2412 I-0.0306 J0.1723
G2 X45.7209 Y5.251 I0.2159 J-1.0934
G3 X45.7241 Y5.2515 I-0.0248 J0.1732
G1 X45.9868 Y5.2941
G1 X46.2335 Y5.332
G1 X46.3496 Y5.3495
G1 X46.5753 Y5.3833
G1 X46.5754
G1 X46.6284 Y5.3912
G3 X46.629 Y5.3913 I-0.026 J0.1731
G1 X47.0459 Y5.4553
G3 X47.1398 Y5.4702 I-0.6086 J4.1238
G3 X47.855 Y5.5974 I-2.584 J16.605
G3 X48.3977 Y5.7209 I-1.9005 J9.6056
G3 X48.8114 Y5.8445 I-1.1546 J4.6163
G3 X48.8141 Y5.8455 I-0.0577 J0.1652
G1 X48.963 Y5.9003
G3 X48.967 Y5.9018 I-0.0604 J0.1642
G3 X49.2361 Y6.0234 I-1.1509 J2.9065
G3 X49.4385 Y6.1454 I-0.6811 J1.3588
G3 X49.7098 Y6.4107 I-0.6016 J0.8868
G3 X49.7105 Y6.4116 I-0.1426 J0.1015
G3 X49.8353 Y6.8215 I-0.5632 J0.3954
G3 X49.8351 Y6.8263 I-0.175 J-0.0037
G2 X49.7947 Y8.2449 I35.2893 J1.7167
G1 X49.7935 Y8.6002
G1 X49.7981 Y9.1334
G2 X49.8104 Y9.6651 I37.766 J-0.6086
G3 X49.8105 Y9.671 I-0.1749 J0.0053
G3 X48.8443 Y10.6383 I-0.9706 J-0.0033
G3 X48.8425 I-0.0008 J-0.175
G3 X48.5327 Y10.5854 I0.0052 J-0.9642
G0 Z3.0
G0 X45.6081 Y4.2361
G0 Z1.25
G1 Z-0.15
G3 X45.6033 Y4.1065 I1.9657 J-0.137
G3 Y4.0979 I1.1547 J-0.0043
G3 X45.6043 Y4.0416 I1.9709 J0.0074
G1 X45.5382
G1 Y4.2224
G2 X45.6081 Y4.2361 I0.9771 J-4.7859
G1 X45.7477 Y4.2264
G3 X45.7433 Y4.1059 I1.826 J-0.1273
G3 Y4.0984 I1.0147 J-0.0038
G3 X45.7547 Y3.9016 I1.8309 J0.0068
G1 X45.3982
G1 Y4.3354
G2 X45.6637 Y4.3884 I1.1171 J-4.8988
G3 X45.6689 Y4.3893 I-0.172 J1.0
G1 X45.7694 Y4.4072
G3 X45.7477 Y4.2264 I1.8044 J-0.308
G1 X45.8874 Y4.2167
G3 X45.8833 Y4.1054 I1.6864 J-0.1175
G3 Y4.0989 I0.8747 J-0.0033
G3 X45.9186 Y3.7616 I1.6909 J0.0063
G1 X45.2582
G1 Y4.4458
G2 X45.6399 Y4.5264 I1.2571 J-5.0093
G3 X45.6444 Y4.5272 I-0.1483 J0.8621
G1 X45.782 Y4.5516
G3 X45.7988 Y4.5547 I-0.1528 J0.8613
G2 X45.8202 Y4.5584 I0.0804 J-0.4069
G3 X45.836 Y4.5608 I-0.1242 J0.8659
G1 X45.9531 Y4.5798
G3 X45.8874 Y4.2167 I1.6207 J-0.4806
G1 X46.0271 Y4.2069
G3 X46.0233 Y4.1049 I1.5467 J-0.1078
