( Made using CamBam - http://www.cambam.co.uk )
( PCB2 10/13/2016 11:51:59 PM )
( T0 : 0.7 )
G21 G90 G40
G0 Z3.0
( T0 : 0.7 )
T0 M6
( Perçage1 )
G17
M3 S1000
G0 X3.4665 Y23.2318
G0 Z3.0
G0 X3.467 Y23.2318
G0 Z1.0
G1 F300.0 Z0.0
G3 F800.0 X3.4662 Y23.2322 Z-0.1333 I-0.0005 J0.0
G3 Y23.2314 Z-0.2667 I0.0003 J-0.0004
G3 X3.467 Y23.2318 Z-0.4 I0.0002 J0.0004
G3 X3.4662 Y23.2322 Z-0.5333 I-0.0005 J0.0
G3 Y23.2314 Z-0.6667 I0.0003 J-0.0004
G3 X3.467 Y23.2318 Z-0.8 I0.0002 J0.0004
G3 X3.4662 Y23.2322 Z-0.9333 I-0.0005 J0.0
G3 Y23.2314 Z-1.0667 I0.0003 J-0.0004
G3 X3.467 Y23.2318 Z-1.2 I0.0002 J0.0004
G3 X3.4662 Y23.2322 I-0.0005 J0.0
G3 Y23.2314 I0.0003 J-0.0004
G3 X3.467 Y23.2318 I0.0002 J0.0004
G0 Z3.0
G0 Y21.6448
G0 Z1.0
G1 F300.0 Z0.0
G3 F800.0 X3.4662 Y21.6452 Z-0.1333 I-0.0005 J0.0
G3 Y21.6443 Z-0.2667 I0.0003 J-0.0004
G3 X3.467 Y21.6448 Z-0.4 I0.0002 J0.0004
G3 X3.4662 Y21.6452 Z-0.5333 I-0.0005 J0.0
G3 Y21.6443 Z-0.6667 I0.0003 J-0.0004
G3 X3.467 Y21.6448 Z-0.8 I0.0002 J0.0004
G3 X3.4662 Y21.6452 Z-0.9333 I-0.0005 J0.0
G3 Y21.6443 Z-1.0667 I0.0003 J-0.0004
G3 X3.467 Y21.6448 Z-1.2 I0.0002 J0.0004
G3 X3.4662 Y21.6452 I-0.0005 J0.0
G3 Y21.6443 I0.0003 J-0.0004
G3 X3.467 Y21.6448 I0.0002 J0.0004
G0 Z3.0
G0 Y20.0447
G0 Z1.0
G1 F300.0 Z0.0
G3 F800.0 X3.4662 Y20.0451 Z-0.1333 I-0.0005 J0.0
G3 Y20.0443 Z-0.2667 I0.0003 J-0.0004
G3 X3.467 Y20.0447 Z-0.4 I0.0002 J0.0004
G3 X3.4662 Y20.0451 Z-0.5333 I-0.0005 J0.0
G3 Y20.0443 Z-0.6667 I0.0003 J-0.0004
G3 X3.467 Y20.0447 Z-0.8 I0.0002 J0.0004
G3 X3.4662 Y20.0451 Z-0.9333 I-0.0005 J0.0
G3 Y20.0443 Z-1.0667 I0.0003 J-0.0004
G3 X3.467 Y20.0447 Z-1.2 I0.0002 J0.0004
G3 X3.4662 Y20.0451 I-0.0005 J0.0
G3 Y20.0443 I0.0003 J-0.0004
G3 X3.467 Y20.0447 I0.0002 J0.0004
G0 Z3.0
G0 Y18.4448
G0 Z1.0
G1 F300.0 Z0.0
G3 F800.0 X3.4662 Y18.4453 Z-0.1333 I-0.0005 J0.0
G3 Y18.4444 Z-0.2667 I0.0003 J-0.0004
G3 X3.467 Y18.4448 Z-0.4 I0.0002 J0.0004
G3 X3.4662 Y18.4453 Z-0.5333 I-0.0005 J0.0
G3 Y18.4444 Z-0.6667 I0.0003 J-0.0004
G3 X3.467 Y18.4448 Z-0.8 I0.0002 J0.0004
G3 X3.4662 Y18.4453 Z-0.9333 I-0.0005 J0.0
G3 Y18.4444 Z-1.0667 I0.0003 J-0.0004
G3 X3.467 Y18.4448 Z-1.2 I0.0002 J0.0004
G3 X3.4662 Y18.4453 I-0.0005 J0.0
G3 Y18.4444 I0.0003 J-0.0004
G3 X3.467 Y18.4448 I0.0002 J0.0004
G0 Z3.0
G0 Y16.8446
G0 Z1.0
G1 F300.0 Z0.0
G3 F800.0 X3.4662 Y16.845 Z-0.1333 I-0.0005 J0.0
G3 Y16.8441 Z-0.2667 I0.0003 J-0.0004
G3 X3.467 Y16.8446 Z-0.4 I0.0002 J0.0004
G3 X3.4662 Y16.845 Z-0.5333 I-0.0005 J0.0
G3 Y16.8441 Z-0.6667 I0.0003 J-0.0004
G3 X3.467 Y16.8446 Z-0.8 I0.0002 J0.0004
G3 X3.4662 Y16.845 Z-0.9333 I-0.0005 J0.0
G3 Y16.8441 Z-1.0667 I0.0003 J-0.0004
G3 X3.467 Y16.8446 Z-1.2 I0.0002 J0.0004
G3 X3.4662 Y16.845 I-0.0005 J0.0
G3 Y16.8441 I0.0003 J-0.0004
G3 X3.467 Y16.8446 I0.0002 J0.0004
G0 Z3.0
G0 Y15.2447
G0 Z1.0
G1 F300.0 Z0.0
G3 F800.0 X3.4662 Y15.2451 Z-0.1333 I-0.0005 J0.0
G3 Y15.2443 Z-0.2667 I0.0002 J-0.0004
G3 X3.467 Y15.2447 Z-0.4 I0.0002 J0.0004
G3 X3.4662 Y15.2451 Z-0.5333 I-0.0005 J0.0
G3 Y15.2443 Z-0.6667 I0.0002 J-0.0004
G3 X3.467 Y15.2447 Z-0.8 I0.0002 J0.0004
G3 X3.4662 Y15.2451 Z-0.9333 I-0.0005 J0.0
G3 Y15.2443 Z-1.0667 I0.0002 J-0.0004
G3 X3.467 Y15.2447 Z-1.2 I0.0002 J0.0004
G3 X3.4662 Y15.2451 I-0.0005 J0.0
G3 Y15.2443 I0.0002 J-0.0004
G3 X3.467 Y15.2447 I0.0002 J0.0004
G0 Z3.0
G0 Y13.6448
G0 Z1.0
G1 F300.0 Z0.0
G3 F800.0 X3.4662 Y13.6453 Z-0.1333 I-0.0005 J0.0
G3 Y13.6444 Z-0.2667 I0.0002 J-0.0004
G3 X3.467 Y13.6448 Z-0.4 I0.0002 J0.0004
G3 X3.4662 Y13.6453 Z-0.5333 I-0.0005 J0.0
G3 Y13.6444 Z-0.6667 I0.0002 J-0.0004
G3 X3.467 Y13.6448 Z-0.8 I0.0002 J0.0004
G3 X3.4662 Y13.6453 Z-0.9333 I-0.0005 J0.0
G3 Y13.6444 Z-1.0667 I0.0002 J-0.0004
G3 X3.467 Y13.6448 Z-1.2 I0.0002 J0.0004
G3 X3.4662 Y13.6453 I-0.0005 J0.0
G3 Y13.6444 I0.0002 J-0.0004
G3 X3.467 Y13.6448 I0.0002 J0.0004
G0 Z3.0
G0 Y12.0446
G0 Z1.0
G1 F300.0 Z0.0
G3 F800.0 X3.4662 Y12.045 Z-0.1333 I-0.0005 J0.0
G3 Y12.0441 Z-0.2667 I0.0002 J-0.0004
G3 X3.467 Y12.0446 Z-0.4 I0.0002 J0.0004
G3 X3.4662 Y12.045 Z-0.5333 I-0.0005 J0.0
G3 Y12.0441 Z-0.6667 I0.0002 J-0.0004
G3 X3.467 Y12.0446 Z-0.8 I0.0002 J0.0004
G3 X3.4662 Y12.045 Z-0.9333 I-0.0005 J0.0
G3 Y12.0441 Z-1.0667 I0.0002 J-0.0004
G3 X3.467 Y12.0446 Z-1.2 I0.0002 J0.0004
G3 X3.4662 Y12.045 I-0.0005 J0.0
G3 Y12.0441 I0.0002 J-0.0004
G3 X3.467 Y12.0446 I0.0002 J0.0004
G0 Z3.0
G0 X17.6178
G0 Z1.0
G1 F300.0 Z0.0
G3 F800.0 X17.617 Y12.045 Z-0.1333 I-0.0005 J0.0
G3 Y12.0441 Z-0.2667 I0.0003 J-0.0004
G3 X17.6178 Y12.0446 Z-0.4 I0.0003 J0.0004
G3 X17.617 Y12.045 Z-0.5333 I-0.0005 J0.0
G3 Y12.0441 Z-0.6667 I0.0003 J-0.0004
G3 X17.6178 Y12.0446 Z-0.8 I0.0003 J0.0004
G3 X17.617 Y12.045 Z-0.9333 I-0.0005 J0.0
G3 Y12.0441 Z-1.0667 I0.0003 J-0.0004
G3 X17.6178 Y12.0446 Z-1.2 I0.0003 J0.0004
G3 X17.617 Y12.045 I-0.0005 J0.0
G3 Y12.0441 I0.0003 J-0.0004
G3 X17.6178 Y12.0446 I0.0003 J0.0004
G0 Z3.0
G0 X17.6096 Y13.6449
G0 Z1.0
G1 F300.0 Z0.0
G3 F800.0 X17.6089 Y13.6453 Z-0.1333 I-0.0005 J0.0
G3 Y13.6444 Z-0.2667 I0.0003 J-0.0004
G3 X17.6096 Y13.6449 Z-0.4 I0.0003 J0.0004
G3 X17.6089 Y13.6453 Z-0.5333 I-0.0005 J0.0
G3 Y13.6444 Z-0.6667 I0.0003 J-0.0004
G3 X17.6096 Y13.6449 Z-0.8 I0.0003 J0.0004
G3 X17.6089 Y13.6453 Z-0.9333 I-0.0005 J0.0
G3 Y13.6444 Z-1.0667 I0.0003 J-0.0004
G3 X17.6096 Y13.6449 Z-1.2 I0.0003 J0.0004
G3 X17.6089 Y13.6453 I-0.0005 J0.0
G3 Y13.6444 I0.0003 J-0.0004
G3 X17.6096 Y13.6449 I0.0003 J0.0004
G0 Z3.0
G0 X17.6094 Y15.2447
G0 Z1.0
G1 F300.0 Z0.0
G3 F800.0 X17.6086 Y15.2451 Z-0.1333 I-0.0005 J0.0
G3 Y15.2443 Z-0.2667 I0.0003 J-0.0004
G3 X17.6094 Y15.2447 Z-0.4 I0.0003 J0.0004
G3 X17.6086 Y15.2451 Z-0.5333 I-0.0005 J0.0
G3 Y15.2443 Z-0.6667 I0.0003 J-0.0004
G3 X17.6094 Y15.2447 Z-0.8 I0.0003 J0.0004
G3 X17.6086 Y15.2451 Z-0.9333 I-0.0005 J0.0
G3 Y15.2443 Z-1.0667 I0.0003 J-0.0004
G3 X17.6094 Y15.2447 Z-1.2 I0.0003 J0.0004
G3 X17.6086 Y15.2451 I-0.0005 J0.0
G3 Y15.2443 I0.0003 J-0.0004
G3 X17.6094 Y15.2447 I0.0003 J0.0004
G0 Z3.0
G0 X17.6109 Y16.8446
G0 Z1.0
G1 F300.0 Z0.0
G3 F800.0 X17.6102 Y16.845 Z-0.1333 I-0.0005 J0.0
G3 Y16.8441 Z-0.2667 I0.0003 J-0.0004
G3 X17.6109 Y16.8446 Z-0.4 I0.0003 J0.0004
G3 X17.6102 Y16.845 Z-0.5333 I-0.0005 J0.0
G3 Y16.8441 Z-0.6667 I0.0003 J-0.0004
G3 X17.6109 Y16.8446 Z-0.8 I0.0003 J0.0004
G3 X17.6102 Y16.845 Z-0.9333 I-0.0005 J0.0
G3 Y16.8441 Z-1.0667 I0.0003 J-0.0004
G3 X17.6109 Y16.8446 Z-1.2 I0.0003 J0.0004
G3 X17.6102 Y16.845 I-0.0005 J0.0
G3 Y16.8441 I0.0003 J-0.0004
G3 X17.6109 Y16.8446 I0.0003 J0.0004
G0 Z3.0
G0 X17.6092 Y18.4448
G0 Z1.0
G1 F300.0 Z0.0
G3 F800.0 X17.6084 Y18.4453 Z-0.1333 I-0.0005 J0.0
G3 Y18.4444 Z-0.2667 I0.0003 J-0.0004
G3 X17.6092 Y18.4448 Z-0.4 I0.0003 J0.0004
G3 X17.6084 Y18.4453 Z-0.5333 I-0.0005 J0.0
G3 Y18.4444 Z-0.6667 I0.0003 J-0.0004
G3 X17.6092 Y18.4448 Z-0.8 I0.0003 J0.0004
G3 X17.6084 Y18.4453 Z-0.9333 I-0.0005 J0.0
G3 Y18.4444 Z-1.0667 I0.0003 J-0.0004
G3 X17.6092 Y18.4448 Z-1.2 I0.0003 J0.0004
G3 X17.6084 Y18.4453 I-0.0005 J0.0
G3 Y18.4444 I0.0003 J-0.0004
G3 X17.6092 Y18.4448 I0.0003 J0.0004
G0 Z3.0
G0 X17.6131 Y20.0447
G0 Z1.0
G1 F300.0 Z0.0
G3 F800.0 X17.6124 Y20.0451 Z-0.1333 I-0.0005 J0.0
G3 Y20.0443 Z-0.2667 I0.0003 J-0.0004
G3 X17.6131 Y20.0447 Z-0.4 I0.0003 J0.0004
G3 X17.6124 Y20.0451 Z-0.5333 I-0.0005 J0.0
G3 Y20.0443 Z-0.6667 I0.0003 J-0.0004
G3 X17.6131 Y20.0447 Z-0.8 I0.0003 J0.0004
G3 X17.6124 Y20.0451 Z-0.9333 I-0.0005 J0.0
G3 Y20.0443 Z-1.0667 I0.0003 J-0.0004
G3 X17.6131 Y20.0447 Z-1.2 I0.0003 J0.0004
G3 X17.6124 Y20.0451 I-0.0005 J0.0
G3 Y20.0443 I0.0003 J-0.0004
G3 X17.6131 Y20.0447 I0.0003 J0.0004
G0 Z3.0
G0 X17.6259 Y21.6448
G0 Z1.0
G1 F300.0 Z0.0
G3 F800.0 X17.6252 Y21.6452 Z-0.1333 I-0.0005 J0.0
G3 Y21.6443 Z-0.2667 I0.0003 J-0.0004
G3 X17.6259 Y21.6448 Z-0.4 I0.0003 J0.0004
G3 X17.6252 Y21.6452 Z-0.5333 I-0.0005 J0.0
G3 Y21.6443 Z-0.6667 I0.0003 J-0.0004
G3 X17.6259 Y21.6448 Z-0.8 I0.0003 J0.0004
G3 X17.6252 Y21.6452 Z-0.9333 I-0.0005 J0.0
G3 Y21.6443 Z-1.0667 I0.0003 J-0.0004
G3 X17.6259 Y21.6448 Z-1.2 I0.0003 J0.0004
G3 X17.6252 Y21.6452 I-0.0005 J0.0
G3 Y21.6443 I0.0003 J-0.0004
G3 X17.6259 Y21.6448 I0.0003 J0.0004
G0 Z3.0
G0 X17.6178 Y23.2448
G0 Z1.0
G1 F300.0 Z0.0
G3 F800.0 X17.617 Y23.2453 Z-0.1333 I-0.0005 J0.0
G3 Y23.2444 Z-0.2667 I0.0003 J-0.0004
G3 X17.6178 Y23.2448 Z-0.4 I0.0003 J0.0004
G3 X17.617 Y23.2453 Z-0.5333 I-0.0005 J0.0
G3 Y23.2444 Z-0.6667 I0.0003 J-0.0004
G3 X17.6178 Y23.2448 Z-0.8 I0.0003 J0.0004
G3 X17.617 Y23.2453 Z-0.9333 I-0.0005 J0.0
G3 Y23.2444 Z-1.0667 I0.0003 J-0.0004
G3 X17.6178 Y23.2448 Z-1.2 I0.0003 J0.0004
G3 X17.617 Y23.2453 I-0.0005 J0.0
G3 Y23.2444 I0.0003 J-0.0004
G3 X17.6178 Y23.2448 I0.0003 J0.0004
G0 Z3.0
G0 X20.7595 Y25.8911
G0 Z1.0
G1 F300.0 Z0.0
G3 F800.0 X20.7587 Y25.8915 Z-0.1333 I-0.0005 J0.0
G3 Y25.8907 Z-0.2667 I0.0003 J-0.0004
G3 X20.7595 Y25.8911 Z-0.4 I0.0003 J0.0004
G3 X20.7587 Y25.8915 Z-0.5333 I-0.0005 J0.0
G3 Y25.8907 Z-0.6667 I0.0003 J-0.0004
G3 X20.7595 Y25.8911 Z-0.8 I0.0003 J0.0004
G3 X20.7587 Y25.8915 Z-0.9333 I-0.0005 J0.0
G3 Y25.8907 Z-1.0667 I0.0003 J-0.0004
G3 X20.7595 Y25.8911 Z-1.2 I0.0003 J0.0004
G3 X20.7587 Y25.8915 I-0.0005 J0.0
G3 Y25.8907 I0.0003 J-0.0004
G3 X20.7595 Y25.8911 I0.0003 J0.0004
G0 Z3.0
G0 X20.7716 Y27.9205
G0 Z1.0
G1 F300.0 Z0.0
G3 F800.0 X20.7709 Y27.9209 Z-0.1333 I-0.0005 J0.0
G3 Y27.92 Z-0.2667 I0.0003 J-0.0004
G3 X20.7716 Y27.9205 Z-0.4 I0.0003 J0.0004
G3 X20.7709 Y27.9209 Z-0.5333 I-0.0005 J0.0
G3 Y27.92 Z-0.6667 I0.0003 J-0.0004
G3 X20.7716 Y27.9205 Z-0.8 I0.0003 J0.0004
G3 X20.7709 Y27.9209 Z-0.9333 I-0.0005 J0.0
G3 Y27.92 Z-1.0667 I0.0003 J-0.0004
G3 X20.7716 Y27.9205 Z-1.2 I0.0003 J0.0004
G3 X20.7709 Y27.9209 I-0.0005 J0.0
G3 Y27.92 I0.0003 J-0.0004
G3 X20.7716 Y27.9205 I0.0003 J0.0004
G0 Z3.0
G0 X20.7597 Y29.9527
G0 Z1.0
G1 F300.0 Z0.0
G3 F800.0 X20.7589 Y29.9531 Z-0.1333 I-0.0005 J0.0
G3 Y29.9522 Z-0.2667 I0.0003 J-0.0004
G3 X20.7597 Y29.9527 Z-0.4 I0.0003 J0.0004
G3 X20.7589 Y29.9531 Z-0.5333 I-0.0005 J0.0
G3 Y29.9522 Z-0.6667 I0.0003 J-0.0004
G3 X20.7597 Y29.9527 Z-0.8 I0.0003 J0.0004
G3 X20.7589 Y29.9531 Z-0.9333 I-0.0005 J0.0
G3 Y29.9522 Z-1.0667 I0.0003 J-0.0004
G3 X20.7597 Y29.9527 Z-1.2 I0.0003 J0.0004
G3 X20.7589 Y29.9531 I-0.0005 J0.0
G3 Y29.9522 I0.0003 J-0.0004
G3 X20.7597 Y29.9527 I0.0003 J0.0004
G0 Z3.0
G0 X14.6787 Y30.1172
G0 Z1.0
G1 F300.0 Z0.0
G3 F800.0 X14.6779 Y30.1176 Z-0.1333 I-0.0005 J0.0
G3 Y30.1167 Z-0.2667 I0.0003 J-0.0004
G3 X14.6787 Y30.1172 Z-0.4 I0.0002 J0.0004
G3 X14.6779 Y30.1176 Z-0.5333 I-0.0005 J0.0
G3 Y30.1167 Z-0.6667 I0.0003 J-0.0004
G3 X14.6787 Y30.1172 Z-0.8 I0.0002 J0.0004
G3 X14.6779 Y30.1176 Z-0.9333 I-0.0005 J0.0
G3 Y30.1167 Z-1.0667 I0.0003 J-0.0004
G3 X14.6787 Y30.1172 Z-1.2 I0.0002 J0.0004
G3 X14.6779 Y30.1176 I-0.0005 J0.0
G3 Y30.1167 I0.0003 J-0.0004
G3 X14.6787 Y30.1172 I0.0002 J0.0004
G0 Z3.0
G0 X14.6818 Y31.7058
G0 Z1.0
G1 F300.0 Z0.0
G3 F800.0 X14.681 Y31.7062 Z-0.1333 I-0.0005 J0.0
G3 Y31.7053 Z-0.2667 I0.0003 J-0.0004
G3 X14.6818 Y31.7058 Z-0.4 I0.0002 J0.0004
G3 X14.681 Y31.7062 Z-0.5333 I-0.0005 J0.0
G3 Y31.7053 Z-0.6667 I0.0003 J-0.0004
G3 X14.6818 Y31.7058 Z-0.8 I0.0002 J0.0004
G3 X14.681 Y31.7062 Z-0.9333 I-0.0005 J0.0
G3 Y31.7053 Z-1.0667 I0.0003 J-0.0004
G3 X14.6818 Y31.7058 Z-1.2 I0.0002 J0.0004
G3 X14.681 Y31.7062 I-0.0005 J0.0
G3 Y31.7053 I0.0003 J-0.0004
G3 X14.6818 Y31.7058 I0.0002 J0.0004
G0 Z3.0
G0 X15.7816 Y36.306
G0 Z1.0
G1 F300.0 Z0.0
G3 F800.0 X15.7808 Y36.3064 Z-0.1333 I-0.0005 J0.0
G3 Y36.3055 Z-0.2667 I0.0002 J-0.0004
G3 X15.7816 Y36.306 Z-0.4 I0.0003 J0.0004
G3 X15.7808 Y36.3064 Z-0.5333 I-0.0005 J0.0
G3 Y36.3055 Z-0.6667 I0.0002 J-0.0004
G3 X15.7816 Y36.306 Z-0.8 I0.0003 J0.0004
G3 X15.7808 Y36.3064 Z-0.9333 I-0.0005 J0.0
G3 Y36.3055 Z-1.0667 I0.0002 J-0.0004
G3 X15.7816 Y36.306 Z-1.2 I0.0003 J0.0004
G3 X15.7808 Y36.3064 I-0.0005 J0.0
G3 Y36.3055 I0.0002 J-0.0004
G3 X15.7816 Y36.306 I0.0003 J0.0004
G0 Z3.0
G0 X9.7528 Y31.6462
G0 Z1.0
G1 F300.0 Z0.0
G3 F800.0 X9.7521 Y31.6467 Z-0.1333 I-0.0005 J0.0
G3 Y31.6458 Z-0.2667 I0.0003 J-0.0004
G3 X9.7528 Y31.6462 Z-0.4 I0.0002 J0.0004
G3 X9.7521 Y31.6467 Z-0.5333 I-0.0005 J0.0
G3 Y31.6458 Z-0.6667 I0.0003 J-0.0004
G3 X9.7528 Y31.6462 Z-0.8 I0.0002 J0.0004
G3 X9.7521 Y31.6467 Z-0.9333 I-0.0005 J0.0
G3 Y31.6458 Z-1.0667 I0.0003 J-0.0004
G3 X9.7528 Y31.6462 Z-1.2 I0.0002 J0.0004
G3 X9.7521 Y31.6467 I-0.0005 J0.0
G3 Y31.6458 I0.0003 J-0.0004
G3 X9.7528 Y31.6462 I0.0002 J0.0004
G0 Z3.0
G0 X10.4368 Y26.8222
G0 Z1.0
G1 F300.0 Z0.0
G3 F800.0 X10.436 Y26.8227 Z-0.1333 I-0.0005 J0.0
G3 Y26.8218 Z-0.2667 I0.0003 J-0.0004
G3 X10.4368 Y26.8222 Z-0.4 I0.0002 J0.0004
G3 X10.436 Y26.8227 Z-0.5333 I-0.0005 J0.0
G3 Y26.8218 Z-0.6667 I0.0003 J-0.0004
G3 X10.4368 Y26.8222 Z-0.8 I0.0002 J0.0004
G3 X10.436 Y26.8227 Z-0.9333 I-0.0005 J0.0
G3 Y26.8218 Z-1.0667 I0.0003 J-0.0004
G3 X10.4368 Y26.8222 Z-1.2 I0.0002 J0.0004
G3 X10.436 Y26.8227 I-0.0005 J0.0
G3 Y26.8218 I0.0003 J-0.0004
G3 X10.4368 Y26.8222 I0.0002 J0.0004
G0 Z3.0
G0 X1.6347 Y31.6566
G0 Z1.0
G1 F300.0 Z0.0
G3 F800.0 X1.634 Y31.657 Z-0.1333 I-0.0005 J0.0
G3 Y31.6562 Z-0.2667 I0.0003 J-0.0004
G3 X1.6347 Y31.6566 Z-0.4 I0.0002 J0.0004
G3 X1.634 Y31.657 Z-0.5333 I-0.0005 J0.0
G3 Y31.6562 Z-0.6667 I0.0003 J-0.0004
G3 X1.6347 Y31.6566 Z-0.8 I0.0002 J0.0004
G3 X1.634 Y31.657 Z-0.9333 I-0.0005 J0.0
G3 Y31.6562 Z-1.0667 I0.0003 J-0.0004
G3 X1.6347 Y31.6566 Z-1.2 I0.0002 J0.0004
G3 X1.634 Y31.657 I-0.0005 J0.0
G3 Y31.6562 I0.0003 J-0.0004
G3 X1.6347 Y31.6566 I0.0002 J0.0004
G0 Z3.0
G0 X23.8269 Y36.306
G0 Z1.0
G1 F300.0 Z0.0
G3 F800.0 X23.8261 Y36.3064 Z-0.1333 I-0.0005 J0.0
G3 Y36.3055 Z-0.2667 I0.0002 J-0.0004
G3 X23.8269 Y36.306 Z-0.4 I0.0003 J0.0004
G3 X23.8261 Y36.3064 Z-0.5333 I-0.0005 J0.0
G3 Y36.3055 Z-0.6667 I0.0002 J-0.0004
G3 X23.8269 Y36.306 Z-0.8 I0.0003 J0.0004
G3 X23.8261 Y36.3064 Z-0.9333 I-0.0005 J0.0
G3 Y36.3055 Z-1.0667 I0.0002 J-0.0004
G3 X23.8269 Y36.306 Z-1.2 I0.0003 J0.0004
G3 X23.8261 Y36.3064 I-0.0005 J0.0
G3 Y36.3055 I0.0002 J-0.0004
G3 X23.8269 Y36.306 I0.0003 J0.0004
G0 Z3.0
G0 X27.0063 Y36.0771
G0 Z1.0
G1 F300.0 Z0.0
G3 F800.0 X27.0055 Y36.0775 Z-0.1333 I-0.0005 J0.0
G3 Y36.0767 Z-0.2667 I0.0002 J-0.0004
G3 X27.0063 Y36.0771 Z-0.4 I0.0003 J0.0004
G3 X27.0055 Y36.0775 Z-0.5333 I-0.0005 J0.0
G3 Y36.0767 Z-0.6667 I0.0002 J-0.0004
G3 X27.0063 Y36.0771 Z-0.8 I0.0003 J0.0004
G3 X27.0055 Y36.0775 Z-0.9333 I-0.0005 J0.0
G3 Y36.0767 Z-1.0667 I0.0002 J-0.0004
G3 X27.0063 Y36.0771 Z-1.2 I0.0003 J0.0004
G3 X27.0055 Y36.0775 I-0.0005 J0.0
G3 Y36.0767 I0.0002 J-0.0004
G3 X27.0063 Y36.0771 I0.0003 J0.0004
G0 Z3.0
G0 X27.0089 Y38.1089
G0 Z1.0
G1 F300.0 Z0.0
G3 F800.0 X27.0082 Y38.1093 Z-0.1333 I-0.0005 J0.0
G3 Y38.1085 Z-0.2667 I0.0002 J-0.0004
G3 X27.0089 Y38.1089 Z-0.4 I0.0003 J0.0004
G3 X27.0082 Y38.1093 Z-0.5333 I-0.0005 J0.0
G3 Y38.1085 Z-0.6667 I0.0002 J-0.0004
G3 X27.0089 Y38.1089 Z-0.8 I0.0003 J0.0004
G3 X27.0082 Y38.1093 Z-0.9333 I-0.0005 J0.0
G3 Y38.1085 Z-1.0667 I0.0002 J-0.0004
G3 X27.0089 Y38.1089 Z-1.2 I0.0003 J0.0004
G3 X27.0082 Y38.1093 I-0.0005 J0.0
G3 Y38.1085 I0.0002 J-0.0004
G3 X27.0089 Y38.1089 I0.0003 J0.0004
G0 Z3.0
G0 X29.0412
G0 Z1.0
G1 F300.0 Z0.0
G3 F800.0 X29.0404 Y38.1093 Z-0.1333 I-0.0005 J0.0
G3 Y38.1085 Z-0.2667 I0.0002 J-0.0004
G3 X29.0412 Y38.1089 Z-0.4 I0.0003 J0.0004
G3 X29.0404 Y38.1093 Z-0.5333 I-0.0005 J0.0
G3 Y38.1085 Z-0.6667 I0.0002 J-0.0004
G3 X29.0412 Y38.1089 Z-0.8 I0.0003 J0.0004
G3 X29.0404 Y38.1093 Z-0.9333 I-0.0005 J0.0
G3 Y38.1085 Z-1.0667 I0.0002 J-0.0004
G3 X29.0412 Y38.1089 Z-1.2 I0.0003 J0.0004
G3 X29.0404 Y38.1093 I-0.0005 J0.0
G3 Y38.1085 I0.0002 J-0.0004
G3 X29.0412 Y38.1089 I0.0003 J0.0004
G0 Z3.0
G0 X29.0431 Y36.0771
G0 Z1.0
G1 F300.0 Z0.0
G3 F800.0 X29.0424 Y36.0775 Z-0.1333 I-0.0005 J0.0
G3 Y36.0767 Z-0.2667 I0.0002 J-0.0004
G3 X29.0431 Y36.0771 Z-0.4 I0.0003 J0.0004
G3 X29.0424 Y36.0775 Z-0.5333 I-0.0005 J0.0
G3 Y36.0767 Z-0.6667 I0.0002 J-0.0004
G3 X29.0431 Y36.0771 Z-0.8 I0.0003 J0.0004
G3 X29.0424 Y36.0775 Z-0.9333 I-0.0005 J0.0
G3 Y36.0767 Z-1.0667 I0.0002 J-0.0004
G3 X29.0431 Y36.0771 Z-1.2 I0.0003 J0.0004
G3 X29.0424 Y36.0775 I-0.0005 J0.0
G3 Y36.0767 I0.0002 J-0.0004
G3 X29.0431 Y36.0771 I0.0003 J0.0004
G0 Z3.0
G0 X29.0412 Y34.0449
G0 Z1.0
G1 F300.0 Z0.0
G3 F800.0 X29.0404 Y34.0453 Z-0.1333 I-0.0005 J0.0
G3 Y34.0445 Z-0.2667 I0.0002 J-0.0004
G3 X29.0412 Y34.0449 Z-0.4 I0.0003 J0.0004
G3 X29.0404 Y34.0453 Z-0.5333 I-0.0005 J0.0
G3 Y34.0445 Z-0.6667 I0.0002 J-0.0004
G3 X29.0412 Y34.0449 Z-0.8 I0.0003 J0.0004
G3 X29.0404 Y34.0453 Z-0.9333 I-0.0005 J0.0
G3 Y34.0445 Z-1.0667 I0.0002 J-0.0004
G3 X29.0412 Y34.0449 Z-1.2 I0.0003 J0.0004
G3 X29.0404 Y34.0453 I-0.0005 J0.0
G3 Y34.0445 I0.0002 J-0.0004
G3 X29.0412 Y34.0449 I0.0003 J0.0004
G0 Z3.0
G0 X27.0217
G0 Z1.0
G1 F300.0 Z0.0
G3 F800.0 X27.021 Y34.0453 Z-0.1333 I-0.0005 J0.0
G3 Y34.0445 Z-0.2667 I0.0002 J-0.0004
G3 X27.0217 Y34.0449 Z-0.4 I0.0003 J0.0004
G3 X27.021 Y34.0453 Z-0.5333 I-0.0005 J0.0
G3 Y34.0445 Z-0.6667 I0.0002 J-0.0004
G3 X27.0217 Y34.0449 Z-0.8 I0.0003 J0.0004
G3 X27.021 Y34.0453 Z-0.9333 I-0.0005 J0.0
G3 Y34.0445 Z-1.0667 I0.0002 J-0.0004
G3 X27.0217 Y34.0449 Z-1.2 I0.0003 J0.0004
G3 X27.021 Y34.0453 I-0.0005 J0.0
G3 Y34.0445 I0.0002 J-0.0004
G3 X27.0217 Y34.0449 I0.0003 J0.0004
G0 Z3.0
G0 X27.0191 Y32.0131
G0 Z1.0
G1 F300.0 Z0.0
G3 F800.0 X27.0183 Y32.0135 Z-0.1333 I-0.0005 J0.0
G3 Y32.0127 Z-0.2667 I0.0002 J-0.0004
G3 X27.0191 Y32.0131 Z-0.4 I0.0003 J0.0004
G3 X27.0183 Y32.0135 Z-0.5333 I-0.0005 J0.0
G3 Y32.0127 Z-0.6667 I0.0002 J-0.0004
G3 X27.0191 Y32.0131 Z-0.8 I0.0003 J0.0004
G3 X27.0183 Y32.0135 Z-0.9333 I-0.0005 J0.0
G3 Y32.0127 Z-1.0667 I0.0002 J-0.0004
G3 X27.0191 Y32.0131 Z-1.2 I0.0003 J0.0004
G3 X27.0183 Y32.0135 I-0.0005 J0.0
G3 Y32.0127 I0.0002 J-0.0004
G3 X27.0191 Y32.0131 I0.0003 J0.0004
G0 Z3.0
G0 X29.0412
G0 Z1.0
G1 F300.0 Z0.0
G3 F800.0 X29.0404 Y32.0135 Z-0.1333 I-0.0005 J0.0
G3 Y32.0127 Z-0.2667 I0.0002 J-0.0004
G3 X29.0412 Y32.0131 Z-0.4 I0.0003 J0.0004
G3 X29.0404 Y32.0135 Z-0.5333 I-0.0005 J0.0
G3 Y32.0127 Z-0.6667 I0.0002 J-0.0004
G3 X29.0412 Y32.0131 Z-0.8 I0.0003 J0.0004
G3 X29.0404 Y32.0135 Z-0.9333 I-0.0005 J0.0
G3 Y32.0127 Z-1.0667 I0.0002 J-0.0004
G3 X29.0412 Y32.0131 Z-1.2 I0.0003 J0.0004
G3 X29.0404 Y32.0135 I-0.0005 J0.0
G3 Y32.0127 I0.0002 J-0.0004
G3 X29.0412 Y32.0131 I0.0003 J0.0004
G0 Z3.0
G0 Y29.9809
G0 Z1.0
G1 F300.0 Z0.0
G3 F800.0 X29.0404 Y29.9813 Z-0.1333 I-0.0005 J0.0
G3 Y29.9805 Z-0.2667 I0.0003 J-0.0004
G3 X29.0412 Y29.9809 Z-0.4 I0.0003 J0.0004
G3 X29.0404 Y29.9813 Z-0.5333 I-0.0005 J0.0
G3 Y29.9805 Z-0.6667 I0.0003 J-0.0004
G3 X29.0412 Y29.9809 Z-0.8 I0.0003 J0.0004
G3 X29.0404 Y29.9813 Z-0.9333 I-0.0005 J0.0
G3 Y29.9805 Z-1.0667 I0.0003 J-0.0004
G3 X29.0412 Y29.9809 Z-1.2 I0.0003 J0.0004
G3 X29.0404 Y29.9813 I-0.0005 J0.0
G3 Y29.9805 I0.0003 J-0.0004
G3 X29.0412 Y29.9809 I0.0003 J0.0004
G0 Z3.0
G0 X27.0191
G0 Z1.0
G1 F300.0 Z0.0
G3 F800.0 X27.0183 Y29.9813 Z-0.1333 I-0.0005 J0.0
G3 Y29.9805 Z-0.2667 I0.0003 J-0.0004
G3 X27.0191 Y29.9809 Z-0.4 I0.0003 J0.0004
G3 X27.0183 Y29.9813 Z-0.5333 I-0.0005 J0.0
G3 Y29.9805 Z-0.6667 I0.0003 J-0.0004
G3 X27.0191 Y29.9809 Z-0.8 I0.0003 J0.0004
G3 X27.0183 Y29.9813 Z-0.9333 I-0.0005 J0.0
G3 Y29.9805 Z-1.0667 I0.0003 J-0.0004
G3 X27.0191 Y29.9809 Z-1.2 I0.0003 J0.0004
G3 X27.0183 Y29.9813 I-0.0005 J0.0
G3 Y29.9805 I0.0003 J-0.0004
G3 X27.0191 Y29.9809 I0.0003 J0.0004
G0 Z3.0
G0 X27.0087 Y27.9489
G0 Z1.0
G1 F300.0 Z0.0
G3 F800.0 X27.008 Y27.9493 Z-0.1333 I-0.0005 J0.0
G3 Y27.9485 Z-0.2667 I0.0003 J-0.0004
G3 X27.0087 Y27.9489 Z-0.4 I0.0003 J0.0004
G3 X27.008 Y27.9493 Z-0.5333 I-0.0005 J0.0
G3 Y27.9485 Z-0.6667 I0.0003 J-0.0004
G3 X27.0087 Y27.9489 Z-0.8 I0.0003 J0.0004
G3 X27.008 Y27.9493 Z-0.9333 I-0.0005 J0.0
G3 Y27.9485 Z-1.0667 I0.0003 J-0.0004
G3 X27.0087 Y27.9489 Z-1.2 I0.0003 J0.0004
G3 X27.008 Y27.9493 I-0.0005 J0.0
G3 Y27.9485 I0.0003 J-0.0004
G3 X27.0087 Y27.9489 I0.0003 J0.0004
G0 Z3.0
G0 X29.0412
G0 Z1.0
G1 F300.0 Z0.0
G3 F800.0 X29.0404 Y27.9493 Z-0.1333 I-0.0005 J0.0
G3 Y27.9485 Z-0.2667 I0.0003 J-0.0004
G3 X29.0412 Y27.9489 Z-0.4 I0.0003 J0.0004
G3 X29.0404 Y27.9493 Z-0.5333 I-0.0005 J0.0
G3 Y27.9485 Z-0.6667 I0.0003 J-0.0004
G3 X29.0412 Y27.9489 Z-0.8 I0.0003 J0.0004
G3 X29.0404 Y27.9493 Z-0.9333 I-0.0005 J0.0
G3 Y27.9485 Z-1.0667 I0.0003 J-0.0004
G3 X29.0412 Y27.9489 Z-1.2 I0.0003 J0.0004
G3 X29.0404 Y27.9493 I-0.0005 J0.0
G3 Y27.9485 I0.0003 J-0.0004
G3 X29.0412 Y27.9489 I0.0003 J0.0004
G0 Z3.0
G0 X29.1084 Y25.9171
G0 Z1.0
G1 F300.0 Z0.0
G3 F800.0 X29.1076 Y25.9175 Z-0.1333 I-0.0005 J0.0
G3 Y25.9167 Z-0.2667 I0.0003 J-0.0004
G3 X29.1084 Y25.9171 Z-0.4 I0.0003 J0.0004
G3 X29.1076 Y25.9175 Z-0.5333 I-0.0005 J0.0
G3 Y25.9167 Z-0.6667 I0.0003 J-0.0004
G3 X29.1084 Y25.9171 Z-0.8 I0.0003 J0.0004
G3 X29.1076 Y25.9175 Z-0.9333 I-0.0005 J0.0
G3 Y25.9167 Z-1.0667 I0.0003 J-0.0004
G3 X29.1084 Y25.9171 Z-1.2 I0.0003 J0.0004
G3 X29.1076 Y25.9175 I-0.0005 J0.0
G3 Y25.9167 I0.0003 J-0.0004
G3 X29.1084 Y25.9171 I0.0003 J0.0004
G0 Z3.0
G0 X29.0412 Y23.8849
G0 Z1.0
G1 F300.0 Z0.0
G3 F800.0 X29.0404 Y23.8853 Z-0.1333 I-0.0005 J0.0
G3 Y23.8845 Z-0.2667 I0.0003 J-0.0004
G3 X29.0412 Y23.8849 Z-0.4 I0.0003 J0.0004
G3 X29.0404 Y23.8853 Z-0.5333 I-0.0005 J0.0
G3 Y23.8845 Z-0.6667 I0.0003 J-0.0004
G3 X29.0412 Y23.8849 Z-0.8 I0.0003 J0.0004
G3 X29.0404 Y23.8853 Z-0.9333 I-0.0005 J0.0
G3 Y23.8845 Z-1.0667 I0.0003 J-0.0004
G3 X29.0412 Y23.8849 Z-1.2 I0.0003 J0.0004
G3 X29.0404 Y23.8853 I-0.0005 J0.0
G3 Y23.8845 I0.0003 J-0.0004
G3 X29.0412 Y23.8849 I0.0003 J0.0004
G0 Z3.0
G0 X27.0189
G0 Z1.0
G1 F300.0 Z0.0
G3 F800.0 X27.0181 Y23.8853 Z-0.1333 I-0.0005 J0.0
G3 Y23.8845 Z-0.2667 I0.0003 J-0.0004
G3 X27.0189 Y23.8849 Z-0.4 I0.0003 J0.0004
G3 X27.0181 Y23.8853 Z-0.5333 I-0.0005 J0.0
G3 Y23.8845 Z-0.6667 I0.0003 J-0.0004
G3 X27.0189 Y23.8849 Z-0.8 I0.0003 J0.0004
G3 X27.0181 Y23.8853 Z-0.9333 I-0.0005 J0.0
G3 Y23.8845 Z-1.0667 I0.0003 J-0.0004
G3 X27.0189 Y23.8849 Z-1.2 I0.0003 J0.0004
G3 X27.0181 Y23.8853 I-0.0005 J0.0
G3 Y23.8845 I0.0003 J-0.0004
G3 X27.0189 Y23.8849 I0.0003 J0.0004
G0 Z3.0
G0 X27.0197 Y21.8531
G0 Z1.0
G1 F300.0 Z0.0
G3 F800.0 X27.019 Y21.8535 Z-0.1333 I-0.0005 J0.0
G3 Y21.8527 Z-0.2667 I0.0003 J-0.0004
G3 X27.0197 Y21.8531 Z-0.4 I0.0003 J0.0004
G3 X27.019 Y21.8535 Z-0.5333 I-0.0005 J0.0
G3 Y21.8527 Z-0.6667 I0.0003 J-0.0004
G3 X27.0197 Y21.8531 Z-0.8 I0.0003 J0.0004
G3 X27.019 Y21.8535 Z-0.9333 I-0.0005 J0.0
G3 Y21.8527 Z-1.0667 I0.0003 J-0.0004
G3 X27.0197 Y21.8531 Z-1.2 I0.0003 J0.0004
G3 X27.019 Y21.8535 I-0.0005 J0.0
G3 Y21.8527 I0.0003 J-0.0004
G3 X27.0197 Y21.8531 I0.0003 J0.0004
G0 Z3.0
G0 X29.0412
G0 Z1.0
G1 F300.0 Z0.0
G3 F800.0 X29.0404 Y21.8535 Z-0.1333 I-0.0005 J0.0
G3 Y21.8527 Z-0.2667 I0.0003 J-0.0004
G3 X29.0412 Y21.8531 Z-0.4 I0.0003 J0.0004
G3 X29.0404 Y21.8535 Z-0.5333 I-0.0005 J0.0
G3 Y21.8527 Z-0.6667 I0.0003 J-0.0004
G3 X29.0412 Y21.8531 Z-0.8 I0.0003 J0.0004
G3 X29.0404 Y21.8535 Z-0.9333 I-0.0005 J0.0
G3 Y21.8527 Z-1.0667 I0.0003 J-0.0004
G3 X29.0412 Y21.8531 Z-1.2 I0.0003 J0.0004
G3 X29.0404 Y21.8535 I-0.0005 J0.0
G3 Y21.8527 I0.0003 J-0.0004
G3 X29.0412 Y21.8531 I0.0003 J0.0004
G0 Z3.0
G0 Y19.8209
G0 Z1.0
G1 F300.0 Z0.0
G3 F800.0 X29.0404 Y19.8213 Z-0.1333 I-0.0005 J0.0
G3 Y19.8205 Z-0.2667 I0.0003 J-0.0004
G3 X29.0412 Y19.8209 Z-0.4 I0.0003 J0.0004
G3 X29.0404 Y19.8213 Z-0.5333 I-0.0005 J0.0
G3 Y19.8205 Z-0.6667 I0.0003 J-0.0004
G3 X29.0412 Y19.8209 Z-0.8 I0.0003 J0.0004
G3 X29.0404 Y19.8213 Z-0.9333 I-0.0005 J0.0
G3 Y19.8205 Z-1.0667 I0.0003 J-0.0004
G3 X29.0412 Y19.8209 Z-1.2 I0.0003 J0.0004
G3 X29.0404 Y19.8213 I-0.0005 J0.0
G3 Y19.8205 I0.0003 J-0.0004
G3 X29.0412 Y19.8209 I0.0003 J0.0004
G0 Z3.0
G0 X27.0162
G0 Z1.0
G1 F300.0 Z0.0
G3 F800.0 X27.0155 Y19.8213 Z-0.1333 I-0.0005 J0.0
G3 Y19.8205 Z-0.2667 I0.0003 J-0.0004
G3 X27.0162 Y19.8209 Z-0.4 I0.0003 J0.0004
G3 X27.0155 Y19.8213 Z-0.5333 I-0.0005 J0.0
G3 Y19.8205 Z-0.6667 I0.0003 J-0.0004
G3 X27.0162 Y19.8209 Z-0.8 I0.0003 J0.0004
G3 X27.0155 Y19.8213 Z-0.9333 I-0.0005 J0.0
G3 Y19.8205 Z-1.0667 I0.0003 J-0.0004
G3 X27.0162 Y19.8209 Z-1.2 I0.0003 J0.0004
G3 X27.0155 Y19.8213 I-0.0005 J0.0
G3 Y19.8205 I0.0003 J-0.0004
G3 X27.0162 Y19.8209 I0.0003 J0.0004
G0 Z3.0
G0 X27.0191 Y17.7889
G0 Z1.0
G1 F300.0 Z0.0
G3 F800.0 X27.0183 Y17.7893 Z-0.1333 I-0.0005 J0.0
G3 Y17.7884 Z-0.2667 I0.0003 J-0.0004
G3 X27.0191 Y17.7889 Z-0.4 I0.0003 J0.0004
G3 X27.0183 Y17.7893 Z-0.5333 I-0.0005 J0.0
G3 Y17.7884 Z-0.6667 I0.0003 J-0.0004
G3 X27.0191 Y17.7889 Z-0.8 I0.0003 J0.0004
G3 X27.0183 Y17.7893 Z-0.9333 I-0.0005 J0.0
G3 Y17.7884 Z-1.0667 I0.0003 J-0.0004
G3 X27.0191 Y17.7889 Z-1.2 I0.0003 J0.0004
G3 X27.0183 Y17.7893 I-0.0005 J0.0
G3 Y17.7884 I0.0003 J-0.0004
G3 X27.0191 Y17.7889 I0.0003 J0.0004
G0 Z3.0
G0 X29.0412
G0 Z1.0
G1 F300.0 Z0.0
G3 F800.0 X29.0404 Y17.7893 Z-0.1333 I-0.0005 J0.0
G3 Y17.7885 Z-0.2667 I0.0003 J-0.0004
G3 X29.0412 Y17.7889 Z-0.4 I0.0003 J0.0004
G3 X29.0404 Y17.7893 Z-0.5333 I-0.0005 J0.0
G3 Y17.7885 Z-0.6667 I0.0003 J-0.0004
G3 X29.0412 Y17.7889 Z-0.8 I0.0003 J0.0004
G3 X29.0404 Y17.7893 Z-0.9333 I-0.0005 J0.0
G3 Y17.7885 Z-1.0667 I0.0003 J-0.0004
G3 X29.0412 Y17.7889 Z-1.2 I0.0003 J0.0004
G3 X29.0404 Y17.7893 I-0.0005 J0.0
G3 Y17.7885 I0.0003 J-0.0004
G3 X29.0412 Y17.7889 I0.0003 J0.0004
G0 Z3.0
G0 X29.0513 Y15.7571
G0 Z1.0
G1 F300.0 Z0.0
G3 F800.0 X29.0506 Y15.7575 Z-0.1333 I-0.0005 J0.0
G3 Y15.7567 Z-0.2667 I0.0003 J-0.0004
G3 X29.0513 Y15.7571 Z-0.4 I0.0003 J0.0004
G3 X29.0506 Y15.7575 Z-0.5333 I-0.0005 J0.0
G3 Y15.7567 Z-0.6667 I0.0003 J-0.0004
G3 X29.0513 Y15.7571 Z-0.8 I0.0003 J0.0004
G3 X29.0506 Y15.7575 Z-0.9333 I-0.0005 J0.0
G3 Y15.7567 Z-1.0667 I0.0003 J-0.0004
G3 X29.0513 Y15.7571 Z-1.2 I0.0003 J0.0004
G3 X29.0506 Y15.7575 I-0.0005 J0.0
G3 Y15.7567 I0.0003 J-0.0004
G3 X29.0513 Y15.7571 I0.0003 J0.0004
G0 Z3.0
G0 X29.0412 Y13.7249
G0 Z1.0
G1 F300.0 Z0.0
G3 F800.0 X29.0404 Y13.7253 Z-0.1333 I-0.0005 J0.0
G3 Y13.7245 Z-0.2667 I0.0003 J-0.0004
G3 X29.0412 Y13.7249 Z-0.4 I0.0003 J0.0004
G3 X29.0404 Y13.7253 Z-0.5333 I-0.0005 J0.0
G3 Y13.7245 Z-0.6667 I0.0003 J-0.0004
G3 X29.0412 Y13.7249 Z-0.8 I0.0003 J0.0004
G3 X29.0404 Y13.7253 Z-0.9333 I-0.0005 J0.0
G3 Y13.7245 Z-1.0667 I0.0003 J-0.0004
G3 X29.0412 Y13.7249 Z-1.2 I0.0003 J0.0004
G3 X29.0404 Y13.7253 I-0.0005 J0.0
G3 Y13.7245 I0.0003 J-0.0004
G3 X29.0412 Y13.7249 I0.0003 J0.0004
G0 Z3.0
G0 Y11.6931
G0 Z1.0
G1 F300.0 Z0.0
G3 F800.0 X29.0404 Y11.6936 Z-0.1333 I-0.0005 J0.0
G3 Y11.6927 Z-0.2667 I0.0003 J-0.0004
G3 X29.0412 Y11.6931 Z-0.4 I0.0003 J0.0004
G3 X29.0404 Y11.6936 Z-0.5333 I-0.0005 J0.0
G3 Y11.6927 Z-0.6667 I0.0003 J-0.0004
G3 X29.0412 Y11.6931 Z-0.8 I0.0003 J0.0004
G3 X29.0404 Y11.6936 Z-0.9333 I-0.0005 J0.0
G3 Y11.6927 Z-1.0667 I0.0003 J-0.0004
G3 X29.0412 Y11.6931 Z-1.2 I0.0003 J0.0004
G3 X29.0404 Y11.6936 I-0.0005 J0.0
G3 Y11.6927 I0.0003 J-0.0004
G3 X29.0412 Y11.6931 I0.0003 J0.0004
G0 Z3.0
G0 X27.0089
G0 Z1.0
G1 F300.0 Z0.0
G3 F800.0 X27.0082 Y11.6936 Z-0.1333 I-0.0005 J0.0
G3 Y11.6927 Z-0.2667 I0.0003 J-0.0004
G3 X27.0089 Y11.6931 Z-0.4 I0.0003 J0.0004
G3 X27.0082 Y11.6936 Z-0.5333 I-0.0005 J0.0
G3 Y11.6927 Z-0.6667 I0.0003 J-0.0004
G3 X27.0089 Y11.6931 Z-0.8 I0.0003 J0.0004
G3 X27.0082 Y11.6936 Z-0.9333 I-0.0005 J0.0
G3 Y11.6927 Z-1.0667 I0.0003 J-0.0004
G3 X27.0089 Y11.6931 Z-1.2 I0.0003 J0.0004
G3 X27.0082 Y11.6936 I-0.0005 J0.0
G3 Y11.6927 I0.0003 J-0.0004
G3 X27.0089 Y11.6931 I0.0003 J0.0004
G0 Z3.0
G0 Y13.7249
G0 Z1.0
G1 F300.0 Z0.0
G3 F800.0 X27.0082 Y13.7253 Z-0.1333 I-0.0005 J0.0
G3 Y13.7245 Z-0.2667 I0.0003 J-0.0004
G3 X27.0089 Y13.7249 Z-0.4 I0.0003 J0.0004
G3 X27.0082 Y13.7253 Z-0.5333 I-0.0005 J0.0
G3 Y13.7245 Z-0.6667 I0.0003 J-0.0004
G3 X27.0089 Y13.7249 Z-0.8 I0.0003 J0.0004
G3 X27.0082 Y13.7253 Z-0.9333 I-0.0005 J0.0
G3 Y13.7245 Z-1.0667 I0.0003 J-0.0004
G3 X27.0089 Y13.7249 Z-1.2 I0.0003 J0.0004
G3 X27.0082 Y13.7253 I-0.0005 J0.0
G3 Y13.7245 I0.0003 J-0.0004
G3 X27.0089 Y13.7249 I0.0003 J0.0004
G0 Z3.0
G0 X26.9986 Y15.7571
G0 Z1.0
G1 F300.0 Z0.0
G3 F800.0 X26.9978 Y15.7575 Z-0.1333 I-0.0005 J0.0
G3 Y15.7567 Z-0.2667 I0.0003 J-0.0004
G3 X26.9986 Y15.7571 Z-0.4 I0.0003 J0.0004
G3 X26.9978 Y15.7575 Z-0.5333 I-0.0005 J0.0
G3 Y15.7567 Z-0.6667 I0.0003 J-0.0004
G3 X26.9986 Y15.7571 Z-0.8 I0.0003 J0.0004
G3 X26.9978 Y15.7575 Z-0.9333 I-0.0005 J0.0
G3 Y15.7567 Z-1.0667 I0.0003 J-0.0004
G3 X26.9986 Y15.7571 Z-1.2 I0.0003 J0.0004
G3 X26.9978 Y15.7575 I-0.0005 J0.0
G3 Y15.7567 I0.0003 J-0.0004
G3 X26.9986 Y15.7571 I0.0003 J0.0004
G0 Z3.0
G0 X32.0027 Y16.9398
G0 Z1.0
G1 F300.0 Z0.0
G3 F800.0 X32.002 Y16.9402 Z-0.1333 I-0.0005 J0.0
G3 Y16.9394 Z-0.2667 I0.0003 J-0.0004
G3 X32.0027 Y16.9398 Z-0.4 I0.0003 J0.0004
G3 X32.002 Y16.9402 Z-0.5333 I-0.0005 J0.0
G3 Y16.9394 Z-0.6667 I0.0003 J-0.0004
G3 X32.0027 Y16.9398 Z-0.8 I0.0003 J0.0004
G3 X32.002 Y16.9402 Z-0.9333 I-0.0005 J0.0
G3 Y16.9394 Z-1.0667 I0.0003 J-0.0004
G3 X32.0027 Y16.9398 Z-1.2 I0.0003 J0.0004
G3 X32.002 Y16.9402 I-0.0005 J0.0
G3 Y16.9394 I0.0003 J-0.0004
G3 X32.0027 Y16.9398 I0.0003 J0.0004
G0 Z3.0
G0 X33.7664 Y19.6099
G0 Z1.0
G1 F300.0 Z0.0
G3 F800.0 X33.7656 Y19.6103 Z-0.1333 I-0.0005 J0.0
G3 Y19.6095 Z-0.2667 I0.0003 J-0.0004
G3 X33.7664 Y19.6099 Z-0.4 I0.0003 J0.0004
G3 X33.7656 Y19.6103 Z-0.5333 I-0.0005 J0.0
G3 Y19.6095 Z-0.6667 I0.0003 J-0.0004
G3 X33.7664 Y19.6099 Z-0.8 I0.0003 J0.0004
G3 X33.7656 Y19.6103 Z-0.9333 I-0.0005 J0.0
G3 Y19.6095 Z-1.0667 I0.0003 J-0.0004
G3 X33.7664 Y19.6099 Z-1.2 I0.0003 J0.0004
G3 X33.7656 Y19.6103 I-0.0005 J0.0
G3 Y19.6095 I0.0003 J-0.0004
G3 X33.7664 Y19.6099 I0.0003 J0.0004
G0 Z3.0
G0 X35.7137 Y19.691
G0 Z1.0
G1 F300.0 Z0.0
G3 F800.0 X35.713 Y19.6915 Z-0.1333 I-0.0005 J0.0
G3 Y19.6906 Z-0.2667 I0.0003 J-0.0004
G3 X35.7137 Y19.691 Z-0.4 I0.0003 J0.0004
G3 X35.713 Y19.6915 Z-0.5333 I-0.0005 J0.0
G3 Y19.6906 Z-0.6667 I0.0003 J-0.0004
G3 X35.7137 Y19.691 Z-0.8 I0.0003 J0.0004
G3 X35.713 Y19.6915 Z-0.9333 I-0.0005 J0.0
G3 Y19.6906 Z-1.0667 I0.0003 J-0.0004
G3 X35.7137 Y19.691 Z-1.2 I0.0003 J0.0004
G3 X35.713 Y19.6915 I-0.0005 J0.0
G3 Y19.6906 I0.0003 J-0.0004
G3 X35.7137 Y19.691 I0.0003 J0.0004
G0 Z3.0
G0 X35.6385 Y25.6854
G0 Z1.0
G1 F300.0 Z0.0
G3 F800.0 X35.6378 Y25.6858 Z-0.1333 I-0.0005 J0.0
G3 Y25.685 Z-0.2667 I0.0003 J-0.0004
G3 X35.6385 Y25.6854 Z-0.4 I0.0003 J0.0004
G3 X35.6378 Y25.6858 Z-0.5333 I-0.0005 J0.0
G3 Y25.685 Z-0.6667 I0.0003 J-0.0004
G3 X35.6385 Y25.6854 Z-0.8 I0.0003 J0.0004
G3 X35.6378 Y25.6858 Z-0.9333 I-0.0005 J0.0
G3 Y25.685 Z-1.0667 I0.0003 J-0.0004
G3 X35.6385 Y25.6854 Z-1.2 I0.0003 J0.0004
G3 X35.6378 Y25.6858 I-0.0005 J0.0
G3 Y25.685 I0.0003 J-0.0004
G3 X35.6385 Y25.6854 I0.0003 J0.0004
G0 Z3.0
G0 X33.6936 Y25.7057
G0 Z1.0
G1 F300.0 Z0.0
G3 F800.0 X33.6929 Y25.7061 Z-0.1333 I-0.0005 J0.0
G3 Y25.7052 Z-0.2667 I0.0003 J-0.0004
G3 X33.6936 Y25.7057 Z-0.4 I0.0003 J0.0004
G3 X33.6929 Y25.7061 Z-0.5333 I-0.0005 J0.0
G3 Y25.7052 Z-0.6667 I0.0003 J-0.0004
G3 X33.6936 Y25.7057 Z-0.8 I0.0003 J0.0004
G3 X33.6929 Y25.7061 Z-0.9333 I-0.0005 J0.0
G3 Y25.7052 Z-1.0667 I0.0003 J-0.0004
G3 X33.6936 Y25.7057 Z-1.2 I0.0003 J0.0004
G3 X33.6929 Y25.7061 I-0.0005 J0.0
G3 Y25.7052 I0.0003 J-0.0004
G3 X33.6936 Y25.7057 I0.0003 J0.0004
G0 Z3.0
G0 X26.943 Y25.9171
G0 Z1.0
G1 F300.0 Z0.0
G3 F800.0 X26.9422 Y25.9176 Z-0.1333 I-0.0005 J0.0
G3 Y25.9167 Z-0.2667 I0.0003 J-0.0004
G3 X26.943 Y25.9171 Z-0.4 I0.0003 J0.0004
G3 X26.9422 Y25.9176 Z-0.5333 I-0.0005 J0.0
G3 Y25.9167 Z-0.6667 I0.0003 J-0.0004
G3 X26.943 Y25.9171 Z-0.8 I0.0003 J0.0004
G3 X26.9422 Y25.9176 Z-0.9333 I-0.0005 J0.0
G3 Y25.9167 Z-1.0667 I0.0003 J-0.0004
G3 X26.943 Y25.9171 Z-1.2 I0.0003 J0.0004
G3 X26.9422 Y25.9176 I-0.0005 J0.0
G3 Y25.9167 I0.0003 J-0.0004
G3 X26.943 Y25.9171 I0.0003 J0.0004
G0 Z3.0
G0 X31.4416 Y35.9898
G0 Z1.0
G1 F300.0 Z0.0
G3 F800.0 X31.4408 Y35.9902 Z-0.1333 I-0.0005 J0.0
G3 Y35.9894 Z-0.2667 I0.0002 J-0.0004
G3 X31.4416 Y35.9898 Z-0.4 I0.0003 J0.0004
G3 X31.4408 Y35.9902 Z-0.5333 I-0.0005 J0.0
G3 Y35.9894 Z-0.6667 I0.0002 J-0.0004
G3 X31.4416 Y35.9898 Z-0.8 I0.0003 J0.0004
G3 X31.4408 Y35.9902 Z-0.9333 I-0.0005 J0.0
G3 Y35.9894 Z-1.0667 I0.0002 J-0.0004
G3 X31.4416 Y35.9898 Z-1.2 I0.0003 J0.0004
G3 X31.4408 Y35.9902 I-0.0005 J0.0
G3 Y35.9894 I0.0002 J-0.0004
G3 X31.4416 Y35.9898 I0.0003 J0.0004
G0 Z3.0
G0 X37.5341 Y36.0718
G0 Z1.0
G1 F300.0 Z0.0
G3 F800.0 X37.5333 Y36.0723 Z-0.1333 I-0.0005 J0.0
G3 Y36.0714 Z-0.2667 I0.0003 J-0.0004
G3 X37.5341 Y36.0718 Z-0.4 I0.0003 J0.0004
G3 X37.5333 Y36.0723 Z-0.5333 I-0.0005 J0.0
G3 Y36.0714 Z-0.6667 I0.0003 J-0.0004
G3 X37.5341 Y36.0718 Z-0.8 I0.0003 J0.0004
G3 X37.5333 Y36.0723 Z-0.9333 I-0.0005 J0.0
G3 Y36.0714 Z-1.0667 I0.0003 J-0.0004
G3 X37.5341 Y36.0718 Z-1.2 I0.0003 J0.0004
G3 X37.5333 Y36.0723 I-0.0005 J0.0
G3 Y36.0714 I0.0003 J-0.0004
G3 X37.5341 Y36.0718 I0.0003 J0.0004
G0 Z3.0
G0 X46.8119 Y36.0866
G0 Z1.0
G1 F300.0 Z0.0
G3 F800.0 X46.8111 Y36.087 Z-0.1333 I-0.0005 J0.0
G3 Y36.0862 Z-0.2667 I0.0003 J-0.0004
G3 X46.8119 Y36.0866 Z-0.4 I0.0003 J0.0004
G3 X46.8111 Y36.087 Z-0.5333 I-0.0005 J0.0
G3 Y36.0862 Z-0.6667 I0.0003 J-0.0004
G3 X46.8119 Y36.0866 Z-0.8 I0.0003 J0.0004
G3 X46.8111 Y36.087 Z-0.9333 I-0.0005 J0.0
G3 Y36.0862 Z-1.0667 I0.0003 J-0.0004
G3 X46.8119 Y36.0866 Z-1.2 I0.0003 J0.0004
G3 X46.8111 Y36.087 I-0.0005 J0.0
G3 Y36.0862 I0.0003 J-0.0004
G3 X46.8119 Y36.0866 I0.0003 J0.0004
G0 Z3.0
G0 Y38.1184
G0 Z1.0
G1 F300.0 Z0.0
G3 F800.0 X46.8111 Y38.1188 Z-0.1333 I-0.0005 J0.0
G3 Y38.1179 Z-0.2667 I0.0003 J-0.0004
G3 X46.8119 Y38.1184 Z-0.4 I0.0003 J0.0004
G3 X46.8111 Y38.1188 Z-0.5333 I-0.0005 J0.0
G3 Y38.1179 Z-0.6667 I0.0003 J-0.0004
G3 X46.8119 Y38.1184 Z-0.8 I0.0003 J0.0004
G3 X46.8111 Y38.1188 Z-0.9333 I-0.0005 J0.0
G3 Y38.1179 Z-1.0667 I0.0003 J-0.0004
G3 X46.8119 Y38.1184 Z-1.2 I0.0003 J0.0004
G3 X46.8111 Y38.1188 I-0.0005 J0.0
G3 Y38.1179 I0.0003 J-0.0004
G3 X46.8119 Y38.1184 I0.0003 J0.0004
G0 Z3.0
G0 X48.8437
G0 Z1.0
G1 F300.0 Z0.0
G3 F800.0 X48.8429 Y38.1188 Z-0.1333 I-0.0005 J0.0
G3 Y38.1179 Z-0.2667 I0.0003 J-0.0004
G3 X48.8437 Y38.1184 Z-0.4 I0.0003 J0.0004
G3 X48.8429 Y38.1188 Z-0.5333 I-0.0005 J0.0
G3 Y38.1179 Z-0.6667 I0.0003 J-0.0004
G3 X48.8437 Y38.1184 Z-0.8 I0.0003 J0.0004
G3 X48.8429 Y38.1188 Z-0.9333 I-0.0005 J0.0
G3 Y38.1179 Z-1.0667 I0.0003 J-0.0004
G3 X48.8437 Y38.1184 Z-1.2 I0.0003 J0.0004
G3 X48.8429 Y38.1188 I-0.0005 J0.0
G3 Y38.1179 I0.0003 J-0.0004
G3 X48.8437 Y38.1184 I0.0003 J0.0004
G0 Z3.0
G0 Y36.0866
G0 Z1.0
G1 F300.0 Z0.0
G3 F800.0 X48.8429 Y36.087 Z-0.1333 I-0.0005 J0.0
G3 Y36.0862 Z-0.2667 I0.0003 J-0.0004
G3 X48.8437 Y36.0866 Z-0.4 I0.0003 J0.0004
G3 X48.8429 Y36.087 Z-0.5333 I-0.0005 J0.0
G3 Y36.0862 Z-0.6667 I0.0003 J-0.0004
G3 X48.8437 Y36.0866 Z-0.8 I0.0003 J0.0004
G3 X48.8429 Y36.087 Z-0.9333 I-0.0005 J0.0
G3 Y36.0862 Z-1.0667 I0.0003 J-0.0004
G3 X48.8437 Y36.0866 Z-1.2 I0.0003 J0.0004
G3 X48.8429 Y36.087 I-0.0005 J0.0
G3 Y36.0862 I0.0003 J-0.0004
G3 X48.8437 Y36.0866 I0.0003 J0.0004
G0 Z3.0
G0 Y34.0544
G0 Z1.0
G1 F300.0 Z0.0
G3 F800.0 X48.8429 Y34.0548 Z-0.1333 I-0.0005 J0.0
G3 Y34.0539 Z-0.2667 I0.0003 J-0.0004
G3 X48.8437 Y34.0544 Z-0.4 I0.0003 J0.0004
G3 X48.8429 Y34.0548 Z-0.5333 I-0.0005 J0.0
G3 Y34.0539 Z-0.6667 I0.0003 J-0.0004
G3 X48.8437 Y34.0544 Z-0.8 I0.0003 J0.0004
G3 X48.8429 Y34.0548 Z-0.9333 I-0.0005 J0.0
G3 Y34.0539 Z-1.0667 I0.0003 J-0.0004
G3 X48.8437 Y34.0544 Z-1.2 I0.0003 J0.0004
G3 X48.8429 Y34.0548 I-0.0005 J0.0
G3 Y34.0539 I0.0003 J-0.0004
G3 X48.8437 Y34.0544 I0.0003 J0.0004
G0 Z3.0
G0 Y32.0226
G0 Z1.0
G1 F300.0 Z0.0
G3 F800.0 X48.8429 Y32.023 Z-0.1333 I-0.0005 J0.0
G3 Y32.0222 Z-0.2667 I0.0003 J-0.0004
G3 X48.8437 Y32.0226 Z-0.4 I0.0003 J0.0004
G3 X48.8429 Y32.023 Z-0.5333 I-0.0005 J0.0
G3 Y32.0222 Z-0.6667 I0.0003 J-0.0004
G3 X48.8437 Y32.0226 Z-0.8 I0.0003 J0.0004
G3 X48.8429 Y32.023 Z-0.9333 I-0.0005 J0.0
G3 Y32.0222 Z-1.0667 I0.0003 J-0.0004
G3 X48.8437 Y32.0226 Z-1.2 I0.0003 J0.0004
G3 X48.8429 Y32.023 I-0.0005 J0.0
G3 Y32.0222 I0.0003 J-0.0004
G3 X48.8437 Y32.0226 I0.0003 J0.0004
G0 Z3.0
G0 X46.8119
G0 Z1.0
G1 F300.0 Z0.0
G3 F800.0 X46.8111 Y32.023 Z-0.1333 I-0.0005 J0.0
G3 Y32.0222 Z-0.2667 I0.0003 J-0.0004
G3 X46.8119 Y32.0226 Z-0.4 I0.0003 J0.0004
G3 X46.8111 Y32.023 Z-0.5333 I-0.0005 J0.0
G3 Y32.0222 Z-0.6667 I0.0003 J-0.0004
G3 X46.8119 Y32.0226 Z-0.8 I0.0003 J0.0004
G3 X46.8111 Y32.023 Z-0.9333 I-0.0005 J0.0
G3 Y32.0222 Z-1.0667 I0.0003 J-0.0004
G3 X46.8119 Y32.0226 Z-1.2 I0.0003 J0.0004
G3 X46.8111 Y32.023 I-0.0005 J0.0
G3 Y32.0222 I0.0003 J-0.0004
G3 X46.8119 Y32.0226 I0.0003 J0.0004
G0 Z3.0
G0 Y34.0544
G0 Z1.0
G1 F300.0 Z0.0
G3 F800.0 X46.8111 Y34.0548 Z-0.1333 I-0.0005 J0.0
G3 Y34.0539 Z-0.2667 I0.0003 J-0.0004
G3 X46.8119 Y34.0544 Z-0.4 I0.0003 J0.0004
G3 X46.8111 Y34.0548 Z-0.5333 I-0.0005 J0.0
G3 Y34.0539 Z-0.6667 I0.0003 J-0.0004
G3 X46.8119 Y34.0544 Z-0.8 I0.0003 J0.0004
G3 X46.8111 Y34.0548 Z-0.9333 I-0.0005 J0.0
G3 Y34.0539 Z-1.0667 I0.0003 J-0.0004
G3 X46.8119 Y34.0544 Z-1.2 I0.0003 J0.0004
G3 X46.8111 Y34.0548 I-0.0005 J0.0
G3 Y34.0539 I0.0003 J-0.0004
G3 X46.8119 Y34.0544 I0.0003 J0.0004
G0 Z3.0
G0 Y29.9906
G0 Z1.0
G1 F300.0 Z0.0
G3 F800.0 X46.8111 Y29.991 Z-0.1333 I-0.0005 J0.0
G3 Y29.9902 Z-0.2667 I0.0003 J-0.0004
G3 X46.8119 Y29.9906 Z-0.4 I0.0003 J0.0004
G3 X46.8111 Y29.991 Z-0.5333 I-0.0005 J0.0
G3 Y29.9902 Z-0.6667 I0.0003 J-0.0004
G3 X46.8119 Y29.9906 Z-0.8 I0.0003 J0.0004
G3 X46.8111 Y29.991 Z-0.9333 I-0.0005 J0.0
G3 Y29.9902 Z-1.0667 I0.0003 J-0.0004
G3 X46.8119 Y29.9906 Z-1.2 I0.0003 J0.0004
G3 X46.8111 Y29.991 I-0.0005 J0.0
G3 Y29.9902 I0.0003 J-0.0004
G3 X46.8119 Y29.9906 I0.0003 J0.0004
G0 Z3.0
G0 X48.8437
G0 Z1.0
G1 F300.0 Z0.0
G3 F800.0 X48.8429 Y29.991 Z-0.1333 I-0.0005 J0.0
G3 Y29.9902 Z-0.2667 I0.0003 J-0.0004
G3 X48.8437 Y29.9906 Z-0.4 I0.0003 J0.0004
G3 X48.8429 Y29.991 Z-0.5333 I-0.0005 J0.0
G3 Y29.9902 Z-0.6667 I0.0003 J-0.0004
G3 X48.8437 Y29.9906 Z-0.8 I0.0003 J0.0004
G3 X48.8429 Y29.991 Z-0.9333 I-0.0005 J0.0
G3 Y29.9902 Z-1.0667 I0.0003 J-0.0004
G3 X48.8437 Y29.9906 Z-1.2 I0.0003 J0.0004
G3 X48.8429 Y29.991 I-0.0005 J0.0
G3 Y29.9902 I0.0003 J-0.0004
G3 X48.8437 Y29.9906 I0.0003 J0.0004
G0 Z3.0
G0 Y27.9584
G0 Z1.0
G1 F300.0 Z0.0
G3 F800.0 X48.8429 Y27.9588 Z-0.1333 I-0.0005 J0.0
G3 Y27.9579 Z-0.2667 I0.0003 J-0.0004
G3 X48.8437 Y27.9584 Z-0.4 I0.0003 J0.0004
G3 X48.8429 Y27.9588 Z-0.5333 I-0.0005 J0.0
G3 Y27.9579 Z-0.6667 I0.0003 J-0.0004
G3 X48.8437 Y27.9584 Z-0.8 I0.0003 J0.0004
G3 X48.8429 Y27.9588 Z-0.9333 I-0.0005 J0.0
G3 Y27.9579 Z-1.0667 I0.0003 J-0.0004
G3 X48.8437 Y27.9584 Z-1.2 I0.0003 J0.0004
G3 X48.8429 Y27.9588 I-0.0005 J0.0
G3 Y27.9579 I0.0003 J-0.0004
G3 X48.8437 Y27.9584 I0.0003 J0.0004
G0 Z3.0
G0 X46.8119
G0 Z1.0
G1 F300.0 Z0.0
G3 F800.0 X46.8111 Y27.9588 Z-0.1333 I-0.0005 J0.0
G3 Y27.9579 Z-0.2667 I0.0003 J-0.0004
G3 X46.8119 Y27.9584 Z-0.4 I0.0003 J0.0004
G3 X46.8111 Y27.9588 Z-0.5333 I-0.0005 J0.0
G3 Y27.9579 Z-0.6667 I0.0003 J-0.0004
G3 X46.8119 Y27.9584 Z-0.8 I0.0003 J0.0004
G3 X46.8111 Y27.9588 Z-0.9333 I-0.0005 J0.0
G3 Y27.9579 Z-1.0667 I0.0003 J-0.0004
G3 X46.8119 Y27.9584 Z-1.2 I0.0003 J0.0004
G3 X46.8111 Y27.9588 I-0.0005 J0.0
G3 Y27.9579 I0.0003 J-0.0004
G3 X46.8119 Y27.9584 I0.0003 J0.0004
G0 Z3.0
G0 Y25.9266
G0 Z1.0
G1 F300.0 Z0.0
G3 F800.0 X46.8111 Y25.927 Z-0.1333 I-0.0005 J0.0
G3 Y25.9262 Z-0.2667 I0.0003 J-0.0004
G3 X46.8119 Y25.9266 Z-0.4 I0.0003 J0.0004
G3 X46.8111 Y25.927 Z-0.5333 I-0.0005 J0.0
G3 Y25.9262 Z-0.6667 I0.0003 J-0.0004
G3 X46.8119 Y25.9266 Z-0.8 I0.0003 J0.0004
G3 X46.8111 Y25.927 Z-0.9333 I-0.0005 J0.0
G3 Y25.9262 Z-1.0667 I0.0003 J-0.0004
G3 X46.8119 Y25.9266 Z-1.2 I0.0003 J0.0004
G3 X46.8111 Y25.927 I-0.0005 J0.0
G3 Y25.9262 I0.0003 J-0.0004
G3 X46.8119 Y25.9266 I0.0003 J0.0004
G0 Z3.0
G0 X48.8437
G0 Z1.0
G1 F300.0 Z0.0
G3 F800.0 X48.8429 Y25.927 Z-0.1333 I-0.0005 J0.0
G3 Y25.9262 Z-0.2667 I0.0003 J-0.0004
G3 X48.8437 Y25.9266 Z-0.4 I0.0003 J0.0004
G3 X48.8429 Y25.927 Z-0.5333 I-0.0005 J0.0
G3 Y25.9262 Z-0.6667 I0.0003 J-0.0004
G3 X48.8437 Y25.9266 Z-0.8 I0.0003 J0.0004
G3 X48.8429 Y25.927 Z-0.9333 I-0.0005 J0.0
G3 Y25.9262 Z-1.0667 I0.0003 J-0.0004
G3 X48.8437 Y25.9266 Z-1.2 I0.0003 J0.0004
G3 X48.8429 Y25.927 I-0.0005 J0.0
G3 Y25.9262 I0.0003 J-0.0004
G3 X48.8437 Y25.9266 I0.0003 J0.0004
G0 Z3.0
G0 Y23.8944
G0 Z1.0
G1 F300.0 Z0.0
G3 F800.0 X48.8429 Y23.8948 Z-0.1333 I-0.0005 J0.0
G3 Y23.8939 Z-0.2667 I0.0003 J-0.0004
G3 X48.8437 Y23.8944 Z-0.4 I0.0003 J0.0004
G3 X48.8429 Y23.8948 Z-0.5333 I-0.0005 J0.0
G3 Y23.8939 Z-0.6667 I0.0003 J-0.0004
G3 X48.8437 Y23.8944 Z-0.8 I0.0003 J0.0004
G3 X48.8429 Y23.8948 Z-0.9333 I-0.0005 J0.0
G3 Y23.8939 Z-1.0667 I0.0003 J-0.0004
G3 X48.8437 Y23.8944 Z-1.2 I0.0003 J0.0004
G3 X48.8429 Y23.8948 I-0.0005 J0.0
G3 Y23.8939 I0.0003 J-0.0004
G3 X48.8437 Y23.8944 I0.0003 J0.0004
G0 Z3.0
G0 Y21.8626
G0 Z1.0
G1 F300.0 Z0.0
G3 F800.0 X48.8429 Y21.863 Z-0.1333 I-0.0005 J0.0
G3 Y21.8622 Z-0.2667 I0.0003 J-0.0004
G3 X48.8437 Y21.8626 Z-0.4 I0.0003 J0.0004
G3 X48.8429 Y21.863 Z-0.5333 I-0.0005 J0.0
G3 Y21.8622 Z-0.6667 I0.0003 J-0.0004
G3 X48.8437 Y21.8626 Z-0.8 I0.0003 J0.0004
G3 X48.8429 Y21.863 Z-0.9333 I-0.0005 J0.0
G3 Y21.8622 Z-1.0667 I0.0003 J-0.0004
G3 X48.8437 Y21.8626 Z-1.2 I0.0003 J0.0004
G3 X48.8429 Y21.863 I-0.0005 J0.0
G3 Y21.8622 I0.0003 J-0.0004
G3 X48.8437 Y21.8626 I0.0003 J0.0004
G0 Z3.0
G0 X46.8119
G0 Z1.0
G1 F300.0 Z0.0
G3 F800.0 X46.8111 Y21.863 Z-0.1333 I-0.0005 J0.0
G3 Y21.8622 Z-0.2667 I0.0003 J-0.0004
G3 X46.8119 Y21.8626 Z-0.4 I0.0003 J0.0004
G3 X46.8111 Y21.863 Z-0.5333 I-0.0005 J0.0
G3 Y21.8622 Z-0.6667 I0.0003 J-0.0004
G3 X46.8119 Y21.8626 Z-0.8 I0.0003 J0.0004
G3 X46.8111 Y21.863 Z-0.9333 I-0.0005 J0.0
G3 Y21.8622 Z-1.0667 I0.0003 J-0.0004
G3 X46.8119 Y21.8626 Z-1.2 I0.0003 J0.0004
G3 X46.8111 Y21.863 I-0.0005 J0.0
G3 Y21.8622 I0.0003 J-0.0004
G3 X46.8119 Y21.8626 I0.0003 J0.0004
G0 Z3.0
G0 Y23.8944
G0 Z1.0
G1 F300.0 Z0.0
G3 F800.0 X46.8111 Y23.8948 Z-0.1333 I-0.0005 J0.0
G3 Y23.8939 Z-0.2667 I0.0003 J-0.0004
G3 X46.8119 Y23.8944 Z-0.4 I0.0003 J0.0004
G3 X46.8111 Y23.8948 Z-0.5333 I-0.0005 J0.0
G3 Y23.8939 Z-0.6667 I0.0003 J-0.0004
G3 X46.8119 Y23.8944 Z-0.8 I0.0003 J0.0004
G3 X46.8111 Y23.8948 Z-0.9333 I-0.0005 J0.0
G3 Y23.8939 Z-1.0667 I0.0003 J-0.0004
G3 X46.8119 Y23.8944 Z-1.2 I0.0003 J0.0004
G3 X46.8111 Y23.8948 I-0.0005 J0.0
G3 Y23.8939 I0.0003 J-0.0004
G3 X46.8119 Y23.8944 I0.0003 J0.0004
G0 Z3.0
G0 X46.8013 Y19.8306
G0 Z1.0
G1 F300.0 Z0.0
G3 F800.0 X46.8005 Y19.831 Z-0.1333 I-0.0005 J0.0
G3 Y19.8302 Z-0.2667 I0.0003 J-0.0004
G3 X46.8013 Y19.8306 Z-0.4 I0.0003 J0.0004
G3 X46.8005 Y19.831 Z-0.5333 I-0.0005 J0.0
G3 Y19.8302 Z-0.6667 I0.0003 J-0.0004
G3 X46.8013 Y19.8306 Z-0.8 I0.0003 J0.0004
G3 X46.8005 Y19.831 Z-0.9333 I-0.0005 J0.0
G3 Y19.8302 Z-1.0667 I0.0003 J-0.0004
G3 X46.8013 Y19.8306 Z-1.2 I0.0003 J0.0004
G3 X46.8005 Y19.831 I-0.0005 J0.0
G3 Y19.8302 I0.0003 J-0.0004
G3 X46.8013 Y19.8306 I0.0003 J0.0004
G0 Z3.0
G0 X46.8119 Y17.7984
G0 Z1.0
G1 F300.0 Z0.0
G3 F800.0 X46.8111 Y17.7988 Z-0.1333 I-0.0005 J0.0
G3 Y17.7979 Z-0.2667 I0.0003 J-0.0004
G3 X46.8119 Y17.7984 Z-0.4 I0.0003 J0.0004
G3 X46.8111 Y17.7988 Z-0.5333 I-0.0005 J0.0
G3 Y17.7979 Z-0.6667 I0.0003 J-0.0004
G3 X46.8119 Y17.7984 Z-0.8 I0.0003 J0.0004
G3 X46.8111 Y17.7988 Z-0.9333 I-0.0005 J0.0
G3 Y17.7979 Z-1.0667 I0.0003 J-0.0004
G3 X46.8119 Y17.7984 Z-1.2 I0.0003 J0.0004
G3 X46.8111 Y17.7988 I-0.0005 J0.0
G3 Y17.7979 I0.0003 J-0.0004
G3 X46.8119 Y17.7984 I0.0003 J0.0004
G0 Z3.0
G0 Y15.7666
G0 Z1.0
G1 F300.0 Z0.0
G3 F800.0 X46.8111 Y15.767 Z-0.1333 I-0.0005 J0.0
G3 Y15.7662 Z-0.2667 I0.0003 J-0.0004
G3 X46.8119 Y15.7666 Z-0.4 I0.0003 J0.0004
G3 X46.8111 Y15.767 Z-0.5333 I-0.0005 J0.0
G3 Y15.7662 Z-0.6667 I0.0003 J-0.0004
G3 X46.8119 Y15.7666 Z-0.8 I0.0003 J0.0004
G3 X46.8111 Y15.767 Z-0.9333 I-0.0005 J0.0
G3 Y15.7662 Z-1.0667 I0.0003 J-0.0004
G3 X46.8119 Y15.7666 Z-1.2 I0.0003 J0.0004
G3 X46.8111 Y15.767 I-0.0005 J0.0
G3 Y15.7662 I0.0003 J-0.0004
G3 X46.8119 Y15.7666 I0.0003 J0.0004
G0 Z3.0
G0 X48.8437
G0 Z1.0
G1 F300.0 Z0.0
G3 F800.0 X48.8429 Y15.767 Z-0.1333 I-0.0005 J0.0
G3 Y15.7662 Z-0.2667 I0.0003 J-0.0004
G3 X48.8437 Y15.7666 Z-0.4 I0.0003 J0.0004
G3 X48.8429 Y15.767 Z-0.5333 I-0.0005 J0.0
G3 Y15.7662 Z-0.6667 I0.0003 J-0.0004
G3 X48.8437 Y15.7666 Z-0.8 I0.0003 J0.0004
G3 X48.8429 Y15.767 Z-0.9333 I-0.0005 J0.0
G3 Y15.7662 Z-1.0667 I0.0003 J-0.0004
G3 X48.8437 Y15.7666 Z-1.2 I0.0003 J0.0004
G3 X48.8429 Y15.767 I-0.0005 J0.0
G3 Y15.7662 I0.0003 J-0.0004
G3 X48.8437 Y15.7666 I0.0003 J0.0004
G0 Z3.0
G0 Y17.7984
G0 Z1.0
G1 F300.0 Z0.0
G3 F800.0 X48.8429 Y17.7988 Z-0.1333 I-0.0005 J0.0
G3 Y17.7979 Z-0.2667 I0.0003 J-0.0004
G3 X48.8437 Y17.7984 Z-0.4 I0.0003 J0.0004
G3 X48.8429 Y17.7988 Z-0.5333 I-0.0005 J0.0
G3 Y17.7979 Z-0.6667 I0.0003 J-0.0004
G3 X48.8437 Y17.7984 Z-0.8 I0.0003 J0.0004
G3 X48.8429 Y17.7988 Z-0.9333 I-0.0005 J0.0
G3 Y17.7979 Z-1.0667 I0.0003 J-0.0004
G3 X48.8437 Y17.7984 Z-1.2 I0.0003 J0.0004
G3 X48.8429 Y17.7988 I-0.0005 J0.0
G3 Y17.7979 I0.0003 J-0.0004
G3 X48.8437 Y17.7984 I0.0003 J0.0004
G0 Z3.0
G0 X48.854 Y19.8306
G0 Z1.0
G1 F300.0 Z0.0
G3 F800.0 X48.8533 Y19.831 Z-0.1333 I-0.0005 J0.0
G3 Y19.8302 Z-0.2667 I0.0003 J-0.0004
G3 X48.854 Y19.8306 Z-0.4 I0.0003 J0.0004
G3 X48.8533 Y19.831 Z-0.5333 I-0.0005 J0.0
G3 Y19.8302 Z-0.6667 I0.0003 J-0.0004
G3 X48.854 Y19.8306 Z-0.8 I0.0003 J0.0004
G3 X48.8533 Y19.831 Z-0.9333 I-0.0005 J0.0
G3 Y19.8302 Z-1.0667 I0.0003 J-0.0004
G3 X48.854 Y19.8306 Z-1.2 I0.0003 J0.0004
G3 X48.8533 Y19.831 I-0.0005 J0.0
G3 Y19.8302 I0.0003 J-0.0004
G3 X48.854 Y19.8306 I0.0003 J0.0004
G0 Z3.0
G0 X48.8437 Y13.7344
G0 Z1.0
G1 F300.0 Z0.0
G3 F800.0 X48.8429 Y13.7348 Z-0.1333 I-0.0005 J0.0
G3 Y13.7339 Z-0.2667 I0.0003 J-0.0004
G3 X48.8437 Y13.7344 Z-0.4 I0.0003 J0.0004
G3 X48.8429 Y13.7348 Z-0.5333 I-0.0005 J0.0
G3 Y13.7339 Z-0.6667 I0.0003 J-0.0004
G3 X48.8437 Y13.7344 Z-0.8 I0.0003 J0.0004
G3 X48.8429 Y13.7348 Z-0.9333 I-0.0005 J0.0
G3 Y13.7339 Z-1.0667 I0.0003 J-0.0004
G3 X48.8437 Y13.7344 Z-1.2 I0.0003 J0.0004
G3 X48.8429 Y13.7348 I-0.0005 J0.0
G3 Y13.7339 I0.0003 J-0.0004
G3 X48.8437 Y13.7344 I0.0003 J0.0004
G0 Z3.0
G0 X46.8119
G0 Z1.0
G1 F300.0 Z0.0
G3 F800.0 X46.8111 Y13.7348 Z-0.1333 I-0.0005 J0.0
G3 Y13.7339 Z-0.2667 I0.0003 J-0.0004
G3 X46.8119 Y13.7344 Z-0.4 I0.0003 J0.0004
G3 X46.8111 Y13.7348 Z-0.5333 I-0.0005 J0.0
G3 Y13.7339 Z-0.6667 I0.0003 J-0.0004
G3 X46.8119 Y13.7344 Z-0.8 I0.0003 J0.0004
G3 X46.8111 Y13.7348 Z-0.9333 I-0.0005 J0.0
G3 Y13.7339 Z-1.0667 I0.0003 J-0.0004
G3 X46.8119 Y13.7344 Z-1.2 I0.0003 J0.0004
G3 X46.8111 Y13.7348 I-0.0005 J0.0
G3 Y13.7339 I0.0003 J-0.0004
G3 X46.8119 Y13.7344 I0.0003 J0.0004
G0 Z3.0
G0 Y11.7026
G0 Z1.0
G1 F300.0 Z0.0
G3 F800.0 X46.8111 Y11.703 Z-0.1333 I-0.0005 J0.0
G3 Y11.7022 Z-0.2667 I0.0003 J-0.0004
G3 X46.8119 Y11.7026 Z-0.4 I0.0003 J0.0004
G3 X46.8111 Y11.703 Z-0.5333 I-0.0005 J0.0
G3 Y11.7022 Z-0.6667 I0.0003 J-0.0004
G3 X46.8119 Y11.7026 Z-0.8 I0.0003 J0.0004
G3 X46.8111 Y11.703 Z-0.9333 I-0.0005 J0.0
G3 Y11.7022 Z-1.0667 I0.0003 J-0.0004
G3 X46.8119 Y11.7026 Z-1.2 I0.0003 J0.0004
G3 X46.8111 Y11.703 I-0.0005 J0.0
G3 Y11.7022 I0.0003 J-0.0004
G3 X46.8119 Y11.7026 I0.0003 J0.0004
G0 Z3.0
G0 X48.8335
G0 Z1.0
G1 F300.0 Z0.0
G3 F800.0 X48.8328 Y11.703 Z-0.1333 I-0.0005 J0.0
G3 Y11.7022 Z-0.2667 I0.0003 J-0.0004
G3 X48.8335 Y11.7026 Z-0.4 I0.0003 J0.0004
G3 X48.8328 Y11.703 Z-0.5333 I-0.0005 J0.0
G3 Y11.7022 Z-0.6667 I0.0003 J-0.0004
G3 X48.8335 Y11.7026 Z-0.8 I0.0003 J0.0004
G3 X48.8328 Y11.703 Z-0.9333 I-0.0005 J0.0
G3 Y11.7022 Z-1.0667 I0.0003 J-0.0004
G3 X48.8335 Y11.7026 Z-1.2 I0.0003 J0.0004
G3 X48.8328 Y11.703 I-0.0005 J0.0
G3 Y11.7022 I0.0003 J-0.0004
G3 X48.8335 Y11.7026 I0.0003 J0.0004
G0 Z3.0
G0 X48.9242 Y9.6706
G0 Z1.0
G1 F300.0 Z0.0
G3 F800.0 X48.9234 Y9.671 Z-0.1333 I-0.0005 J0.0
G3 Y9.6702 Z-0.2667 I0.0003 J-0.0004
G3 X48.9242 Y9.6706 Z-0.4 I0.0003 J0.0004
G3 X48.9234 Y9.671 Z-0.5333 I-0.0005 J0.0
G3 Y9.6702 Z-0.6667 I0.0003 J-0.0004
G3 X48.9242 Y9.6706 Z-0.8 I0.0003 J0.0004
G3 X48.9234 Y9.671 Z-0.9333 I-0.0005 J0.0
G3 Y9.6702 Z-1.0667 I0.0003 J-0.0004
G3 X48.9242 Y9.6706 Z-1.2 I0.0003 J0.0004
G3 X48.9234 Y9.671 I-0.0005 J0.0
G3 Y9.6702 I0.0003 J-0.0004
G3 X48.9242 Y9.6706 I0.0003 J0.0004
G0 Z3.0
G0 X46.8057
G0 Z1.0
G1 F300.0 Z0.0
G3 F800.0 X46.805 Y9.671 Z-0.1333 I-0.0005 J0.0
G3 Y9.6702 Z-0.2667 I0.0003 J-0.0004
G3 X46.8057 Y9.6706 Z-0.4 I0.0003 J0.0004
G3 X46.805 Y9.671 Z-0.5333 I-0.0005 J0.0
G3 Y9.6702 Z-0.6667 I0.0003 J-0.0004
G3 X46.8057 Y9.6706 Z-0.8 I0.0003 J0.0004
G3 X46.805 Y9.671 Z-0.9333 I-0.0005 J0.0
G3 Y9.6702 Z-1.0667 I0.0003 J-0.0004
G3 X46.8057 Y9.6706 Z-1.2 I0.0003 J0.0004
G3 X46.805 Y9.671 I-0.0005 J0.0
G3 Y9.6702 I0.0003 J-0.0004
G3 X46.8057 Y9.6706 I0.0003 J0.0004
G0 Z3.0
G0 X32.0027 Y8.9077
G0 Z1.0
G1 F300.0 Z0.0
G3 F800.0 X32.002 Y8.9082 Z-0.1333 I-0.0005 J0.0
G3 Y8.9073 Z-0.2667 I0.0003 J-0.0004
G3 X32.0027 Y8.9077 Z-0.4 I0.0003 J0.0004
G3 X32.002 Y8.9082 Z-0.5333 I-0.0005 J0.0
G3 Y8.9073 Z-0.6667 I0.0003 J-0.0004
G3 X32.0027 Y8.9077 Z-0.8 I0.0003 J0.0004
G3 X32.002 Y8.9082 Z-0.9333 I-0.0005 J0.0
G3 Y8.9073 Z-1.0667 I0.0003 J-0.0004
G3 X32.0027 Y8.9077 Z-1.2 I0.0003 J0.0004
G3 X32.002 Y8.9082 I-0.0005 J0.0
G3 Y8.9073 I0.0003 J-0.0004
G3 X32.0027 Y8.9077 I0.0003 J0.0004
G0 Z3.0
G0 X29.0412 Y9.6609
G0 Z1.0
G1 F300.0 Z0.0
G3 F800.0 X29.0404 Y9.6613 Z-0.1333 I-0.0005 J0.0
G3 Y9.6605 Z-0.2667 I0.0003 J-0.0004
G3 X29.0412 Y9.6609 Z-0.4 I0.0003 J0.0004
G3 X29.0404 Y9.6613 Z-0.5333 I-0.0005 J0.0
G3 Y9.6605 Z-0.6667 I0.0003 J-0.0004
G3 X29.0412 Y9.6609 Z-0.8 I0.0003 J0.0004
G3 X29.0404 Y9.6613 Z-0.9333 I-0.0005 J0.0
G3 Y9.6605 Z-1.0667 I0.0003 J-0.0004
G3 X29.0412 Y9.6609 Z-1.2 I0.0003 J0.0004
G3 X29.0404 Y9.6613 I-0.0005 J0.0
G3 Y9.6605 I0.0003 J-0.0004
G3 X29.0412 Y9.6609 I0.0003 J0.0004
G0 Z3.0
G0 X27.0089
G0 Z1.0
G1 F300.0 Z0.0
G3 F800.0 X27.0082 Y9.6613 Z-0.1333 I-0.0005 J0.0
G3 Y9.6605 Z-0.2667 I0.0003 J-0.0004
G3 X27.0089 Y9.6609 Z-0.4 I0.0003 J0.0004
G3 X27.0082 Y9.6613 Z-0.5333 I-0.0005 J0.0
G3 Y9.6605 Z-0.6667 I0.0003 J-0.0004
G3 X27.0089 Y9.6609 Z-0.8 I0.0003 J0.0004
G3 X27.0082 Y9.6613 Z-0.9333 I-0.0005 J0.0
G3 Y9.6605 Z-1.0667 I0.0003 J-0.0004
G3 X27.0089 Y9.6609 Z-1.2 I0.0003 J0.0004
G3 X27.0082 Y9.6613 I-0.0005 J0.0
G3 Y9.6605 I0.0003 J-0.0004
G3 X27.0089 Y9.6609 I0.0003 J0.0004
G0 Z3.0
M5
M30
