( Made using CamBam - http://www.cambam.co.uk )
( PCB2 10/13/2016 11:52:55 PM )
( T0 : 1.6 )
G21 G90 G40
G0 Z3.0
( T0 : 1.6 )
T0 M6
( Contour1 )
G17
M3 S1000
G0 X-0.7894 Y42.5206
G0 Z1.0
G1 F300.0 Z-0.5
G1 F400.0 Y0.0109
G3 X0.0106 Y-0.7891 I0.8 J0.0
G1 X52.3518
G3 X53.1518 Y0.0109 I0.0 J0.8
G1 Y42.45
G1 Y42.5206
G3 X52.3518 Y43.3206 I-0.8 J0.0
G1 X0.0106
G3 X-0.7894 Y42.5206 I0.0 J-0.8
G1 F300.0 Z-1.0
G1 F400.0 Y0.0109
G3 X0.0106 Y-0.7891 I0.8 J0.0
G1 X52.3518
G3 X53.1518 Y0.0109 I0.0 J0.8
G1 Y42.45
G1 Y42.5206
G3 X52.3518 Y43.3206 I-0.8 J0.0
G1 X0.0106
G3 X-0.7894 Y42.5206 I0.0 J-0.8
G0 Z3.0
M5
M30
