( Made using CamBam - http://www.cambam.co.uk )
( PCB2 10/13/2016 11:52:29 PM )
( T0 : 1.0 )
G21 G90 G40
G0 Z3.0
( T0 : 1.0 )
T0 M6
( Perçage1 )
G17
M3 S1000
G0 X29.524 Y4.0597
G0 Z3.0
G0 X29.5245 Y4.0597
G0 Z1.0
G1 F300.0 Z0.0
G3 F800.0 X29.5237 Y4.0601 Z-0.1333 I-0.0005 J0.0
G3 Y4.0592 Z-0.2667 I0.0003 J-0.0004
G3 X29.5245 Y4.0597 Z-0.4 I0.0003 J0.0004
G3 X29.5237 Y4.0601 Z-0.5333 I-0.0005 J0.0
G3 Y4.0592 Z-0.6667 I0.0003 J-0.0004
G3 X29.5245 Y4.0597 Z-0.8 I0.0003 J0.0004
G3 X29.5237 Y4.0601 Z-0.9333 I-0.0005 J0.0
G3 Y4.0592 Z-1.0667 I0.0003 J-0.0004
G3 X29.5245 Y4.0597 Z-1.2 I0.0003 J0.0004
G3 X29.5237 Y4.0601 I-0.0005 J0.0
G3 Y4.0592 I0.0003 J-0.0004
G3 X29.5245 Y4.0597 I0.0003 J0.0004
G0 Z3.0
G0 X33.4577 Y4.0709
G0 Z1.0
G1 F300.0 Z0.0
G3 F800.0 X33.457 Y4.0713 Z-0.1333 I-0.0005 J0.0
G3 Y4.0705 Z-0.2667 I0.0003 J-0.0004
G3 X33.4577 Y4.0709 Z-0.4 I0.0003 J0.0004
G3 X33.457 Y4.0713 Z-0.5333 I-0.0005 J0.0
G3 Y4.0705 Z-0.6667 I0.0003 J-0.0004
G3 X33.4577 Y4.0709 Z-0.8 I0.0003 J0.0004
G3 X33.457 Y4.0713 Z-0.9333 I-0.0005 J0.0
G3 Y4.0705 Z-1.0667 I0.0003 J-0.0004
G3 X33.4577 Y4.0709 Z-1.2 I0.0003 J0.0004
G3 X33.457 Y4.0713 I-0.0005 J0.0
G3 Y4.0705 I0.0003 J-0.0004
G3 X33.4577 Y4.0709 I0.0003 J0.0004
G0 Z3.0
G0 X43.5712 Y4.0925
G0 Z1.0
G1 F300.0 Z0.0
G3 F800.0 X43.5704 Y4.0929 Z-0.1333 I-0.0005 J0.0
G3 Y4.0921 Z-0.2667 I0.0003 J-0.0004
G3 X43.5712 Y4.0925 Z-0.4 I0.0003 J0.0004
G3 X43.5704 Y4.0929 Z-0.5333 I-0.0005 J0.0
G3 Y4.0921 Z-0.6667 I0.0003 J-0.0004
G3 X43.5712 Y4.0925 Z-0.8 I0.0003 J0.0004
G3 X43.5704 Y4.0929 Z-0.9333 I-0.0005 J0.0
G3 Y4.0921 Z-1.0667 I0.0003 J-0.0004
G3 X43.5712 Y4.0925 Z-1.2 I0.0003 J0.0004
G3 X43.5704 Y4.0929 I-0.0005 J0.0
G3 Y4.0921 I0.0003 J-0.0004
G3 X43.5712 Y4.0925 I0.0003 J0.0004
G0 Z3.0
G0 X47.562 Y4.102
G0 Z1.0
G1 F300.0 Z0.0
G3 F800.0 X47.5612 Y4.1024 Z-0.1333 I-0.0005 J0.0
G3 Y4.1016 Z-0.2667 I0.0003 J-0.0004
G3 X47.562 Y4.102 Z-0.4 I0.0003 J0.0004
G3 X47.5612 Y4.1024 Z-0.5333 I-0.0005 J0.0
G3 Y4.1016 Z-0.6667 I0.0003 J-0.0004
G3 X47.562 Y4.102 Z-0.8 I0.0003 J0.0004
G3 X47.5612 Y4.1024 Z-0.9333 I-0.0005 J0.0
G3 Y4.1016 Z-1.0667 I0.0003 J-0.0004
G3 X47.562 Y4.102 Z-1.2 I0.0003 J0.0004
G3 X47.5612 Y4.1024 I-0.0005 J0.0
G3 Y4.1016 I0.0003 J-0.0004
G3 X47.562 Y4.102 I0.0003 J0.0004
G0 Z3.0
M5
M30
