( Made using CamBam - http://www.cambam.co.uk )
( PCB2 10/14/2016 11:47:15 PM )
( T0 : 1.0 )
G21 G90 G40
G0 Z3.0
( T0 : 1.0 )
T0 M6
( Perçage1 )
G17
M3 S1000
G0 X41.9191 Y3.1593
G0 Z3.0
G0 X41.9196 Y3.1593
G0 Z1.0
G1 F300.0 Z0.0
G3 F800.0 X41.9188 Y3.1597 Z-0.1333 I-0.0005 J0.0
G3 Y3.1588 Z-0.2667 I0.0003 J-0.0004
G3 X41.9196 Y3.1593 Z-0.4 I0.0003 J0.0004
G3 X41.9188 Y3.1597 Z-0.5333 I-0.0005 J0.0
G3 Y3.1588 Z-0.6667 I0.0003 J-0.0004
G3 X41.9196 Y3.1593 Z-0.8 I0.0003 J0.0004
G3 X41.9188 Y3.1597 Z-0.9333 I-0.0005 J0.0
G3 Y3.1588 Z-1.0667 I0.0003 J-0.0004
G3 X41.9196 Y3.1593 Z-1.2 I0.0003 J0.0004
G3 X41.9188 Y3.1597 I-0.0005 J0.0
G3 Y3.1588 I0.0003 J-0.0004
G3 X41.9196 Y3.1593 I0.0003 J0.0004
G0 Z3.0
G0 X36.9263 Y3.1454
G0 Z1.0
G1 F300.0 Z0.0
G3 F800.0 X36.9256 Y3.1459 Z-0.1333 I-0.0005 J0.0
G3 Y3.145 Z-0.2667 I0.0003 J-0.0004
G3 X36.9263 Y3.1454 Z-0.4 I0.0003 J0.0004
G3 X36.9256 Y3.1459 Z-0.5333 I-0.0005 J0.0
G3 Y3.145 Z-0.6667 I0.0003 J-0.0004
G3 X36.9263 Y3.1454 Z-0.8 I0.0003 J0.0004
G3 X36.9256 Y3.1459 Z-0.9333 I-0.0005 J0.0
G3 Y3.145 Z-1.0667 I0.0003 J-0.0004
G3 X36.9263 Y3.1454 Z-1.2 I0.0003 J0.0004
G3 X36.9256 Y3.1459 I-0.0005 J0.0
G3 Y3.145 I0.0003 J-0.0004
G3 X36.9263 Y3.1454 I0.0003 J0.0004
G0 Z3.0
G0 X75.4208 Y46.8555
G0 Z1.0
G1 F300.0 Z0.0
G3 F800.0 X75.4201 Y46.8559 Z-0.1333 I-0.0005 J0.0
G3 Y46.855 Z-0.2667 I0.0002 J-0.0004
G3 X75.4208 Y46.8555 Z-0.4 I0.0002 J0.0004
G3 X75.4201 Y46.8559 Z-0.5333 I-0.0005 J0.0
G3 Y46.855 Z-0.6667 I0.0002 J-0.0004
G3 X75.4208 Y46.8555 Z-0.8 I0.0002 J0.0004
G3 X75.4201 Y46.8559 Z-0.9333 I-0.0005 J0.0
G3 Y46.855 Z-1.0667 I0.0002 J-0.0004
G3 X75.4208 Y46.8555 Z-1.2 I0.0002 J0.0004
G3 X75.4201 Y46.8559 I-0.0005 J0.0
G3 Y46.855 I0.0002 J-0.0004
G3 X75.4208 Y46.8555 I0.0002 J0.0004
G0 Z3.0
G0 X80.4066 Y46.8701
G0 Z1.0
G1 F300.0 Z0.0
G3 F800.0 X80.4059 Y46.8705 Z-0.1333 I-0.0005 J0.0
G3 Y46.8696 Z-0.2667 I0.0002 J-0.0004
G3 X80.4066 Y46.8701 Z-0.4 I0.0002 J0.0004
G3 X80.4059 Y46.8705 Z-0.5333 I-0.0005 J0.0
G3 Y46.8696 Z-0.6667 I0.0002 J-0.0004
G3 X80.4066 Y46.8701 Z-0.8 I0.0002 J0.0004
G3 X80.4059 Y46.8705 Z-0.9333 I-0.0005 J0.0
G3 Y46.8696 Z-1.0667 I0.0002 J-0.0004
G3 X80.4066 Y46.8701 Z-1.2 I0.0002 J0.0004
G3 X80.4059 Y46.8705 I-0.0005 J0.0
G3 Y46.8696 I0.0002 J-0.0004
G3 X80.4066 Y46.8701 I0.0002 J0.0004
G0 Z3.0
M5
M30
