( Made using CamBam - http://www.cambam.co.uk )
( PCB2 10/14/2016 11:47:25 PM )
( T0 : 1.6 )
G21 G90 G40
G0 Z3.0
( T0 : 1.6 )
T0 M6
( Contour1 )
G17
M3 S1000
G0 X0.1896 Y-0.6105
G0 Z1.0
G1 F300.0 Z-0.5
G1 F400.0 X84.7681
G3 X85.5681 Y0.1895 I0.0 J0.8
G1 Y50.131
G3 X84.7681 Y50.931 I-0.8 J0.0
G1 X0.1896
G3 X-0.6104 Y50.131 I0.0 J-0.8
G1 Y0.1895
G3 X0.1896 Y-0.6105 I0.8 J0.0
G1 F300.0 Z-1.0
G1 F400.0 X84.7681
G3 X85.5681 Y0.1895 I0.0 J0.8
G1 Y50.131
G3 X84.7681 Y50.931 I-0.8 J0.0
G1 X0.1896
G3 X-0.6104 Y50.131 I0.0 J-0.8
G1 Y0.1895
G3 X0.1896 Y-0.6105 I0.8 J0.0
G0 Z3.0
M5
M30
