( Made using CamBam - http://www.cambam.co.uk )
( PCB2 10/14/2016 11:52:25 PM )
( T0 : 0.35 )
G21 G90 G40
G0 Z3.0
( T0 : 0.35 )
T0 M6
( Poche1 )
G17
M3 S1000
G0 X0.7916 Y0.8319
G0 Z1.25
G1 F150.0 Z-0.15
G3 X0.9094 Y0.7861 I0.118 J0.1292
G1 X23.0164 Y0.7529
G3 X23.1916 Y0.9237 I0.0003 J0.175
G1 X23.307 Y5.7806
G1 X31.5901 Y5.9888
G3 X31.7607 Y6.1652 I-0.0044 J0.1749
G1 X31.6984 Y13.539
G3 X31.4865 Y13.7086 I-0.175 J-0.0015
G1 X20.5394 Y11.3462
G1 X20.203 Y22.1327
G1 X21.6884 Y22.1102
G3 X21.0003 Y21.1373 I0.3497 J-0.9771
G3 Y21.1358 I0.175 J-0.0007
G3 X21.7776 Y20.1364 I1.0368 J0.0044
G3 X21.0003 Y19.1369 I0.2595 J-1.0038
G3 Y19.1355 I0.175 J-0.0007
G3 X21.778 Y18.135 I1.0378 J0.0042
G3 X21.0003 Y17.1355 I0.2591 J-1.0039
G3 Y17.134 I0.175 J-0.0007
G3 X21.7781 Y16.1344 I1.0368 J0.0044
G3 X21.0003 Y15.1339 I0.26 J-1.0047
G3 Y15.1325 I0.175 J-0.0007
G3 X21.7777 Y14.133 I1.0368 J0.0044
G3 X21.0003 Y13.1336 I0.2594 J-1.0039
G3 Y13.1321 I0.175 J-0.0007
G3 X22.0325 Y12.0985 I1.0378 J0.0042
G3 X22.0344 I0.0009 J0.175
G3 X23.0666 Y13.1321 I-0.0055 J1.0378
G3 Y13.1336 I-0.175 J0.0007
G3 X22.3059 Y14.1286 I-1.0368 J-0.0044
G1 X23.1468 Y14.2198
G1 X25.0625 Y14.4217
G1 X26.4998 Y14.568
G1 X27.0387 Y14.6214
G1 X27.9822 Y14.7127
G1 X28.6898 Y14.7787
G1 X29.7515 Y14.8723
G1 X30.2821 Y14.9154
G1 X30.7976 Y14.9536
G3 X31.2729 Y15.0588 I0.0765 J0.7813
G3 X31.5736 Y15.3981 I-0.3399 J0.6041
G3 Y15.3982 I-0.1617 J0.0668
G3 X31.6776 Y15.7608 I-1.5585 J0.6431
G1 X32.3049 Y18.9349
G2 X32.969 Y19.1363 I1.0131 J-2.1449
G2 X33.3594 Y19.1595 I0.3644 J-2.8349
G1 X33.7761 Y19.1504
G3 X33.7807 I0.0038 J0.175
G3 X34.946 Y20.3164 I-0.005 J1.1703
G3 Y20.3177 I-0.175 J0.0006
G3 X33.7805 Y21.4826 I-1.1694 J-0.0045
G3 X33.7658 Y21.482 I-0.0006 J-0.175
G3 X33.1895 Y21.4252 I1.3269 J-16.418
G3 X31.4799 Y21.2196 I12.4022 J-110.3411
G3 X31.3326 Y21.0894 I0.0222 J-0.1736
G1 X31.0316 Y19.9125
G3 X31.0313 Y19.9117 I0.1695 J-0.0434
G1 X30.8099 Y19.0278
G3 X30.8098 Y19.0273 I0.1698 J-0.0425
G1 X30.7687 Y18.8615
G3 Y18.8613 I0.1699 J-0.042
G1 X30.7495 Y18.7835
G3 X30.7494 Y18.7833 I0.1699 J-0.0419
G1 X30.6755 Y18.482
G3 X30.4229 Y17.4238 I70.2717 J-17.3343
G3 X30.2198 Y16.4966 I25.3157 J-6.0329
G1 X30.1024 Y16.496
G3 X30.1009 I0.0008 J-0.175
G1 X29.5962 Y16.4894
G3 X29.5949 I0.0023 J-0.175
G3 X27.7 Y16.4365 I2.6864 J-130.1618
G3 X27.6996 I0.0062 J-0.1749
G1 X26.9902 Y16.4097
G3 X26.9898 I0.0066 J-0.1749
G1 X26.8346 Y16.4035
G3 X26.8344 I0.007 J-0.1749
G1 X26.5338 Y16.3911
G3 X26.5332 I0.0072 J-0.1749
G1 X25.4062 Y16.3414
G3 X25.4057 I0.0077 J-0.1748
G1 X24.983 Y16.3216
G3 X24.9825 I0.0082 J-0.1748
G1 X23.5035 Y16.2477
G3 X23.5027 I0.0087 J-0.1748
G1 X23.0908 Y16.2253
G2 X23.2968 Y16.2485 I3.2329 J-27.801
G3 X23.2975 I-0.0189 J0.174
G1 X24.7181 Y16.4085
G1 X25.7836 Y16.5233
G1 X26.583 Y16.6058
G1 X26.8826 Y16.6356
G1 X27.4077 Y16.6863
G3 X27.408 Y16.6864 I-0.0168 J0.1742
G2 X28.9624 Y16.8166 I5.2786 J-53.677
G3 X29.7851 Y17.283 I0.1023 J0.7783
G3 X29.8459 Y17.4815 I-0.7156 J0.3276
G1 X30.9323 Y21.7781
G1 X31.164 Y21.7701
G3 X31.1643 I0.006 J0.1749
G1 X32.4691 Y21.7273
G3 X32.4694 I0.0057 J0.1749
G1 X32.6326 Y21.7223
G3 X32.6329 I0.0054 J0.1749
G1 X33.202 Y21.7056
G3 X33.3494 Y21.7016 I0.1603 J3.2119
G1 X33.7759 Y21.6919
G3 X33.7806 Y21.6918 I0.004 J0.175
G3 X34.946 Y22.8572 I-0.0045 J1.1699
G3 Y22.8586 I-0.175 J0.0007
G3 X33.7807 Y24.0246 I-1.1705 J-0.0045
G3 X33.733 Y24.0181 I-0.0008 J-0.175
G1 X33.6284 Y23.989
G1 X33.2205 Y23.8804
G1 X32.8625 Y23.7899
G1 X32.5484 Y23.7142
G1 X32.2727 Y23.6507
G2 X31.3048 Y23.4532 I-5.6751 J25.3362
G3 X31.3037 Y23.4529 I0.0317 J-0.1721
G2 X30.8219 Y23.374 I-1.7416 J9.1196
G1 X30.5754 Y23.3406
G3 X30.5739 Y23.3404 I0.0235 J-0.1734
G2 X30.3544 Y23.3155 I-0.5189 J3.5993
G3 X30.3382 Y23.3163 I-0.0233 J-0.2997
G3 X29.8807 Y23.1871 I-0.0252 J-0.7847
G3 X29.5155 Y22.5788 I0.4178 J-0.6646
G1 X28.4485 Y18.3582
G1 X27.7609 Y18.3301
G1 X26.3286 Y18.2818
G2 X22.5014 Y18.1791 I-22.0207 J749.8976
G1 X22.7362 Y18.2192
G1 X23.3256 Y18.3173
G2 X25.3901 Y18.6434 I22.0199 J-132.6953
G3 X25.3903 Y18.6435 I-0.026 J0.1731
G2 X25.9063 Y18.7192 I9.1459 J-60.4818
G1 X26.2941 Y18.7739
G1 X26.8762 Y18.8511
G1 X27.0207 Y18.8691
G1 X27.4584 Y18.9193
G3 X27.4687 Y18.9208 I-0.0199 J0.1739
G3 X28.126 Y19.4719 I-0.094 J0.7795
G3 Y19.4721 I-0.1674 J0.0509
G1 X29.6511 Y24.506
G1 X30.0427 Y24.4762
G3 X30.043 I0.0133 J0.1745
G1 X30.9735 Y24.4073
G3 X30.9739 I0.0129 J0.1745
G1 X31.672 Y24.3575
G3 X31.6728 Y24.3574 I0.0125 J0.1746
G1 X32.72 Y24.2874
G3 X32.721 I0.0117 J0.1746
G1 X32.9829 Y24.2713
G3 X32.9839 I0.0107 J0.1747
G1 X33.3762 Y24.2495
G3 X33.7775 Y24.2338 I0.5131 J7.9774
G3 X33.7805 I0.0024 J0.175
G3 X34.946 Y25.3987 I-0.004 J1.1695
G3 Y25.4 I-0.175 J0.0007
G3 X33.7806 Y26.5654 I-1.1699 J-0.0045
G3 X33.7551 Y26.5637 I-0.0007 J-0.175
G1 X33.1795 Y26.4813
G1 X32.6754 Y26.4131
G2 X32.2352 Y26.3565 I-7.6788 J57.9115
G1 X31.4619 Y26.264
G1 X31.1725 Y26.232
G1 X30.6639 Y26.1801
G3 X30.6614 Y26.1798 I0.0178 J-0.1741
G2 X30.4781 Y26.1627 I-0.4713 J4.0535
G3 X30.4754 Y26.1625 I0.0123 J-0.1746
G2 X29.8091 Y26.1094 I-4.3841 J50.8052
G1 X29.4755 Y26.09
G2 X29.1588 Y26.0782 I-0.5715 J11.0563
G3 X29.0576 Y26.084 I-0.0955 J-0.7798
G3 X29.0551 Y26.0839 I0.0013 J-0.175
G3 X28.6089 Y25.9332 I0.0166 J-0.785
G3 X28.2847 Y25.4098 I0.4518 J-0.642
G1 X26.7732 Y20.4225
G2 X26.5877 Y20.4021 I-0.9479 J7.7543
G3 X26.5866 Y20.402 I0.0171 J-0.1742
G2 X26.0209 Y20.3492 I-2.781 J26.7204
G1 X25.7716 Y20.3297
G2 X25.3066 Y20.298 I-1.8812 J24.1356
G3 X25.306 Y20.2979 I0.0102 J-0.1747
G1 X25.2036 Y20.2916
G1 X25.1047 Y20.2857
G1 X24.9129 Y20.2748
G1 X24.553 Y20.2559
G1 X23.9224 Y20.2274
G1 X23.4494 Y20.2092
G1 X23.2722 Y20.2031
G1 X22.6509 Y20.184
G1 X22.4094 Y20.1778
G1 X22.5287 Y20.2023
G1 X22.6331 Y20.2235
G3 X22.634 Y20.2237 I-0.0348 J0.1715
G2 X23.0362 Y20.3041 I4.9164 J-23.5555
G3 X23.0368 Y20.3042 I-0.0328 J0.1719
G1 X23.3911 Y20.3732
G1 X24.0117 Y20.4898
G1 X24.0696 Y20.5004
G3 X24.0709 Y20.5006 I-0.0314 J0.1722
G2 X24.2938 Y20.5406 I2.1398 J-11.2712
G3 X24.2944 Y20.5407 I-0.0292 J0.1725
G1 X24.6907 Y20.6093
G3 X24.6913 Y20.6095 I-0.0299 J0.1724
G2 X25.2811 Y20.7036 I3.053 J-17.2325
G3 X25.2817 Y20.7037 I-0.0246 J0.1733
G1 X25.4306 Y20.7254
G1 X25.4862 Y20.7333
G3 X25.492 Y20.7342 I-0.0245 J0.1733
G2 X25.5771 Y20.7459 I0.1993 J-1.1363
G3 X25.5815 Y20.7464 I-0.0173 J0.1741
G1 X25.874 Y20.7828
G3 X25.9558 Y20.7949 I-0.0914 J0.9005
G3 X25.9611 Y20.7961 I-0.0335 J0.1718
G1 X25.9661 Y20.7972
G3 X25.9777 Y20.8003 I-0.0388 J0.1706
G1 X25.982 Y20.8016
G3 X26.5693 Y21.4136 I-0.1829 J0.7634
G1 X28.2951 Y26.8438
G1 X30.9717 Y26.813
G1 X31.3224 Y26.8088
G1 X31.9362 Y26.8011
G1 X32.8568 Y26.7889
G1 X33.3169 Y26.7822
G1 X33.7771 Y26.7747
G3 X33.7807 I0.0029 J0.175
G3 X34.946 Y27.9407 I-0.005 J1.1703
G3 Y27.942 I-0.175 J0.0006
G3 X33.7806 Y29.1074 I-1.1699 J-0.0045
G3 X33.7544 Y29.1056 I-0.0007 J-0.175
G1 X33.381 Y29.0504
G2 X31.9802 Y28.8538 I-35.4609 J247.4827
G1 X31.7175 Y28.8185
G1 X31.2246 Y28.7539
G1 X30.3611 Y28.6461
G1 X29.7132 Y28.5708
G1 X29.4701 Y28.544
G3 X29.4696 I0.0191 J-0.174
G2 X27.7831 Y28.3965 I-3.7624 J33.3006
G3 X27.7102 Y28.3993 I-0.0671 J-0.7963
G3 X26.9664 Y27.8485 I0.0055 J-0.785
G3 X26.965 Y27.8439 I0.167 J-0.0522
G3 Y27.8437 I0.1667 J-0.0531
G1 X25.1947 Y22.2721
G2 X25.0998 Y22.2537 I-0.4592 J2.1237
G3 X25.0952 Y22.2529 I0.0293 J-0.1725
G2 X24.7268 Y22.1969 I-0.8158 J4.1249
G3 X24.7264 Y22.1968 I0.0186 J-0.174
G2 X23.3908 Y22.1269 I-1.2849 J11.7575
G3 X23.3895 I-0.0007 J-0.175
G2 X22.229 Y22.1589 I-0.0531 J19.1375
G1 X22.3882 Y22.21
G2 X23.443 Y22.516 I6.6764 J-21.0375
G1 X23.7096 Y22.5845
G1 X23.9104 Y22.633
G3 X23.9108 Y22.6331 I-0.0411 J0.1701
G2 X24.5013 Y22.7541 I1.921 J-7.8744
G3 X24.7689 Y22.8256 I-0.0655 J0.7821
G3 X24.8109 Y22.8457 I-0.3312 J0.7471
G3 X24.82 Y22.8507 I-0.0799 J0.1557
G3 X25.232 Y23.4932 I-0.3715 J0.6916
G1 X26.5175 Y29.2522
G3 X26.5387 Y29.4254 I-0.7636 J0.1813
G3 X26.8605 Y29.6854 I-0.5652 J1.0287
G3 X27.0252 Y29.667 I0.1692 J0.7666
G3 X28.7077 Y29.5673 I13.8751 J220.0647
G1 X29.9726 Y29.4955
G3 X29.973 Y29.4954 I0.0099 J0.1747
G1 X30.9221 Y29.4437
G3 X30.9227 Y29.4436 I0.0095 J0.1747
G1 X32.3464 Y29.3715
G3 X33.7757 Y29.3168 I2.6616 J50.8415
G3 X33.7816 Y29.3167 I0.0042 J0.1749
G1 X34.4164 Y29.323
G1 X35.3683 Y29.3256
G1 X35.4275 Y29.3255
G3 X35.4306 I0.0004 J0.175
G2 X35.6471 Y29.3246 I0.0849 J-5.5486
G3 X35.6493 I0.0042 J0.175
G1 X36.3168 Y29.3168
G1 X39.2163 Y29.1977
G3 X39.2164 I0.0072 J0.1749
G1 X42.1186 Y29.0808
G3 X42.1265 Y29.0807 I0.007 J0.1749
G3 X43.2625 Y30.2174 I-0.0053 J1.1413
G3 Y30.2188 I-0.175 J0.0007
G3 X42.1312 Y31.3549 I-1.1409 J-0.0048
G1 X41.9542 Y31.365
G3 X41.954 I-0.0099 J-0.1747
G1 X40.5486 Y31.4434
G3 X40.5482 I-0.0097 J-0.1747
G1 X38.4399 Y31.5558
G3 X38.4392 I-0.0093 J-0.1748
G1 X37.3848 Y31.6076
G3 X37.3843 I-0.0086 J-0.1748
G1 X37.2524 Y31.6137
G3 X37.2521 I-0.008 J-0.1748
G1 X37.0216 Y31.6239
G3 X36.3258 Y31.6489 I-1.5346 J-33.0862
G3 X36.3196 I-0.0044 J-0.1749
G1 X35.6849 Y31.6427
G1 X34.733 Y31.64
G1 X34.6738 Y31.6402
G3 X34.6705 I-0.0004 J-0.175
G2 X34.4543 Y31.6411 I-0.0859 J5.2775
G3 X34.452 I-0.0043 J-0.1749
G1 X33.782 Y31.6489
G3 X33.7649 Y31.6483 I-0.002 J-0.175
G1 X33.3435 Y31.612
G2 X30.1836 Y31.3747 I-13.7714 J162.1932
G1 X29.7883 Y31.3498
G1 X29.4426 Y31.3292
G1 X28.8367 Y31.2962
G2 X27.0238 Y31.2369 I-2.2837 J42.1142
G3 X26.8529 Y31.217 I0.005 J-0.785
G3 X25.981 Y31.6136 I-0.877 J-0.7711
G3 X25.9795 I-0.0008 J-0.175
G3 X24.8147 Y30.4475 I0.005 J-1.1698
G3 Y30.4466 I0.175 J-0.0005
G3 X25.0416 Y29.7614 I1.1552 J0.0024
G3 X24.9863 Y29.5951 I0.7126 J-0.3293
G1 X23.7837 Y24.2113
G2 X23.4424 Y24.1396 I-0.6654 J2.3201
G2 X22.7543 Y24.1072 I-0.5465 J4.2854
G1 X22.6667 Y24.1104
G2 X22.3611 Y24.1317 I0.6841 J11.9891
G1 X22.3246 Y24.1353
G2 X22.2918 Y24.1392 I1.09 J9.5402
G3 X23.0666 Y25.1389 I-0.263 J1.0039
G3 Y25.1403 I-0.175 J0.0007
G3 X22.2893 Y26.1398 I-1.0368 J-0.0044
G3 X23.0666 Y27.1392 I-0.2595 J1.0039
G3 Y27.1407 I-0.175 J0.0007
G3 X22.0344 Y28.1743 I-1.0378 J-0.0042
G3 X22.0325 I-0.0009 J-0.175
G3 X21.0003 Y27.1407 I0.0055 J-1.0378
G3 Y27.1392 I0.175 J-0.0007
G3 X21.7782 Y26.1396 I1.0368 J0.0044
G3 X21.3506 Y25.9096 I0.2587 J-0.9932
G3 X21.1328 Y25.9417 I-0.2222 J-0.7529
G1 X20.1349 Y25.9619
G1 X20.1597 Y31.5234
G3 X20.087 Y31.6661 I-0.175 J0.0008
G3 X19.9936 Y31.7128 I-0.1906 J-0.2643
G3 X19.928 Y31.7339 I-0.1712 J-0.4202
G1 X19.8297 Y31.7633
G3 X19.8264 Y31.7642 I-0.0501 J-0.1677
G1 X19.6216 Y31.8211
G3 X19.6193 Y31.8218 I-0.0468 J-0.1686
G1 X19.221 Y31.9266
G3 X19.2194 Y31.927 I-0.0445 J-0.1692
G3 X17.72 Y32.302 I-69.448 J-274.4681
G3 X17.7195 Y32.3022 I-0.042 J-0.1699
G1 X17.1568 Y32.4396
G3 X17.1562 Y32.4398 I-0.0415 J-0.17
G1 X15.1854 Y32.9146
G3 X15.185 Y32.9147 I-0.041 J-0.1701
G1 X14.6919 Y33.0323
G3 X14.6915 Y33.0324 I-0.0406 J-0.1702
G1 X13.2118 Y33.3815
G3 X13.1681 Y33.3861 I-0.0402 J-0.1703
G1 X9.1845 Y33.3049
G3 X9.0131 Y33.1341 I0.0036 J-0.175
G1 X8.8089 Y24.5364
G3 X8.9841 Y24.3572 I0.175 J-0.0042
G1 X21.1057 Y24.3722
G3 X21.3208 Y24.3972 I0.0114 J0.8417
G3 X21.78 Y24.1383 I0.7176 J0.7363
G3 X21.3219 Y23.8808 I0.2587 J-0.9964
G3 X21.1028 Y23.9044 I-0.1926 J-0.7611
G3 X15.169 Y23.8494 I4.5733 J-814.4253
G1 X14.7981 Y23.8446
G3 X14.7978 I0.0023 J-0.175
G1 X13.407 Y23.8245
G3 X12.8859 Y23.8158 I0.5818 J-50.6618
G3 X12.7685 Y23.8138 I-0.0072 J-2.924
G1 X12.328 Y23.8056
G3 X12.3277 I0.0032 J-0.175
G1 X11.9408 Y23.7979
G3 X11.9403 I0.0035 J-0.175
G1 X11.2633 Y23.7826
G3 X11.2627 Y23.7825 I0.004 J-0.175
G1 X11.0089 Y23.776
G3 X11.0083 I0.0045 J-0.1749
G1 X10.564 Y23.7632
G3 X10.5634 I0.005 J-0.1749
G1 X10.3967 Y23.7578
G3 X10.3954 Y23.7577 I0.0057 J-0.1749
G1 X9.8124 Y23.7343
G3 X9.8093 Y23.7342 I0.007 J-0.1749
G1 X9.5186 Y23.7173
G3 X9.3723 Y23.7054 I0.1142 J-2.3086
G3 X9.3233 Y23.7005 I0.0059 J-0.3063
G3 X9.259 Y23.6911 I0.0294 J-0.4245
G3 X9.1674 Y23.6641 I0.0551 J-0.3565
G3 X9.0636 Y23.5097 I0.0711 J-0.1599
G1 X8.6678 Y10.9232
G1 X2.7127 Y10.9714
G1 X2.7211 Y11.6348
G1 X2.7657 Y14.8868
G2 X2.8544 Y20.5772 I1827.6195 J-25.6313
G1 X2.8915 Y22.7113
G1 X2.8958 Y22.9447
G1 X2.8999 Y23.1745
G1 X2.9083 Y23.6268
G1 X2.9419 Y25.3795
G1 X3.0065 Y28.4465
G1 X3.0196 Y29.0214
G1 X3.0454 Y30.0995
G1 X3.0948 Y31.986
G2 X3.1851 Y34.8141 I322.9177 J-8.8999
G1 X3.2131 Y35.521
G1 X3.2244 Y35.7856
G1 X3.246 Y36.249
G1 X3.2547 Y36.4224
G1 X3.2711 Y36.7261
G1 X3.2845 Y36.9539
G3 X3.2846 Y36.9548 I-0.1747 J0.0103
G2 X3.3354 Y37.6316 I16.5168 J-0.8996
G3 X3.3362 Y37.6491 I-0.1742 J0.0167
G3 X3.1764 Y40.7271 I-32.7414 J-0.156
G3 X3.1762 Y40.7295 I-0.1741 J-0.0173
G1 X3.1321 Y41.1177
G3 X3.1316 Y41.1212 I-0.1739 J-0.0198
G1 X3.0861 Y41.4614
G3 X3.086 Y41.4617 I-0.1734 J-0.0232
G3 X3.0389 Y41.7644 I-7.6353 J-1.0346
G3 X3.0271 Y41.8334 I-1.7062 J-0.2562
G3 X2.925 Y42.3438 I-11.7151 J-2.0773
G3 X2.9243 Y42.3467 I-0.1708 J-0.0381
G3 X2.8774 Y42.5377 I-18.6838 J-4.4911
G3 X2.6399 Y43.2162 I-3.732 J-0.9253
G3 X2.6363 Y43.2236 I-0.159 J-0.073
G1 X2.5953 Y43.303
G3 X2.595 Y43.3036 I-0.1555 J-0.0804
G3 X2.3763 Y43.5994 I-1.053 J-0.5498
G3 X2.373 Y43.6026 I-0.1229 J-0.1246
G3 X2.195 Y43.7231 I-0.4695 J-0.5014
G3 X2.1929 Y43.7241 I-0.0743 J-0.1585
G3 X1.953 Y43.7686 I-0.2101 J-0.4643
G3 X1.8402 Y43.7619 I1.6188 J-28.1262
G3 X1.8368 Y43.7616 I0.0108 J-0.1747
G1 X1.7834 Y43.7573
G3 X1.5379 Y43.7153 I0.0816 J-1.2148
G3 X1.1233 Y43.3964 I0.1745 J-0.6557
G3 Y43.3963 I0.1519 J-0.0869
G3 X0.9777 Y43.0326 I1.2375 J-0.7061
G3 X0.9772 Y43.0304 I0.1699 J-0.0421
G1 X0.9407 Y42.8746
G3 X0.939 Y42.8661 I0.1704 J-0.0399
G1 X0.9112 Y42.7138
G3 X0.9105 Y42.7096 I0.1722 J-0.0314
G3 X0.8396 Y42.0998 I7.4139 J-1.1703
G1 Y42.0997
G1 X0.8202 Y41.8382
G3 X0.82 Y41.8348 I0.1745 J-0.013
G1 X0.7928 Y41.344
G3 X0.7927 Y41.3414 I0.1747 J-0.0097
G1 X0.7753 Y40.9115
G3 Y40.91 I0.1749 J-0.0071
G1 X0.7631 Y40.5338
G3 Y40.5333 I0.1749 J-0.0056
G3 X0.7463 Y39.8735 I84.2361 J-2.4733
G1 Y39.8734
G1 X0.7411 Y39.6265
G3 X0.741 Y39.6262 I0.175 J-0.0037
G1 X0.7368 Y39.41
G3 X0.7367 Y39.4094 I0.175 J-0.0035
G1 X0.7118 Y37.8967
G3 Y37.8931 I0.175 J-0.0029
G1 X0.7309 Y33.2766
G1 X0.7448 Y29.2372
G1 X0.7475 Y28.3535
G1 X0.7641 Y21.5054
G3 Y21.505 I0.175 J0.0004
G2 X0.7663 Y20.2219 I-218.365 J-1.0126
G3 Y20.2215 I0.175 J-0.0002
G1 X0.7713 Y15.4064
G1 X0.7716 Y14.5036
G1 X0.7717 Y14.0804
G1 X0.7703 Y10.8007
G1 X0.7688 Y9.571
G1 X0.7581 Y5.2664
G1 X0.7538 Y4.1905
G1 X0.7455 Y2.5764
G1 X0.7346 Y0.9623
G3 X0.7916 Y0.8319 I0.175 J-0.0012
G0 Z3.0
G0 X4.0525 Y12.1392
G0 Z1.25
G1 Z-0.15
G3 X4.3345 Y12.0985 I0.2876 J0.9972
G3 X4.3364 I0.0009 J0.175
G3 X5.3698 Y13.1319 I-0.0053 J1.0387
G3 Y13.1337 I-0.175 J0.0009
G3 X4.5321 Y14.1465 I-1.0378 J-0.0055
G2 X4.5964 Y14.1605 I0.5268 J-2.2639
G2 X5.0166 Y14.2256 I1.1514 J-6.0477
G3 X5.017 I-0.0208 J0.1738
G2 X5.77 Y14.2939 I1.4947 J-12.2968
G3 X5.7703 I-0.0105 J0.1747
G1 X6.0562 Y14.3116
G1 X6.5569 Y14.3357
G2 X7.307 Y14.3593 I1.6217 J-39.6023
G1 X7.6835 Y14.3665
G1 X7.8714 Y14.3689
G1 X7.9654 Y14.3698
G3 X7.9714 Y14.37 I-0.0017 J0.175
G2 X8.0526 Y14.3705 I0.0473 J-1.0806
G3 X8.2331 Y14.5443 I0.0055 J0.1749
G1 X8.385 Y39.593
G1 X32.7387 Y39.852
G3 X32.9153 Y39.8705 I0.0068 J0.785
G3 X33.7793 Y39.4819 I0.8681 J0.7752
G3 X33.7807 I0.0006 J0.175
G3 X34.946 Y40.6479 I-0.005 J1.1703
G3 Y40.6492 I-0.175 J0.0006
G3 X33.7806 Y41.8146 I-1.1699 J-0.0045
G3 X33.7795 I-0.0007 J-0.175
G3 X32.8971 Y41.4077 I0.0026 J-1.1658
G3 X32.7216 Y41.4219 I-0.1509 J-0.7704
G1 X7.7087 Y41.1563
G3 X7.6059 Y41.1633 I-0.1045 J-0.7725
G3 X7.6049 I-0.0004 J-0.175
G3 X6.8227 Y40.3798 I0.0029 J-0.785
G1 X5.939 Y16.2269
G2 X4.707 Y16.1717 I-1.6852 J23.8129
G3 X5.3698 Y17.1338 I-0.3751 J0.9677
G3 Y17.1356 I-0.175 J0.0009
G3 X4.5911 Y18.135 I-1.0378 J-0.0055
G3 X5.3698 Y19.1353 I-0.2601 J1.0057
G3 Y19.1371 I-0.175 J0.0009
G3 X4.5916 Y20.1364 I-1.0378 J-0.0055
G3 X5.3698 Y21.1357 I-0.2596 J1.0048
G3 Y21.1375 I-0.175 J0.0009
G3 X4.5912 Y22.1378 I-1.0387 J-0.0053
G3 X5.3698 Y23.1372 I-0.2592 J1.0049
G3 Y23.139 I-0.175 J0.0009
G3 X4.5912 Y24.1384 I-1.0378 J-0.0055
G3 X5.3698 Y25.1387 I-0.2601 J1.0056
G3 Y25.1405 I-0.175 J0.0009
G3 X4.5916 Y26.1398 I-1.0378 J-0.0055
G3 X5.3697 Y27.139 I-0.2596 J1.0048
G3 Y27.1398 I-0.175 J0.0009
G1 X5.3705 Y28.065
G2 X5.379 Y31.5341 I2399.4916 J-4.1471
G1 X5.3911 Y34.1362
G3 Y34.1375 I-0.175 J0.0008
G2 X5.394 Y34.6223 I26.792 J0.0826
G3 Y34.6243 I-0.175 J0.0026
G2 X5.4071 Y36.4527 I253.1364 J-0.9029
G3 Y36.453 I-0.175 J0.0019
G1 X5.4198 Y37.8252
G3 Y37.8256 I-0.175 J0.0016
G2 X5.4313 Y38.8532 I119.7728 J-0.8329
G3 Y38.8536 I-0.175 J0.0027
G1 X5.4415 Y39.6255
G3 Y39.6257 I-0.175 J0.0023
G2 X5.4803 Y41.7693 I167.3869 J-1.954
G1 X27.2864 Y41.9328
G3 X27.4502 Y42.0496 I-0.0013 J0.175
G1 X27.5486 Y42.3287
G1 X27.6451 Y42.5873
G2 X27.8385 Y43.0665 I21.7963 J-8.5206
G1 X27.883 Y43.1703
G2 X28.2532 Y43.9657 I16.5522 J-7.2185
G3 X28.2538 Y43.9669 I-0.1568 J0.0777
G2 X28.4004 Y44.2615 I15.8781 J-7.7161
G3 X28.4006 Y44.2621 I-0.1559 J0.0794
G1 X28.9251 Y45.3003
G3 X28.9258 Y45.3018 I-0.1562 J0.0789
G1 X29.1829 Y45.8235
G3 X29.1831 Y45.8237 I-0.157 J0.0774
G3 X29.4024 Y46.2804 I-26.7897 J13.1459
G2 X29.8131 Y46.3978 I5.4466 J-18.282
G3 X29.8151 Y46.3983 I-0.0462 J0.1688
G2 X31.6571 Y46.8763 I10.4803 J-36.5993
G3 X31.6574 Y46.8764 I-0.0397 J0.1704
G2 X33.0514 Y47.1481 I4.2165 J-17.921
G2 X34.1074 Y47.2789 I2.9237 J-19.2805
G1 X34.508 Y47.3118
G3 X34.5082 Y47.3119 I-0.0144 J0.1744
G2 X34.8539 Y47.3345 I0.8077 J-9.672
G3 X34.8551 Y47.3346 I-0.0083 J0.1748
G1 X35.1624 Y47.3512
G1 X35.7006 Y47.3752
G1 X37.2679 Y47.4369
G1 X37.5342 Y47.2805
G1 X37.8258 Y47.1089
G2 X38.8807 Y46.4261 I-7.5068 J-12.7555
G2 X39.6257 Y45.8424 I-5.8871 J-8.281
G3 X39.6289 Y45.8397 I0.1142 J0.1326
G2 X39.6879 Y45.7877 I-0.7047 J-0.8582
G3 X39.6919 Y45.784 I0.1203 J0.127
G2 X40.1798 Y45.3002 I-4.2765 J-4.8001
G3 X40.1831 Y45.2966 I0.1297 J0.1175
G2 X40.2598 Y45.2086 I-0.8925 J-0.8554
G3 X40.2632 Y45.2045 I0.1372 J0.1086
G2 X40.5525 Y44.8206 I-3.3775 J-2.8465
G3 X40.5531 Y44.8198 I0.1453 J0.0976
G2 X40.8608 Y44.1901 I-2.0425 J-1.3882
G3 X40.861 Y44.1894 I0.1665 J0.0537
G2 X40.9343 Y43.5155 I-1.5576 J-0.5104
G1 X40.9076 Y43.2572
G3 X40.9075 Y43.2566 I0.1741 J-0.018
G1 X40.8575 Y42.7556
G3 X40.8574 Y42.755 I0.1741 J-0.0174
G1 X40.7667 Y41.8154
G1 X40.6076 Y40.1715
G1 X40.4818 Y38.9399
G1 X40.381 Y38.0171
G1 X40.3414 Y37.6718
G1 X40.2691 Y37.0671
G1 X40.2121 Y36.614
G2 X40.037 Y35.3556 I-57.426 J7.3502
G2 X38.2423 Y34.6578 I-12.1124 J28.4942
G1 X38.0018 Y34.5757
G3 X37.9942 Y34.573 I0.0565 J-0.1656
G2 X37.9592 Y34.5613 I-0.1252 J0.3184
G3 X37.9515 Y34.559 I0.0461 J-0.1688
G1 X37.7457 Y34.4926
G3 X37.7452 Y34.4924 I0.0538 J-0.1665
G2 X37.0305 Y34.2919 I-2.7485 J8.4216
G3 X37.03 Y34.2918 I0.0402 J-0.1703
G2 X36.6706 Y34.2195 I-1.1921 J4.9979
G3 X36.6685 Y34.2191 I0.0284 J-0.1727
G2 X36.3224 Y34.1897 I-0.3348 J1.8912
G3 X36.3196 I-0.001 J-0.175
G1 X35.6849 Y34.1835
G1 X34.7329 Y34.1809
G1 X34.6738 Y34.181
G3 X34.6707 I-0.0004 J-0.175
G2 X34.4541 Y34.1819 I-0.085 J5.5295
G3 X34.452 I-0.0042 J-0.175
G1 X33.7819 Y34.1897
G3 X33.7765 I-0.002 J-0.175
G2 X32.8026 Y34.1736 I-3.2166 J164.7448
G1 X31.0968 Y34.1512
G1 X30.4572 Y34.1448
G3 X30.4535 Y34.1447 I0.0018 J-0.175
G2 X30.3213 Y34.1435 I-0.0926 J2.9571
G3 X30.3175 I-0.0023 J-0.175
G1 X29.7754 Y34.1392
G1 X28.8268 Y34.1343
G1 X28.1158 Y34.1333
G1 X27.0491 Y34.1378
G1 X26.5163 Y34.144
G1 X26.45 Y34.145
G1 X26.3335 Y34.147
G1 X26.1589 Y34.1504
G1 X26.0037 Y34.154
G1 X23.9483 Y34.668
G1 X23.7696 Y36.394
G3 X23.6069 Y36.5506 I-0.1741 J-0.018
G3 X23.4374 Y36.5579 I-0.249 J-3.8266
G1 X22.8051 Y36.5846
G3 X22.805 I-0.0074 J-0.1748
G1 X21.6952 Y36.6309
G3 X21.6949 I-0.0073 J-0.1748
G1 X20.0302 Y36.6981
G3 X20.0299 I-0.0071 J-0.1749
G1 X19.6201 Y36.7139
G3 X19.5875 Y36.7152 I-0.0267 J-0.275
G1 X18.9793 Y36.7375
G3 X18.9788 I-0.0064 J-0.1749
G1 X18.8252 Y36.7428
G3 X18.825 I-0.006 J-0.1749
G1 X18.7961 Y36.7437
G1 X18.7691 Y36.7446
G3 X18.6945 Y36.747 I-0.7967 J-23.5222
G3 X19.0713 Y36.9809 I-0.3405 J0.9691
G3 X19.2945 Y36.961 I0.1807 J0.7638
G1 X32.751 Y37.2957
G3 X32.9261 Y37.3183 I-0.0126 J0.785
G3 X33.7791 Y36.941 I0.8588 J0.7886
G3 X33.7805 I0.0009 J0.175
G3 X34.946 Y38.1059 I-0.004 J1.1695
G3 Y38.1072 I-0.175 J0.0007
G3 X33.7806 Y39.2727 I-1.1699 J-0.0045
G3 X33.7795 I-0.0007 J-0.175
G3 X32.8856 Y38.8518 I0.0029 J-1.1658
G3 X32.7166 Y38.8657 I-0.1486 J-0.7707
G1 X18.2394 Y39.206
G3 X18.2322 I-0.0041 J-0.175
G1 X9.242 Y39.0466
G3 X9.0702 Y38.8756 I0.0031 J-0.175
G1 X8.966 Y34.3084
G3 X9.1588 Y34.1303 I0.175 J-0.004
G1 X9.2161 Y34.1361
G2 X11.0194 Y34.2597 I2.8714 J-28.6908
G3 X11.0265 Y34.2601 I-0.0065 J0.1749
G2 X11.0677 Y34.2614 I0.0344 J-0.4409
G3 X11.0771 Y34.2615 I0.0027 J0.175
G2 X11.5146 Y34.2683 I0.3699 J-9.7476
G3 X11.5164 I0.0012 J0.175
G2 X11.6804 Y34.2669 I0.0237 J-7.1131
G3 X11.6834 I0.0035 J0.175
G2 X12.2529 Y34.2339 I-0.0142 J-5.1778
G3 X12.2547 Y34.2337 I0.0197 J0.1739
G2 X12.5246 Y34.1846 I-0.1817 J-1.7665
G2 X12.6366 Y34.1411 I-0.1794 J-0.6272
G2 X12.6399 Y34.139 I-0.0308 J-0.0543
G3 X12.6596 Y34.0439 I1.3321 J0.2253
G3 X12.6812 Y33.9484 I1.7409 J0.343
G3 X12.6813 Y33.9479 I0.1696 J0.0433
G1 X12.6986 Y33.8808
G3 X12.7171 Y33.821 I0.3316 J0.0697
G3 X12.7378 Y33.7758 I0.2345 J0.0802
G3 X12.7448 Y33.7649 I0.1509 J0.0885
G1 X12.753 Y33.753
G3 X12.8396 Y33.6871 I0.144 J0.0995
G3 X13.0805 Y33.8286 I0.0601 J0.1734
G3 X13.0906 Y33.9002 I-0.4388 J0.0984
G3 X13.0907 Y33.9036 I-0.1747 J0.0104
G3 X13.0914 Y34.3128 I-5.2389 J0.2126
G1 X13.0831 Y34.6594
G3 Y34.6605 I-0.175 J-0.0042
G2 X13.079 Y35.869 I22.6415 J0.6815
G1 X13.0851 Y36.0213
G1 X13.0929 Y36.1562
G3 Y36.157 I-0.1747 J0.01
G2 X13.1457 Y36.6112 I3.6317 J-0.1921
G2 X13.204 Y36.8232 I1.3203 J-0.2491
G2 X13.2321 Y36.8754 I0.2167 J-0.0828
G1 X17.4524 Y36.9261
G3 X17.4529 I-0.0021 J0.175
G3 X17.6675 Y36.9594 I-0.0116 J0.7849
G3 X18.0253 Y36.746 I0.6959 J0.7601
G3 X17.2442 Y36.7132 I1.1789 J-37.4596
G1 X15.5875 Y36.6343
G3 X15.5872 I0.0083 J-0.1748
G1 X15.4836 Y36.6292
G3 X15.4835 I0.0086 J-0.1748
G1 X13.9302 Y36.5507
G3 X13.7642 Y36.3817 I0.0088 J-0.1748
G1 X13.6793 Y33.8078
G3 X13.8104 Y33.6326 I0.1749 J-0.0058
G1 X18.5184 Y32.4152
G3 X18.5484 Y32.4102 I0.0438 J0.1694
G1 X25.9664 Y31.8234
G3 X25.9822 Y31.8228 I0.0138 J0.1745
G2 X29.8812 Y31.8597 I11.4338 J-1002.9896
G1 X30.3683 Y31.8627
G1 X32.074 Y31.8684
G1 X32.2868
G1 X33.0326 Y31.8661
G1 X33.2184 Y31.8647
G1 X33.7777 Y31.8576
G3 X33.7799 I0.0022 J0.175
G1 X36.3214
G3 X36.3743 Y31.8658 I0.0 J0.175
G2 X36.5925 Y31.9085 I0.2966 J-0.9351
G3 X36.5991 Y31.9092 I-0.014 J0.1744
G2 X36.7151 Y31.92 I0.27 J-2.272
G1 X36.9606 Y31.9333
G2 X37.9154 Y31.9382 I0.5773 J-19.4496
G3 X37.9155 I0.0034 J0.175
G1 X39.6085 Y31.9064
G3 X39.6088 I0.0033 J0.175
G1 X39.6887 Y31.905
G3 X40.3198 Y31.8973 I1.1119 J64.5803
G3 X40.32 I0.0013 J0.175
G3 X41.4295 Y31.9026 I0.3175 J49.286
G3 X41.4316 Y31.9027 I-0.0028 J0.175
G1 X41.8504 Y31.9145
G3 X41.8518 I-0.0049 J0.1749
G3 X42.5948 Y31.9565 I-0.6947 J18.8849
G3 X42.5951 Y31.9566 I-0.0133 J0.1745
G3 X43.1628 Y32.0161 I-0.833 J10.6759
G3 X43.1634 Y32.0162 I-0.0229 J0.1735
G3 X43.38 Y32.0485 I-1.0774 J7.9594
G3 X43.7628 Y32.1255 I-0.7487 J4.7119
G3 X43.9143 Y32.1659 I-0.3319 J1.5504
G3 X43.9778 Y32.1851 I-0.3399 J1.2363
G3 X44.0429 Y32.2066 I-0.2535 J0.8785
G3 X44.2691 Y32.2987 I-0.767 J2.2079
G3 X44.2714 Y32.2998 I-0.0744 J0.1584
G3 X44.4429 Y32.3991 I-0.607 J1.245
G3 X44.6774 Y32.6482 I-0.4122 J0.6231
G3 X44.6804 Y32.6537 I-0.1515 J0.0876
G3 X44.7394 Y33.0078 I-0.4983 J0.265
G1 X45.504 Y49.5264
G3 X45.3268 Y49.7094 I-0.1748 J0.0081
G1 X11.8955 Y49.2538
G3 X11.7267 Y49.1151 I0.0024 J-0.175
G1 X10.8435 Y44.9456
G1 X3.6692 Y43.9585
G3 X3.5181 Y43.787 I0.0239 J-0.1734
G1 X3.4948 Y41.7064
G1 X3.4075 Y34.4243
G1 X3.3589 Y30.7833
G1 X3.3459 Y29.8732
G1 X3.3251 Y28.5079
G3 X3.3252 Y28.5014 I0.175 J-0.0027
G2 X3.324 Y28.4292 I-0.955 J-0.021
G3 X3.3238 Y28.4228 I0.1747 J-0.0094
G1 X3.3023 Y27.1429
G3 Y27.1392 I0.175 J-0.0029
G3 X4.0797 Y26.1398 I1.0368 J0.0044
G3 X3.3023 Y25.1403 I0.2595 J-1.0039
G3 Y25.1389 I0.175 J-0.0007
G3 X4.0801 Y24.1384 I1.0378 J0.0042
G3 X3.3023 Y23.1388 I0.2591 J-1.004
G3 Y23.1373 I0.175 J-0.0007
G3 X4.0801 Y22.1378 I1.0368 J0.0044
G3 X3.3023 Y21.1373 I0.26 J-1.0047
G3 Y21.1358 I0.175 J-0.0007
G3 X4.0797 Y20.1364 I1.0368 J0.0044
G3 X3.3023 Y19.137 I0.2595 J-1.0038
G3 Y19.1355 I0.175 J-0.0007
G3 X4.0801 Y18.135 I1.0378 J0.0042
G3 X3.3023 Y17.1354 I0.259 J-1.004
G3 Y17.134 I0.175 J-0.0007
G3 X4.0801 Y16.1344 I1.0368 J0.0044
G3 X3.3023 Y15.1339 I0.26 J-1.0047
G3 Y15.1325 I0.175 J-0.0007
G3 X4.0797 Y14.133 I1.0368 J0.0044
G3 X3.3023 Y13.1336 I0.2595 J-1.0039
G3 Y13.1321 I0.175 J-0.0007
G3 X4.0525 Y12.1392 I1.0378 J0.0042
G0 Z3.0
G0 X3.1733 Y14.0023
G0 Z1.25
G1 Z-0.15
G1 X3.1768 Y14.259
G3 X3.2838 Y14.133 I1.1623 J0.8779
G3 X3.1733 Y14.0023 I1.0554 J-1.0039
G0 Z3.0
G0 X3.202 Y16.0402
G0 Z1.25
G1 Z-0.15
G2 X3.2047 Y16.2248 I1827.1832 J-26.7847
G3 X3.284 Y16.1342 I1.1344 J0.9136
G3 X3.202 Y16.0402 I1.0561 J-1.0045
G1 X3.3113 Y15.9528
G3 X3.0529 Y15.4105 I1.0288 J-0.8231
G2 X3.0729 Y16.7777 I1827.3324 J-26.155
G3 X3.4876 Y16.1342 I1.2662 J0.3606
G3 X3.3113 Y15.9528 I0.8525 J-1.0045
G0 Z3.0
G0 X3.233 Y18.0787
G0 Z1.25
G1 Z-0.15
G2 X3.2348 Y18.1897 I1827.1522 J-28.8232
G3 X3.284 Y18.1352 I1.1053 J0.95
G3 X3.233 Y18.0787 I1.0551 J-1.0041
G1 X3.3393 Y17.9876
G3 X3.0844 Y17.5298 I0.9998 J-0.8566
G2 X3.1027 Y18.6873 I1827.3008 J-28.2743
G3 X3.4876 Y18.1352 I1.2374 J0.4524
G3 X3.3393 Y17.9876 I0.8515 J-1.0041
G0 Z3.0
G0 X5.3875 Y18.1352
G0 Z1.25
G1 Z-0.15
G3 X5.5992 Y18.4203 I-1.0565 J1.0055
G1 X5.5796 Y17.8837
G3 X5.3875 Y18.1352 I-1.2476 J-0.7536
G0 Z3.0
G0 X5.6481 Y19.7578
G0 Z1.25
G1 Z-0.15
G3 X5.3878 Y20.1364 I-1.3162 J-0.6262
G3 X5.6783 Y20.5829 I-1.0558 J1.0048
G1 X5.6481 Y19.7578
G0 Z3.0
G0 X5.5942 Y22.1117
G0 Z1.25
G1 Z-0.15
G3 X5.5737 Y22.1376 I-1.2631 J-0.9796
G3 X5.5962 Y22.166 I-1.2417 J1.0051
G1 X5.5942 Y22.1117
G1 X5.4836 Y22.0259
G3 X5.3875 Y22.1376 I-1.1525 J-0.8938
G3 X5.7616 Y22.859 I-1.0555 J1.0051
G1 X5.7152 Y21.5916
G3 X5.4836 Y22.0259 I-1.3842 J-0.4594
G0 Z3.0
G0 X5.6638 Y24.0156
G0 Z1.25
G1 Z-0.15
G3 X5.5737 Y24.1386 I-1.3319 J-0.8822
G3 X5.6734 Y24.2762 I-1.2426 J1.0054
G1 X5.6638 Y24.0156
G0 Z3.0
G0 X5.7329 Y25.9028
G0 Z1.25
G1 Z-0.15
G3 X5.5739 Y26.1398 I-1.4009 J-0.7678
G3 X5.7515 Y26.4119 I-1.242 J1.0048
G1 X5.7329 Y25.9028
G0 Z3.0
G0 X3.4873 Y26.1398
G0 Z1.25
G1 Z-0.15
G3 X3.2315 Y25.8476 I0.8518 J-1.0038
G1 X3.2434 Y26.4137
G3 X3.4873 Y26.1398 I1.0957 J0.7299
G0 Z3.0
G0 X3.2043 Y24.4754
G0 Z1.25
G1 Z-0.15
G3 X3.4876 Y24.1385 I1.1358 J0.6677
G3 X3.191 Y23.7787 I0.8515 J-1.0041
G1 X3.2043 Y24.4754
G0 Z3.0
G0 X3.1683 Y22.5397
G0 Z1.25
G1 Z-0.15
G3 X3.4876 Y22.1376 I1.1708 J0.6021
G3 X3.1538 Y21.7063 I0.8525 J-1.0045
G1 X3.1683 Y22.5397
G0 Z3.0
G0 X3.2669 Y20.1544
G0 Z1.25
G1 Z-0.15
G3 X3.2837 Y20.1364 I1.0722 J0.9859
G3 X3.2663 Y20.1178 I1.0554 J-1.0038
G1 X3.2669 Y20.1544
G1 X3.37 Y20.2491
G3 X3.4873 Y20.1364 I0.9692 J0.8911
G3 X3.118 Y19.6247 I0.8518 J-1.0038
G2 X3.134 Y20.5724 I1827.2672 J-30.3692
G1 X3.1347 Y20.6087
G3 X3.37 Y20.2491 I1.2045 J0.5316
G0 Z3.0
G0 X8.7088 Y23.7745
G0 Z1.25
G1 Z-0.15
G1 X8.7102 Y24.0042
G3 X8.8484 Y23.9531 I0.2737 J0.528
G3 X8.7088 Y23.7745 I0.3901 J-0.4489
G1 X8.5688 Y23.7754
G1 X8.5722 Y24.3391
G3 X8.9844 Y24.0775 I0.4117 J0.1931
G1 X12.1278 Y24.0814
G1 X11.9352 Y24.0775
G3 X11.934 I0.0091 J-0.4546
G1 X11.2569 Y24.0622
G3 X11.2556 I0.0103 J-0.4546
G1 X11.0017 Y24.0557
G3 X11.0003 Y24.0556 I0.0116 J-0.4546
G1 X10.556 Y24.0428
G3 X10.5543 I0.0131 J-0.4545
G1 X10.3876 Y24.0374
G3 X10.3842 Y24.0372 I0.0148 J-0.4545
G1 X9.8012 Y24.0138
G3 X9.793 Y24.0134 I0.0182 J-0.4544
G1 X9.5035 Y23.9966
G3 X9.3521 Y23.9846 I0.1293 J-2.588
G3 X9.289 Y23.9783 I0.0261 J-0.5855
G3 X9.2067 Y23.9659 I0.0637 J-0.7024
G3 X9.0537 Y23.9197 I0.1074 J-0.6314
G3 X8.7841 Y23.5185 I0.1849 J-0.4154
G1 X8.5154 Y14.9762
G1 X8.5688 Y23.7754
G0 Z3.0
G0 X8.7681 Y33.5511
G0 Z1.25
G1 Z-0.15
G1 X8.7699 Y33.8397
G3 X9.0733 Y33.7135 I0.3711 J0.4647
G3 X8.7681 Y33.5511 I0.1148 J-0.5835
G0 Z3.0
G0 X9.3572 Y33.7283
G0 Z1.25
G1 Z-0.15
G2 X11.035 Y33.8402 I2.7303 J-28.2829
G3 X11.0591 Y33.8416 I-0.022 J0.5943
G2 X11.0612 Y33.8417 I0.0017 J-0.0224
G3 X11.093 Y33.8421 I0.0092 J0.5946
G2 X11.5117 Y33.8485 I0.3539 J-9.3282
G3 X11.5178 I0.0041 J0.5947
G2 X11.6721 Y33.8473 I0.0223 J-6.6934
G3 X11.6822 Y33.8472 I0.0117 J0.5946
G2 X12.2055 Y33.8168 I-0.0131 J-4.758
G3 X12.2117 Y33.8162 I0.067 J0.5909
G2 X12.2842 Y33.8067 I-0.1388 J-1.3489
G1 X12.2891 Y33.788
G1 X9.3572 Y33.7283
G1 X9.3601 Y33.5883
G1 X9.1788 Y33.5846
G3 X8.7335 Y33.1408 I0.0093 J-0.4546
G1 X8.5886 Y27.0409
G1 X8.6631 Y39.3162
G1 X9.18 Y39.3217
G3 X8.7905 Y38.882 I0.0651 J-0.45
G1 X8.6864 Y34.3147
G3 X9.1872 Y33.852 I0.4546 J-0.0104
G1 X9.2442 Y33.8578
G2 X11.0298 Y33.9802 I2.8433 J-28.4125
G3 X11.0483 Y33.9812 I-0.0168 J0.4544
G2 X11.0634 Y33.9817 I0.0126 J-0.162
G3 X11.0877 Y33.982 I0.007 J0.4547
G2 X11.5127 Y33.9885 I0.3592 J-9.4681
G3 X11.5173 I0.0032 J0.4547
G2 X11.6749 Y33.9872 I0.0228 J-6.8334
G3 X11.6826 I0.009 J0.4546
G2 X12.2213 Y33.956 I-0.0134 J-4.898
G3 X12.2261 Y33.9554 I0.0513 J0.4518
G2 X12.3984 Y33.9275 I-0.1531 J-1.4882
G3 X12.4101 Y33.8792 I2.0021 J0.4595
G3 X12.4104 Y33.878 I0.4406 J0.1124
G1 X12.4264 Y33.8162
G3 X12.4554 Y33.722 I0.6038 J0.1344
G3 X12.4866 Y33.652 I0.4962 J0.1792
G1 X9.3601 Y33.5883
G0 Z3.0
G0 X13.3102 Y33.6457
G0 Z1.25
G1 Z-0.15
G3 X13.3546 Y33.7729 I-0.4104 J0.2148
G3 X13.3698 Y33.8836 I-0.713 J0.1541
G3 X13.3702 Y33.8922 I-0.4539 J0.027
G3 X13.371 Y34.3214 I-5.5184 J0.224
G1 X13.3628 Y34.666
G3 X13.3627 Y34.6689 I-0.4546 J-0.0108
G2 X13.3586 Y35.8601 I22.3619 J0.6731
G1 X13.3645 Y36.0076
G1 X13.3721 Y36.1402
G3 X13.3722 Y36.1422 I-0.454 J0.026
G2 X13.4208 Y36.5604 I3.3524 J-0.1773
G2 X13.4286 Y36.5981 I1.0452 J-0.1983
G1 X13.543 Y36.5994
G3 X13.4846 Y36.3909 I0.396 J-0.2235
G1 X13.3998 Y33.817
G3 X13.4397 Y33.6151 I0.4545 J-0.015
G1 X13.3102 Y33.6457
G0 Z3.0
G0 X22.1134 Y30.1623
G0 Z1.25
G1 Z-0.15
G1 X22.8743 Y30.1021
G3 X22.8862 Y30.0088 I3.0955 J0.3469
G3 X22.1132 Y30.1328 I-0.8574 J-2.8723
G1 X22.1134 Y30.1623
G1 X22.1244 Y30.3019
G1 X23.0028 Y30.2324
G3 X23.0669 Y29.7988 I2.967 J0.2166
G3 X22.0441 Y29.9939 I-1.038 J-2.6623
G3 X22.0228 I-0.0107 J-1.9947
G3 X21.9726 Y29.9932 I0.0152 J-2.8575
G1 X21.974 Y30.3138
G1 X22.1244 Y30.3019
G1 X22.1354 Y30.4415
G1 X23.1363 Y30.3623
G3 X23.2658 Y29.5977 I2.8336 J0.0867
G1 X23.2575 Y29.5604
G3 X22.0434 Y29.8539 I-1.2286 J-2.4239
G3 X22.0236 I-0.0099 J-1.8547
G3 X21.832 Y29.8462 I0.0145 J-2.7175
G1 X21.8347 Y30.4653
G1 X22.1354 Y30.4415
G1 X22.1465 Y30.581
G1 X23.2754 Y30.4917
G3 X23.275 Y30.4524 I2.7091 J-0.0479
G3 Y30.4435 I1.7147 J-0.0054
G3 X23.4107 Y29.6044 I2.6949 J0.0055
G1 X23.3534 Y29.3476
G3 X22.0426 Y29.714 I-1.3245 J-2.2112
G3 X22.0243 I-0.0092 J-1.7147
G3 X21.6913 Y29.6905 I0.0137 J-2.5775
G1 X21.6954 Y30.6167
G1 X22.1465 Y30.581
G1 X22.1575 Y30.7206
G1 X23.421 Y30.6206
G3 X23.415 Y30.4519 I2.5634 J-0.1768
G3 Y30.4438 I1.5747 J-0.0049
G3 X23.5559 Y29.6121 I2.5549 J0.0052
G1 X23.4459 Y29.1198
G3 X22.0419 Y29.574 I-1.4171 J-1.9833
G3 X22.0251 I-0.0084 J-1.5747
G3 X21.5505 Y29.5247 I0.013 J-2.4375
G1 X21.556 Y30.7682
G1 X22.1575 Y30.7206
G1 X22.1686 Y30.8602
G1 X23.5742 Y30.749
G3 X23.555 Y30.4515 I2.4103 J-0.3051
G3 Y30.4441 I1.4347 J-0.0045
G3 X23.7013 Y29.621 I2.4149 J0.005
G1 X23.5341 Y28.8722
G3 X22.0411 Y29.434 I-1.5052 J-1.7358
G3 X22.0258 I-0.0077 J-1.4347
G3 X21.4097 Y29.3464 I0.0123 J-2.2975
G1 X21.4167 Y30.9196
G1 X22.1686 Y30.8602
G1 X22.1796 Y30.9997
G1 X23.7362 Y30.8766
G3 X23.695 Y30.4511 I2.2482 J-0.4327
G3 Y30.4443 I1.2947 J-0.0041
G3 X23.8471 Y29.6311 I2.2749 J0.0047
G1 X23.6162 Y28.5977
G3 X22.0404 Y29.294 I-1.5874 J-1.4612
G3 X22.0266 I-0.0069 J-1.2947
G3 X21.2689 Y29.1522 I0.0115 J-2.1575
G1 X21.2774 Y31.0711
G1 X22.1796 Y30.9997
G1 X22.1906 Y31.1393
G1 X23.909 Y31.0034
G3 X23.835 Y30.4506 I2.0754 J-0.5595
G3 Y30.4446 I1.1547 J-0.0036
G3 X23.9931 Y29.6427 I2.1349 J0.0044
G1 X23.6893 Y28.2825
G3 X22.0396 Y29.154 I-1.6604 J-1.146
G3 X22.0273 I-0.0062 J-1.1547
G3 X21.1279 Y28.937 I0.0108 J-2.0175
G1 X21.1381 Y31.2226
G1 X22.1906 Y31.1393
G1 X22.2017 Y31.2789
G1 X24.0954 Y31.1291
G3 X23.975 Y30.4502 I1.8891 J-0.6852
G3 Y30.4449 I1.0147 J-0.0032
G3 X24.1395 Y29.6557 I1.9949 J0.0041
G1 X23.7462 Y27.8953
G3 X22.0389 Y29.014 I-1.7173 J-0.7588
G3 X22.0281 I-0.0054 J-1.0147
G3 X20.9868 Y28.6921 I0.01 J-1.8775
G1 X20.9987 Y31.374
G1 X22.2017 Y31.2789
G1 X22.2127 Y31.4184
G1 X24.2993 Y31.2534
G3 X24.115 Y30.4497 I1.6852 J-0.8095
G3 Y30.4452 I0.8747 J-0.0027
G3 X24.2862 Y29.6705 I1.8549 J0.0038
G1 X23.7581 Y27.3062
G3 X22.0381 Y28.874 I-1.7292 J-0.1697
G3 X22.0288 I-0.0047 J-0.8747
G3 X20.8455 Y28.4001 I0.0093 J-1.7375
G1 X20.8594 Y31.5203
G3 Y31.5255 I-0.8747 J0.0039
G1 X22.2127 Y31.4184
G0 Z3.0
G0 X26.9081 Y31.5532
G0 Z1.25
G1 Z-0.15
G2 X28.7308 Y31.5707 I10.5079 J-1002.7199
G2 X27.0213 Y31.5167 I-2.1778 J41.8397
G3 X26.9528 Y31.514 I0.0076 J-1.0647
G3 X26.9081 Y31.5532 I-0.9769 J-1.0681
G1 X26.9066 Y31.6932
G2 X29.8821 Y31.72 I10.5094 J-1002.8599
G1 X30.369 Y31.723
G1 X32.0742 Y31.7287
G1 X32.2865
G1 X33.0319 Y31.7263
G1 X33.0346
G2 X30.1747 Y31.5141 I-13.4625 J162.0789
G1 X29.7797 Y31.4892
G1 X29.4346 Y31.4687
G1 X28.8291 Y31.4357
G2 X27.0226 Y31.3767 I-2.2761 J41.9747
G3 X26.9028 Y31.368 I0.0063 J-0.9247
G3 X26.3853 Y31.6876 I-0.9269 J-0.9221
G2 X26.9066 Y31.6932 I11.0307 J-1002.8543
G0 Z3.0
G0 X27.0606 Y29.1039
G0 Z1.25
G1 Z-0.15
G3 X28.5559 Y29.0152 I13.8397 J220.6278
G2 X27.7838 Y28.9573 I-2.8487 J32.8294
G3 X27.7062 Y28.959 I-0.0677 J-1.3571
G3 X26.9761 Y28.7374 I0.0095 J-1.3447
G1 X27.0573 Y29.1013
G3 X27.0606 Y29.1039 I-1.0839 J1.3529
G1 X26.9728 Y29.213
G3 X27.0138 Y29.2471 I-0.9994 J1.2412
G3 X28.6841 Y29.1483 I13.8865 J220.4846
G1 X29.9488 Y29.0764
G3 X29.9502 Y29.0763 I0.0337 J0.5938
G1 X30.2749 Y29.0586
G1 X29.6661 Y28.9878
G1 X29.4243 Y28.9613
G3 X29.4225 Y28.9611 I0.065 J-0.5912
G2 X27.7845 Y28.8171 I-3.7153 J32.8835
G3 X27.7072 Y28.819 I-0.0684 J-1.2169
G3 X26.7396 Y28.3204 I0.0085 J-1.2047
G1 X26.9266 Y29.1583
G3 X26.9317 Y29.1809 I-1.1727 J0.2752
G3 X26.9728 Y29.213 I-0.9582 J1.2732
G1 X26.885 Y29.322
G3 X26.9628 Y29.3893 I-0.9116 J1.1321
G3 X27.015 Y29.3873 I0.0668 J1.0627
G3 X28.692 Y29.2881 I13.8853 J220.3444
G1 X29.9568 Y29.2162
G3 X29.9578 Y29.2161 I0.0258 J0.454
G1 X30.9068 Y29.1644
G3 X30.9086 Y29.1643 I0.0248 J0.454
G1 X31.8395 Y29.1171
G1 X31.6807 Y29.0958
G1 X31.1891 Y29.0313
G1 X30.3277 Y28.9238
G1 X29.6818 Y28.8487
G1 X29.4396 Y28.8221
G3 X29.4382 Y28.8219 I0.0497 J-0.452
G2 X27.7847 Y28.6768 I-3.731 J33.0226
G3 X27.7082 Y28.679 I-0.0686 J-1.0766
G3 X26.6994 Y27.932 I0.0075 J-1.0647
G3 X26.6974 Y27.9253 I0.434 J-0.1357
G1 X26.0605 Y25.9206
G1 X26.7901 Y29.1895
G3 X26.8045 Y29.2617 I-1.0362 J0.2439
G3 X26.885 Y29.322 I-0.831 J1.1925
G0 Z3.0
G0 X28.601 Y26.4205
G0 Z1.25
G1 Z-0.15
G1 X28.6307 Y26.4202
G3 X28.5964 Y26.4061 I0.441 J-1.1213
G1 X28.601 Y26.4205
G1 X28.6026 Y26.5605
G1 X30.9684 Y26.5333
G1 X31.3146 Y26.5291
G1 X31.143 Y26.5102
G1 X30.6355 Y26.4584
G3 X30.6291 Y26.4577 I0.0462 J-0.4524
G2 X30.4583 Y26.4417 I-0.439 J3.7756
G3 X30.4513 Y26.4412 I0.0321 J-0.4536
G2 X29.7908 Y26.3885 I-4.3601 J50.5265
G1 X29.4602 Y26.3693
G2 X29.171 Y26.3582 I-0.5562 J10.777
G3 X29.0555 Y26.3637 I-0.1077 J-1.0599
G3 X29.0493 Y26.3636 I0.0033 J-0.4547
G3 X28.4459 Y26.1605 I0.0225 J-1.0646
G3 X28.346 Y26.0805 I0.6148 J-0.8693
G1 X28.499 Y26.5617
G1 X28.6026 Y26.5605
G0 Z3.0
G0 X30.0565 Y23.9139
G0 Z1.25
G1 Z-0.15
G1 X30.4323 Y23.8861
G2 X30.3406 Y23.8762 I-0.3773 J3.0535
G3 X30.0365 Y23.8478 I-0.0277 J-1.3445
G1 X30.0565 Y23.9139
G1 X30.0669 Y24.0536
G1 X30.9425 Y23.9887
G3 X30.9441 Y23.9886 I0.0439 J0.5931
G1 X31.617 Y23.9406
G2 X31.2287 Y23.8659 I-5.0195 J25.0463
G3 X31.225 Y23.8652 I0.1078 J-0.5849
G2 X30.7652 Y23.7899 I-1.6628 J8.7073
G1 X30.519 Y23.7565
G3 X30.514 Y23.7558 I0.0799 J-0.5893
G2 X30.3454 Y23.736 I-0.459 J3.1838
G3 X29.8253 Y23.6334 I-0.0324 J-1.2044
G1 X29.9551 Y24.0619
G1 X30.0108 Y24.0577
G3 X30.0121 Y24.0576 I0.0452 J0.593
G1 X30.0669 Y24.0536
G1 X30.0772 Y24.1932
G1 X30.9528 Y24.1284
G3 X30.954 Y24.1283 I0.0336 J0.4535
G1 X31.6521 Y24.0785
G3 X31.6541 Y24.0783 I0.0324 J0.4536
G1 X32.6022 Y24.0149
G1 X32.4842 Y23.9865
G1 X32.2107 Y23.9235
G2 X31.2541 Y23.7282 I-5.6132 J25.0634
G3 X31.2512 Y23.7277 I0.0824 J-0.4472
G2 X30.7841 Y23.6512 I-1.6891 J8.8448
G1 X30.5378 Y23.6178
G3 X30.534 Y23.6173 I0.0611 J-0.4506
G2 X30.3496 Y23.5959 I-0.479 J3.3224
G3 X30.346 Y23.596 I-0.0185 J-0.58
G3 X29.7293 Y23.4223 I-0.0331 J-1.0643
G3 X29.5807 Y23.3088 I0.5693 J-0.8998
G1 X29.8537 Y24.2101
G1 X30.0214 Y24.1973
G3 X30.0224 Y24.1972 I0.0345 J0.4534
G1 X30.0772 Y24.1932
G0 Z3.0
G0 X31.1482 Y21.4907
G0 Z1.25
G1 Z-0.15
G1 X31.1544 Y21.4905
G3 X31.1552 I0.0157 J0.4545
G1 X31.3771 Y21.4832
G3 X31.0756 Y21.2036 I0.125 J-0.4372
G1 X31.1482 Y21.4907
G0 Z3.0
G0 X28.5591 Y19.9369
G0 Z1.25
G1 Z-0.15
G1 X28.2285 Y18.6292
G1 X27.7505 Y18.6097
G1 X26.9961 Y18.5842
G1 X27.0539 Y18.5914
G1 X27.4903 Y18.6414
G3 X27.5085 Y18.6439 I-0.0518 J0.4518
G3 X28.3936 Y19.3906 I-0.1337 J1.0564
G3 X28.3937 Y19.391 I-0.4351 J0.1323
G1 X28.5591 Y19.9369
G1 X28.6948 Y19.9026
G1 X28.3386 Y18.4936
G1 X27.7557 Y18.4698
G1 X26.3242 Y18.4214
G2 X24.5357 Y18.371 I-22.0162 J749.758
G2 X25.4108 Y18.5053 I20.8098 J-132.7491
G3 X25.4112 I-0.0467 J0.3112
G2 X25.9259 Y18.5809 I9.125 J-60.3437
G1 X26.313 Y18.6355
G1 X26.894 Y18.7126
G1 X27.0373 Y18.7304
G1 X27.4743 Y18.7805
G3 X27.4888 Y18.7825 I-0.0359 J0.3127
G3 X28.2596 Y19.4313 I-0.114 J0.9178
G3 X28.2597 Y19.4316 I-0.3011 J0.0915
G1 X29.7523 Y24.3582
G1 X30.0321 Y24.3369
G3 X30.0327 Y24.3368 I0.0239 J0.3138
G1 X30.9632 Y24.268
G3 X30.964 Y24.2679 I0.0232 J0.3139
G1 X31.6621 Y24.2181
G3 X31.6635 Y24.218 I0.0224 J0.3139
G1 X32.7106 Y24.148
G3 X32.7124 Y24.1479 I0.021 J0.314
G1 X32.9744 Y24.1319
G3 X32.9761 Y24.1318 I0.0192 J0.3141
G1 X33.3678 Y24.1101
G3 X33.5104 Y24.1022 I0.5215 J8.1168
G1 X33.1854 Y24.0156
G1 X32.829 Y23.9256
G1 X32.5164 Y23.8502
G1 X32.2417 Y23.7869
G2 X31.2795 Y23.5906 I-5.6442 J25.1999
G3 X31.2775 Y23.5902 I0.0571 J-0.3095
G2 X30.803 Y23.5124 I-1.7153 J8.9823
G1 X30.5566 Y23.4791
G3 X30.554 Y23.4787 I0.0423 J-0.3119
G2 X30.3529 Y23.4556 I-0.499 J3.461
G3 X30.3421 Y23.456 I-0.0218 J-0.4398
G3 X29.8051 Y23.3045 I-0.0291 J-0.9244
G3 X29.3772 Y22.6016 I0.4935 J-0.7821
G1 X28.6948 Y19.9026
G0 Z3.0
G0 X30.3898 Y18.4917
G0 Z1.25
G1 Z-0.15
G3 X30.1506 Y17.4876 I70.5574 J-17.344
G3 X29.9911 Y16.7743 I25.588 J-6.0968
G1 X29.7392 Y16.7711
G3 X30.0407 Y17.1693 I-0.6745 J0.8238
G3 X30.1197 Y17.4233 I-0.9712 J0.4414
G1 X30.3898 Y18.4917
G1 X30.2541 Y18.526
G1 X31.0401 Y21.6346
G1 X31.1592 Y21.6305
G3 X31.1598 Y21.6304 I0.0108 J0.3145
G1 X32.4645 Y21.5877
G3 X32.4651 I0.0103 J0.3146
G1 X32.6283 Y21.5826
G3 X32.6288 I0.0097 J0.3146
G1 X33.1918 Y21.5661
G3 X33.1737 Y21.564 I1.9009 J-16.5021
G3 X31.4621 Y21.3582 I12.4181 J-110.4799
G3 X31.1972 Y21.124 I0.04 J-0.3122
G1 X30.8962 Y19.9472
G3 X30.8958 Y19.9457 I0.3049 J-0.078
G1 X30.6744 Y19.0618
G3 X30.6741 Y19.0609 I0.3053 J-0.0765
G1 X30.6331 Y18.895
G3 X30.633 Y18.8948 I0.3055 J-0.0756
G1 X30.6138 Y18.817
G3 X30.6137 Y18.8166 I0.3056 J-0.0754
G1 X30.5399 Y18.5154
G3 X30.2869 Y17.4557 I70.4073 J-17.3677
G3 X30.1054 Y16.6358 I25.4517 J-6.0648
G1 X30.1017
G3 X30.0991 Y16.6357 I0.0015 J-0.3147
G1 X29.5944 Y16.6292
G3 X29.592 Y16.6291 I0.0041 J-0.3147
G3 X27.7411 Y16.5778 I2.6893 J-130.3015
G2 X28.9586 Y16.6762 I4.9455 J-53.5684
G3 X29.9128 Y17.2262 I0.1061 J0.9186
G3 X29.9827 Y17.4526 I-0.8433 J0.3844
G1 X30.2541 Y18.526
G0 Z3.0
G0 X32.4889 Y18.4233
G0 Z1.25
G1 Z-0.15
G1 X32.5509 Y18.7367
G2 X32.7722 Y18.8099 I0.7672 J-1.9467
G3 X32.4889 Y18.4233 I1.012 J-1.0385
G0 Z3.0
G0 X32.4334 Y16.6982
G0 Z1.25
G1 Z-0.15
G3 X32.6143 Y16.5047 I1.3498 J1.0807
G3 X32.3278 Y16.1641 I1.1694 J-1.2744
G1 X32.4334 Y16.6982
G0 Z3.0
G0 X31.9188 Y14.489
G0 Z1.25
G1 Z-0.15
G3 X31.9272 Y14.4685 I1.8655 J0.7489
G3 X31.9052 Y14.4777 I-0.4038 J-0.9309
G3 X31.9188 Y14.489 I-0.9722 J1.1851
G1 X32.0487 Y14.5412
G3 X32.416 Y13.963 I1.7356 J0.6967
G3 X32.3333 Y13.8681 I1.3678 J-1.2747
G3 X31.548 Y14.4119 I-0.8099 J-0.3305
G3 X31.6223 Y14.4525 I-0.6739 J1.323
G3 X31.9803 Y14.7446 I-0.6894 J1.2103
G3 X32.0487 Y14.5412 I1.804 J0.4933
G0 Z3.0
G0 X32.2724 Y11.855
G0 Z1.25
G1 Z-0.15
G3 X32.6144 Y11.4217 I1.5108 J0.8409
G3 X32.2796 Y11.001 I1.1697 J-1.2747
G1 X32.2724 Y11.855
G0 Z3.0
G0 X34.9453 Y11.4217
G0 Z1.25
G1 Z-0.15
G3 X35.0506 Y11.527 I-1.1688 J1.2744
G3 X35.1559 Y11.4217 I1.274 J1.169
G3 X35.0506 Y11.3164 I1.1697 J-1.2747
G3 X34.9453 Y11.4217 I-1.2751 J-1.1695
G1 X34.8507 Y11.3186
G3 X34.726 Y11.4217 I-1.0751 J-1.1717
G3 X35.0506 Y11.7462 I-0.9495 J1.2744
G3 X35.3751 Y11.4217 I1.274 J0.9498
G3 X35.0506 Y11.0971 I0.9504 J-1.2747
G3 X34.8507 Y11.3186 I-1.2751 J-0.9502
G1 X34.756 Y11.2154
G3 X34.4667 Y11.4218 I-0.9805 J-1.0685
G3 X35.0506 Y12.0055 I-0.6902 J1.2743
G3 X35.6345 Y11.4218 I1.274 J0.6905
G3 X35.0506 Y10.8377 I0.6911 J-1.2748
G3 X34.756 Y11.2154 I-1.2751 J-0.6909
G1 X34.6614 Y11.1122
G3 X34.0772 Y11.4219 I-0.8858 J-0.9654
G3 X35.0506 Y12.3949 I-0.3007 J1.2742
G3 X36.024 Y11.4219 I1.274 J0.3011
G3 X35.0506 Y10.4482 I0.3016 J-1.2748
G3 X34.6614 Y11.1122 I-1.2751 J-0.3013
G0 Z3.0
G0 X35.0506 Y13.8576
G0 Z1.25
G1 Z-0.15
G3 X34.9453 Y13.963 I-1.2745 J-1.1693
G3 X35.0507 Y14.0684 I-1.1696 J1.2748
G3 X35.1561 Y13.963 I1.2751 J1.1695
G3 X35.0506 Y13.8576 I1.1691 J-1.2747
G1 X34.9475 Y13.763
G3 X34.726 Y13.9629 I-1.1714 J-1.0746
G3 X35.0507 Y14.2877 I-0.9503 J1.2748
G3 X35.3753 Y13.963 I1.2751 J0.9502
G3 X35.0506 Y13.6383 I0.9498 J-1.2747
G3 X34.9475 Y13.763 I-1.2745 J-0.95
G1 X34.8443 Y13.6683
G3 X34.4667 Y13.9629 I-1.0682 J-0.98
G3 X35.0507 Y14.5471 I-0.6909 J1.2748
G3 X35.6347 Y13.963 I1.2751 J0.6909
G3 X35.0506 Y13.379 I0.6905 J-1.2746
G3 X34.8443 Y13.6683 I-1.2745 J-0.6907
G1 X34.7412 Y13.5737
G3 X34.0772 Y13.9629 I-0.9651 J-0.8854
G3 X35.0507 Y14.9366 I-0.3015 J1.2749
G3 X36.0242 Y13.9629 I1.2751 J0.3013
G3 X35.0506 Y12.9895 I0.301 J-1.2746
G3 X34.7412 Y13.5737 I-1.2745 J-0.3012
G0 Z3.0
G0 X35.0506 Y16.1803
G0 Z1.25
G1 Z-0.15
G3 X35.0374 Y16.1977 I-1.2746 J-0.95
G1 X35.0639 Y16.1978
G3 X35.0506 Y16.1803 I1.2613 J-0.9675
G1 X35.1629 Y16.0966
G3 X35.0506 Y15.9209 I1.1623 J-0.8663
G3 X34.7126 Y16.3368 I-1.2746 J-0.6907
G1 X35.3685 Y16.3387
G1 X35.3908 Y16.3386
G3 X35.1629 Y16.0966 I0.9344 J-1.1083
G1 X35.2751 Y16.013
G3 X35.0506 Y15.5315 I1.05 J-0.7827
G3 X34.1871 Y16.4738 I-1.2746 J-0.3012
G1 X34.4173 Y16.476
G1 X35.3685 Y16.4787
G1 X35.4272 Y16.4785
G3 X35.4329 Y16.4786 I0.0008 J0.3147
G2 X35.6438 Y16.4777 I0.083 J-5.3357
G3 X35.6477 Y16.4776 I0.0075 J0.3146
G1 X35.9164 Y16.4745
G3 X35.2751 Y16.013 I0.4088 J-1.2442
G0 Z3.0
G0 X37.4869 Y16.5047
G0 Z1.25
G1 Z-0.15
G3 X37.7286 Y16.7788 I-1.169 J1.2743
G1 X37.7242 Y16.6424
G3 X38.1524 Y15.9509 I0.7343 J-0.0235
G3 X38.0525 Y15.6231 I0.6335 J-0.3721
G1 X38.039 Y15.3985
G3 X37.4869 Y16.5047 I-1.7215 J-0.1682
G0 Z3.0
G0 X37.7895 Y18.6797
G0 Z1.25
G1 Z-0.15
G3 X37.4868 Y19.046 I-1.4725 J-0.9085
G3 X37.8143 Y19.4537 I-1.1697 J1.2747
G1 X37.7895 Y18.6797
G0 Z3.0
G0 X35.0637 Y19.3534
G0 Z1.25
G1 Z-0.15
G1 X35.0377
G3 X35.0507 Y19.3706 I-1.262 J0.9673
G3 X35.0637 Y19.3534 I1.275 J0.9503
G1 X35.1748 Y19.4386
G3 X35.3883 Y19.2143 I1.151 J0.8822
G1 X34.7329 Y19.2125
G1 X34.711 Y19.2126
G3 X35.0507 Y19.63 I-0.9352 J1.1081
G3 X35.1748 Y19.4386 I1.2751 J0.6909
G1 X35.2859 Y19.5238
G3 X35.9128 Y19.0774 I1.0399 J0.7971
G1 X35.684 Y19.0752
G1 X34.7329 Y19.0725
G1 X34.6741 Y19.0726
G3 X34.6682 I-0.0008 J-0.3147
G2 X34.4577 Y19.0735 I-0.0836 J5.1261
G3 X34.4536 Y19.0736 I-0.0078 J-0.3146
G1 X34.1864 Y19.0767
G3 X35.0507 Y20.0195 I-0.4107 J1.244
G3 X35.2859 Y19.5238 I1.2751 J0.3014
G0 Z3.0
G0 X35.0507 Y21.4822
G0 Z1.25
G1 Z-0.15
G3 X34.9455 Y21.5874 I-1.274 J-1.1691
G3 X35.0506 Y21.6925 I-1.1695 J1.2744
G3 X35.1558 Y21.5873 I1.2746 J1.1693
G3 X35.0507 Y21.4822 I1.169 J-1.2743
G1 X35.1538 Y21.3876
G3 X35.0507 Y21.263 I1.1709 J-1.0745
G3 X34.7263 Y21.5873 I-1.274 J-0.9498
G3 X35.0506 Y21.9117 I-0.9502 J1.2744
G3 X35.375 Y21.5873 I1.2746 J0.95
G3 X35.1538 Y21.3876 I0.9497 J-1.2742
G1 X35.257 Y21.2929
G3 X35.0507 Y21.0037 I1.0678 J-0.9799
G3 X34.467 Y21.5873 I-1.274 J-0.6905
G3 X35.0506 Y22.1711 I-0.6909 J1.2744
G3 X35.6344 Y21.5873 I1.2746 J0.6907
G3 X35.257 Y21.2929 I0.6904 J-1.2742
G1 X35.3601 Y21.1983
G3 X35.0507 Y20.6143 I0.9646 J-0.8852
G3 X34.0775 Y21.5873 I-1.274 J-0.3011
G3 X35.0506 Y22.5606 I-0.3014 J1.2745
G3 X36.0238 Y21.5872 I1.2746 J0.3012
G3 X35.3601 Y21.1983 I0.301 J-1.2742
G0 Z3.0
G0 X37.6856 Y21.5874
G0 Z1.25
G1 Z-0.15
G3 X37.7447 Y21.6539 I-1.368 J1.2744
G1 X37.7406 Y21.5256
G3 X37.6856 Y21.5874 I-1.4225 J-1.2125
G1 X37.5831 Y21.6828
G3 X37.9012 Y22.1662 I-1.2656 J1.179
G1 X37.8665 Y21.0828
G3 X37.487 Y21.5873 I-1.5484 J-0.7696
G3 X37.5831 Y21.6828 I-1.1694 J1.2744
G0 Z3.0
G0 X37.8188 Y23.9686
G0 Z1.25
G1 Z-0.15
G3 X37.6854 Y24.1289 I-1.5019 J-1.1145
G3 X37.8296 Y24.3038 I-1.3674 J1.2744
G1 X37.8188 Y23.9686
G1 X37.7064 Y23.8851
G3 X37.4868 Y24.1289 I-1.3894 J-1.0311
G3 X37.9909 Y24.9656 I-1.1688 J1.2744
G1 X37.9422 Y23.4475
G3 X37.7064 Y23.8851 I-1.6252 J-0.5935
G0 Z3.0
G0 X37.8966 Y26.3965
G0 Z1.25
G1 Z-0.15
G3 X37.6853 Y26.6702 I-1.5791 J-1.001
G3 X37.9151 Y26.9737 I-1.3682 J1.2748
G1 X37.8966 Y26.3965
G0 Z3.0
G0 X38.1427 Y28.343
G0 Z1.25
G1 Z-0.15
G3 X38.0862 Y28.5438 I-1.8252 J-0.4055
G1 X38.362 Y28.5325
G3 X38.1427 Y28.343 I0.4543 J-0.7475
G0 Z3.0
G0 X35.0639 Y28.9051
G0 Z1.25
G1 Z-0.15
G3 X35.0506 Y28.8875 I1.2613 J-0.9675
G3 X35.0374 Y28.905 I-1.2746 J-0.95
G1 X35.0639 Y28.9051
G1 X35.0635 Y29.0451
G1 X35.3684 Y29.0459
G1 X35.3908
G3 X35.0506 Y28.6282 I0.9344 J-1.1083
G3 X34.7126 Y29.0441 I-1.2746 J-0.6907
G1 X35.0635 Y29.0451
G1 X35.0631 Y29.1851
G1 X35.3683 Y29.1859
G1 X35.4271 Y29.1858
G3 X35.4327 I0.0008 J0.3147
G2 X35.6438 Y29.1849 I0.0828 J-5.4089
G3 X35.6476 Y29.1848 I0.0075 J0.3146
G1 X35.9163 Y29.1817
G3 X35.0506 Y28.2387 I0.4088 J-1.2442
G3 X34.1871 Y29.181 I-1.2746 J-0.3012
G1 X34.4173 Y29.1833
G1 X35.0631 Y29.1851
G0 Z3.0
G0 X35.0507 Y26.7756
G0 Z1.25
G1 Z-0.15
G3 X35.1561 Y26.6702 I1.2751 J1.1695
G3 X35.0506 Y26.5648 I1.1691 J-1.2747
G3 X34.9453 Y26.6702 I-1.2745 J-1.1693
G3 X35.0507 Y26.7756 I-1.1696 J1.2748
G1 X35.1539 Y26.8703
G3 X35.3754 Y26.6702 I1.1719 J1.0749
G3 X35.0506 Y26.3455 I0.9498 J-1.2747
G3 X34.726 Y26.6702 I-1.2745 J-0.95
G3 X35.0507 Y26.9949 I-0.9503 J1.2748
G3 X35.1539 Y26.8703 I1.2751 J0.9502
G1 X35.257 Y26.9649
G3 X35.6347 Y26.6702 I1.0687 J0.9803
G3 X35.0506 Y26.0862 I0.6905 J-1.2747
G3 X34.4666 Y26.6702 I-1.2745 J-0.6907
G3 X35.0507 Y27.2543 I-0.6909 J1.2749
G3 X35.257 Y26.9649 I1.2751 J0.6909
G1 X35.3602 Y27.0595
G3 X36.0242 Y26.6701 I0.9655 J0.8856
G3 X35.0506 Y25.6967 I0.3009 J-1.2746
G3 X34.0771 Y26.6701 I-1.2745 J-0.3012
G3 X35.0507 Y27.6439 I-0.3014 J1.2749
G3 X35.3602 Y27.0595 I1.2751 J0.3013
G0 Z3.0
G0 X35.0506 Y24.2342
G0 Z1.25
G1 Z-0.15
G3 X35.1559 Y24.1289 I1.274 J1.169
G3 X35.0506 Y24.0236 I1.1697 J-1.2747
G3 X34.9453 Y24.1289 I-1.2751 J-1.1695
G3 X35.0506 Y24.2342 I-1.1688 J1.2744
G1 X34.9474 Y24.3288
G3 X35.0506 Y24.4534 I-1.171 J1.0745
G3 X35.3751 Y24.1289 I1.274 J0.9498
G3 X35.0506 Y23.8043 I0.9505 J-1.2747
G3 X34.726 Y24.129 I-1.2751 J-0.9502
G3 X34.9474 Y24.3288 I-0.9495 J1.2744
G1 X34.8443 Y24.4235
G3 X35.0506 Y24.7127 I-1.0678 J0.9799
G3 X35.6345 Y24.129 I1.274 J0.6905
G3 X35.0506 Y23.5449 I0.6911 J-1.2748
G3 X34.4667 Y24.129 I-1.2751 J-0.6908
G3 X34.8443 Y24.4235 I-0.6902 J1.2743
G1 X34.7411 Y24.5181
G3 X35.0506 Y25.1021 I-0.9646 J0.8852
G3 X36.0239 Y24.1291 I1.274 J0.3011
G3 X35.0506 Y23.1554 I0.3016 J-1.2748
G3 X34.0772 Y24.1291 I-1.2751 J-0.3013
G3 X34.7411 Y24.5181 I-0.3007 J1.2743
G0 Z3.0
G0 X26.6226 Y20.8902
G0 Z1.25
G1 Z-0.15
G1 X26.5591 Y20.6804
G3 X26.5577 Y20.6802 I0.0457 J-0.4524
G2 X26.3608 Y20.6605 I-2.752 J26.4422
G3 X26.6226 Y20.8902 I-0.5617 J0.9045
G1 X26.5144 Y20.9789
G3 X26.7048 Y21.3786 I-0.7153 J0.5861
G1 X28.3969 Y26.7029
G1 X30.9701 Y26.6733
G1 X31.3207 Y26.6691
G1 X31.9344 Y26.6614
G1 X32.8549 Y26.6492
G1 X33.3148 Y26.6425
G1 X33.3195
G1 X33.1602 Y26.6197
G1 X32.6569 Y26.5516
G2 X32.2182 Y26.4952 I-7.6602 J57.773
G1 X31.4459 Y26.4028
G1 X31.1578 Y26.3709
G1 X30.6497 Y26.3191
G3 X30.6453 Y26.3186 I0.0319 J-0.3131
G2 X30.4682 Y26.3021 I-0.4551 J3.9147
G3 X30.4633 Y26.3017 I0.0222 J-0.3139
G2 X29.8 Y26.2488 I-4.3721 J50.6659
G1 X29.4679 Y26.2295
G2 X29.1653 Y26.2181 I-0.5638 J10.9168
G3 X29.0565 Y26.2237 I-0.102 J-0.9197
G3 X29.0522 Y26.2236 I0.0023 J-0.3147
G3 X28.5275 Y26.0468 I0.0195 J-0.9247
G3 X28.1482 Y25.4412 I0.5332 J-0.7555
G1 X26.6661 Y20.5507
G2 X26.574 Y20.5412 I-0.8408 J7.6261
G3 X26.5722 Y20.541 I0.0307 J-0.3132
G2 X26.0097 Y20.4884 I-2.7665 J26.5814
G1 X25.7608 Y20.469
G2 X25.2984 Y20.4375 I-1.8703 J23.9963
G3 X25.2974 Y20.4374 I0.0184 J-0.3142
G1 X25.1952 Y20.4311
G1 X25.0966 Y20.4252
G1 X24.9053 Y20.4143
G1 X24.5462 Y20.3955
G1 X24.1809 Y20.3789
G2 X24.3171 Y20.4029 I2.0297 J-11.1496
G3 X24.3182 Y20.4031 I-0.0526 J0.3103
G1 X24.7145 Y20.4717
G3 X24.7157 Y20.4719 I-0.0537 J0.3101
G2 X25.3008 Y20.5653 I3.0286 J-17.0949
G3 X25.3019 Y20.5654 I-0.0443 J0.3116
G1 X25.4505 Y20.5871
G1 X25.5058 Y20.5949
G3 X25.5161 Y20.5966 I-0.044 J0.3116
G2 X25.591 Y20.6068 I0.1751 J-0.9987
G3 X25.5988 Y20.6077 I-0.0311 J0.3132
G1 X25.8898 Y20.644
G3 X25.9825 Y20.6578 I-0.1071 J1.0394
G3 X25.9921 Y20.6598 I-0.0602 J0.3089
G1 X25.9971 Y20.661
G3 X26.018 Y20.6665 I-0.0698 J0.3069
G1 X26.0186 Y20.6667
G3 X26.5144 Y20.9789 I-0.2195 J0.8983
G0 Z3.0
G0 X24.9786 Y22.5155
G0 Z1.25
G1 Z-0.15
G2 X24.697 Y22.475 I-0.6992 J3.8623
G3 X24.696 Y22.4749 I0.0484 J-0.4521
G2 X24.346 Y22.442 I-1.2546 J11.4794
G2 X24.5369 Y22.4765 I1.4858 J-7.6832
G3 X24.8849 Y22.571 I-0.1011 J1.0597
G3 X24.9387 Y22.5968 I-0.4472 J1.0016
G3 X24.9566 Y22.6065 I-0.2077 J0.4045
G3 X25.0192 Y22.6433 I-0.508 J0.9357
G1 X24.9786 Y22.5155
G1 X25.112 Y22.4731
G1 X25.0866 Y22.3932
G2 X25.0763 Y22.3915 I-0.3511 J2.0025
G3 X25.068 Y22.3899 I0.0528 J-0.3103
G2 X24.7119 Y22.3358 I-0.7887 J3.9878
G3 X24.7112 Y22.3357 I0.0335 J-0.3129
G2 X23.3914 Y22.2666 I-1.2698 J11.6186
G3 X23.3892 I-0.0013 J-0.3147
G2 X23.0678 Y22.2685 I-0.0527 J18.9978
G2 X23.4782 Y22.3808 I5.9967 J-21.096
G1 X23.7434 Y22.449
G1 X23.9432 Y22.4972
G3 X23.9439 Y22.4974 I-0.0739 J0.3059
G2 X24.5188 Y22.6154 I1.8879 J-7.7386
G3 X24.8268 Y22.6984 I-0.083 J0.9208
G3 X24.8748 Y22.7214 I-0.3892 J0.8742
G3 X24.8884 Y22.7288 I-0.1438 J0.28
G3 X25.3707 Y23.4731 I-0.4398 J0.8134
G1 X26.6537 Y29.2209
G3 X26.674 Y29.3431 I-0.8997 J0.2126
G3 X26.9116 Y29.5348 I-0.7006 J1.1111
G3 X27.0202 Y29.5273 I0.1181 J0.9172
G3 X28.6998 Y29.4278 I13.8801 J220.2044
G1 X29.9647 Y29.356
G3 X29.9654 Y29.3559 I0.0179 J0.3142
G1 X30.9145 Y29.3042
G3 X30.9157 Y29.3041 I0.0171 J0.3143
G1 X32.3392 Y29.232
G3 X33.3611 Y29.1887 I2.6688 J50.9811
G1 X33.3609
G2 X31.9614 Y28.9922 I-35.4408 J247.3444
G1 X31.6991 Y28.957
G1 X31.2068 Y28.8925
G1 X30.3444 Y28.7848
G1 X29.6975 Y28.7096
G1 X29.4549 Y28.6829
G3 X29.4539 Y28.6828 I0.0344 J-0.3128
G2 X27.7843 Y28.5365 I-3.7467 J33.1618
G3 X27.7092 Y28.539 I-0.0682 J-0.9363
G3 X26.8331 Y27.8902 I0.0065 J-0.9247
G3 X26.8313 Y27.8844 I0.3004 J-0.0939
G1 X25.112 Y22.4731
G0 Z3.0
G0 X23.485 Y26.0836
G0 Z1.25
G1 Z-0.15
G3 X23.4468 Y26.1398 I-1.4552 J-0.9477
G3 X23.5242 Y26.259 I-1.417 J1.0039
G1 X23.485 Y26.0836
G1 X23.3677 Y26.0072
G3 X23.2713 Y26.1398 I-1.3379 J-0.8713
G3 X23.6264 Y27.1369 I-1.2415 J1.0039
G3 Y27.143 I-0.7347 J0.0031
G3 X22.0374 Y28.734 I-1.5975 J-0.0065
G3 X22.0296 I-0.0039 J-0.7347
G3 X20.7038 Y28.015 I0.0085 J-1.5975
G1 X20.7194 Y31.5209
G3 X20.703 Y31.6783 I-0.7347 J0.0033
G1 X24.5275 Y31.3757
G3 X24.255 Y30.4493 I1.457 J-0.9319
G3 Y30.4455 I0.7347 J-0.0023
G3 X24.4334 Y29.6873 I1.7149 J0.0035
G1 X23.5354 Y25.6671
G3 X23.3677 Y26.0072 I-1.5056 J-0.5312
G1 X23.2504 Y25.9308
G3 X23.0852 Y26.1398 I-1.2206 J-0.7949
G3 X23.4864 Y27.1374 I-1.0554 J1.0039
G3 Y27.1424 I-0.5947 J0.0025
G3 X22.0366 Y28.594 I-1.4575 J-0.0059
G3 X22.0303 I-0.0032 J-0.5947
G3 X20.5806 Y27.1424 I0.0078 J-1.4575
G3 Y27.1374 I0.5947 J-0.0024
G3 X20.8042 Y26.3681 I1.4566 J0.0062
G1 X20.5565 Y26.3731
G1 X20.5794 Y31.5215
G3 X20.4914 Y31.8355 I-0.5947 J0.0026
G1 X24.7923 Y31.4952
G3 X24.395 Y30.4489 I1.1921 J-1.0513
G3 Y30.4458 I0.5947 J-0.0019
G3 X24.5811 Y29.7063 I1.5749 J0.0032
G3 X24.5763 Y29.6847 I1.1731 J-0.2742
G1 X23.4321 Y24.5623
G2 X23.3877 Y24.5558 I-0.3137 J1.9691
G2 X23.3614 Y24.5525 I-0.4917 J3.8693
G3 X23.4864 Y25.1372 I-1.3325 J0.5906
G3 Y25.1421 I-0.5947 J0.0024
G3 X23.2504 Y25.9308 I-1.4565 J-0.0062
G1 X23.133 Y25.8544
G3 X22.8816 Y26.1398 I-1.1032 J-0.7185
G3 X23.3464 Y27.138 I-0.8518 J1.0039
G3 Y27.1418 I-0.4547 J0.0019
G3 X22.0359 Y28.454 I-1.3175 J-0.0053
G3 X22.031 I-0.0024 J-0.4547
G3 X20.7206 Y27.1418 I0.007 J-1.3175
G3 Y27.138 I0.4547 J-0.0018
G3 X21.0968 Y26.2222 I1.3166 J0.0056
G1 X20.4159 Y26.236
G1 X20.4394 Y31.5222
G3 X20.2507 Y31.893 I-0.4547 J0.002
G3 X20.0887 Y31.9761 I-0.3543 J-0.4912
G3 X20.0015 Y32.0039 I-0.2662 J-0.6834
G1 X19.9525 Y32.0185
G1 X25.1229 Y31.6095
G3 X24.535 Y30.4484 I0.8616 J-1.1656
G3 Y30.4461 I0.4547 J-0.0014
G3 X24.7307 Y29.7255 I1.4349 J0.0029
G3 X24.713 Y29.6548 I1.0235 J-0.2934
G1 X23.5485 Y24.4413
G2 X23.406 Y24.417 I-0.4301 J2.0901
G2 X23.1102 Y24.3903 I-0.51 J4.0081
G3 X23.3464 Y25.1377 I-1.0813 J0.7527
G3 Y25.1415 I-0.4547 J0.0018
G3 X23.133 Y25.8544 I-1.3166 J-0.0056
G0 Z3.0
G0 X20.6977 Y21.7055
G0 Z1.25
G1 Z-0.15
G3 X20.6411 Y21.5488 I1.3404 J-0.5724
G1 X20.6362 Y21.7064
G1 X20.6977 Y21.7055
G0 Z3.0
G0 X20.6695 Y20.6391
G0 Z1.25
G1 Z-0.15
G3 X20.9817 Y20.1364 I1.3676 J0.5012
G3 X20.6986 Y19.7068 I1.0554 J-1.0038
G1 X20.6695 Y20.6391
G0 Z3.0
G0 X20.7367 Y18.4833
G0 Z1.25
G1 Z-0.15
G3 X20.982 Y18.1352 I1.3013 J0.6564
G3 X20.7572 Y17.8264 I1.0551 J-1.0041
G1 X20.7367 Y18.4833
G0 Z3.0
G0 X20.8028 Y16.365
G0 Z1.25
G1 Z-0.15
G3 X20.982 Y16.1342 I1.2343 J0.7733
G3 X20.8165 Y15.9248 I1.0561 J-1.0045
G1 X20.8028 Y16.365
G0 Z3.0
G0 X20.8682 Y14.2678
G0 Z1.25
G1 Z-0.15
G3 X20.9817 Y14.133 I1.1689 J0.869
G3 X20.8763 Y14.0089 I1.0554 J-1.0039
G1 X20.8682 Y14.2678
G1 X20.9806 Y14.3514
G3 X21.1853 Y14.133 I1.0566 J0.7855
G3 X20.7544 Y13.4258 I0.8518 J-1.0039
G1 X20.4917 Y21.8486
G1 X20.9275 Y21.842
G3 X20.7206 Y21.1384 I1.1105 J-0.7089
G3 Y21.1346 I0.4547 J-0.0018
G3 X21.1853 Y20.1364 I1.3166 J0.0056
G3 X20.7206 Y19.1381 I0.8518 J-1.0038
G3 Y19.1344 I0.4547 J-0.0019
G3 X21.1856 Y18.1352 I1.3175 J0.0053
G3 X20.7206 Y17.1366 I0.8515 J-1.0041
G3 Y17.1328 I0.4547 J-0.0019
G3 X21.1856 Y16.1343 I1.3165 J0.0056
G3 X20.7206 Y15.1351 I0.8525 J-1.0045
G3 Y15.1313 I0.4547 J-0.0018
G3 X20.9806 Y14.3514 I1.3166 J0.0056
G0 Z3.0
G0 X20.9332 Y12.1858
G0 Z1.25
G1 Z-0.15
G3 X21.2286 Y11.9243 I1.1049 J0.9505
G1 X20.9432 Y11.8627
G1 X20.9332 Y12.1858
G1 X20.7932 Y12.1814
G1 X20.7752 Y12.761
G3 X21.6601 Y11.8742 I1.2629 J0.3753
G1 X20.8085 Y11.6904
G1 X20.7932 Y12.1814
G0 Z3.0
G0 X24.0461 Y13.1052
G0 Z1.25
G1 Z-0.15
G3 X24.0464 Y13.1281 I-2.0173 J0.0311
G3 Y13.1377 I-1.1547 J0.0047
G3 X24.0365 Y13.3284 I-2.0165 J-0.0086
G1 X25.1635 Y13.4472
G1 X26.048 Y13.5372
G1 X24.0461 Y13.1052
G1 X23.9062 Y13.1074
G3 X23.9064 Y13.1287 I-1.8773 J0.0289
G3 Y13.1371 I-1.0147 J0.0041
G3 X23.8783 Y13.4525 I-1.8765 J-0.008
G1 X25.149 Y13.5865
G1 X26.5838 Y13.7325
G1 X27.1206 Y13.7857
G1 X28.0617 Y13.8767
G1 X28.4548 Y13.9134
G1 X23.8949 Y12.9294
G3 X23.9062 Y13.1074 I-1.8661 J0.2069
G1 X23.7662 Y13.1095
G3 X23.7664 Y13.1293 I-1.7373 J0.0268
G3 Y13.1365 I-0.8747 J0.0035
G3 X23.7081 Y13.5754 I-1.7365 J-0.0074
G1 X25.1346 Y13.7257
G1 X26.5698 Y13.8718
G1 X27.1069 Y13.9251
G1 X28.0484 Y14.0161
G1 X28.753 Y14.0818
G1 X29.8106 Y14.175
G1 X30.3363 Y14.2178
G1 X30.6298 Y14.2396
G1 X23.7227 Y12.749
G3 X23.7662 Y13.1095 I-1.6938 J0.3873
G1 X23.6262 Y13.1117
G3 X23.6264 Y13.1298 I-1.5973 J0.0246
G3 Y13.1359 I-0.7347 J0.003
G3 X23.5222 Y13.6965 I-1.5965 J-0.0068
G1 X25.1202 Y13.865
G1 X26.5558 Y14.0111
G1 X27.0933 Y14.0644
G1 X28.0352 Y14.1555
G1 X28.7403 Y14.2213
G1 X29.7988 Y14.3145
G1 X30.3254 Y14.3574
G1 X30.7974 Y14.3924
G3 X31.5524 Y14.5738 I0.0767 J1.3426
G3 X32.0586 Y15.1127 I-0.6194 J1.089
G3 X32.6146 Y13.963 I1.7257 J0.1252
G3 X32.2584 Y13.5039 I1.1691 J-1.2747
G1 X32.2581 Y13.5438
G3 X31.3684 Y14.2557 I-0.7347 J-0.0062
G1 X23.5195 Y12.5619
G3 X23.6262 Y13.1117 I-1.4907 J0.5744
G0 Z3.0
G0 X25.2916 Y4.0153
G0 Z1.25
G1 Z-0.15
G1 X26.5097
G3 X26.8403 Y4.1578 I0.0 J0.4547
G1 Y3.7009
G3 X26.4402 Y3.9397 I-0.4001 J-0.216
G1 X25.2916
G1 Y4.0153
G0 Z3.0
G0 X25.4316 Y2.4953
G0 Z1.25
G1 Z-0.15
G1 X26.4402
G3 X26.7003 Y2.5552 I0.0 J0.5947
G1 Y2.4572
G3 X26.5505 Y2.4764 I-0.1498 J-0.5755
G1 X25.4316
G1 Y2.4953
G1 Y2.6353
G1 X26.4402
G3 X26.8403 Y2.8741 I0.0 J0.4547
G1 Y2.232
G3 X26.5505 Y2.3364 I-0.2898 J-0.3504
G1 X25.2916
G1 Y2.6353
G1 X25.4316
G0 Z3.0
G0 X23.7553 Y1.0845
G0 Z1.25
G1 Z-0.15
G3 X23.8974 Y0.9245 I0.6144 J0.4028
G1 X23.7515
G1 X23.7553 Y1.0845
G0 Z3.0
G0 X29.9924 Y1.0645
G0 Z1.25
G1 Z-0.15
G3 X30.0632 Y1.1132 I-1.1884 J1.8062
G3 X30.089 Y1.0645 I0.7854 J0.3852
G1 X29.9924
G1 X29.9154 Y1.1815
G3 X30.1302 Y1.3443 I-1.1114 J1.6893
G3 X30.3896 Y0.9245 I0.7184 J0.1541
G1 X29.3713
G3 X29.6378 Y1.0286 I-0.872 J2.6279
G3 X29.6391 Y1.0292 I-0.3021 J0.6697
G3 X29.9154 Y1.1815 I-0.8351 J1.8416
G0 Z3.0
G0 X32.7278 Y1.6245
G0 Z1.25
G1 Z-0.15
G1 Y1.6748
G3 X32.8008 Y1.6818 I-0.1 J1.4312
G1 X32.8001 Y1.6245
G1 X32.7278
G1 X32.5878
G1 Y1.8113
G1 X32.6278
G3 X32.9426 Y1.8502 I0.0 J1.2947
G1 X32.9386 Y1.4845
G1 X32.5877
G3 X32.5878 Y1.4983 I-1.2946 J0.0138
G1 Y1.6245
G1 X32.4478
G1 Y1.9513
G1 X32.6278
G3 X33.0848 Y2.0456 I0.0 J1.1547
G1 X33.0771 Y1.3445
G1 X32.4375
G3 X32.4478 Y1.4983 I-1.1444 J0.1538
G1 Y1.6245
G1 X32.3078
G1 Y2.0913
G1 X32.6278
G3 X33.2275 Y2.2875 I0.0 J1.0147
G1 X33.217 Y1.3352
G3 X33.224 Y1.2045 I1.0147 J-0.0112
G1 X32.2643
G3 X32.3078 Y1.4983 I-0.9713 J0.2938
G1 Y1.6245
G1 X32.1678
G1 Y2.2313
G1 X32.6278
G3 X33.3715 Y2.6455 I0.0 J0.8747
G1 X33.3569 Y1.3337
G3 X33.3963 Y1.0645 I0.8747 J-0.0097
G1 X32.0527
G3 X32.1678 Y1.4983 I-0.7596 J0.4338
G1 Y1.6245
G0 Z3.0
G0 X30.0636 Y5.2394
G0 Z1.25
G1 Z-0.15
G3 X30.0485 Y5.2501 I-1.3216 J-1.8499
G1 X30.0693 Y5.2506
G3 X30.0636 Y5.2394 I0.7793 J-0.3973
G1 X30.1893 Y5.1776
G3 X30.1306 Y5.0093 I0.6593 J-0.3243
G3 X29.5181 Y5.3768 I-1.3885 J-1.6198
G1 X30.3553 Y5.3978
G3 X30.1893 Y5.1776 I0.4932 J-0.5446
G0 Z3.0
G0 X33.0106 Y7.3305
G0 Z1.25
G1 Z-0.15
G1 X33.0062 Y7.8527
G3 X33.3478 Y7.7643 I0.7776 J2.3019
G3 X33.0106 Y7.3305 I0.9431 J-1.0812
G1 X32.8706 Y7.3293
G1 X32.8644 Y8.0575
G3 X33.7623 Y7.865 I0.9193 J2.097
G3 X32.9963 Y6.6974 I0.5286 J-1.1819
G1 X32.99 Y6.1295
G3 X32.8802 Y6.1434 I-0.2183 J-1.2762
G3 X32.8803 Y6.1746 I-1.2946 J0.0203
G1 X32.8706 Y7.3293
G1 X32.7306 Y7.3282
G1 X32.7225 Y8.2851
G3 X33.7755 Y8.0049 I1.0612 J1.8694
G3 X33.7843 I0.0044 J1.1547
G3 X35.0506 Y8.4235 I-0.0082 J2.1496
G3 X35.2342 Y8.3023 I1.2745 J1.7311
G1 X33.8633 Y7.7557
G3 X33.1363 Y6.6958 I0.4277 J-1.0726
G1 X33.128 Y5.9516
G3 X32.7717 Y6.008 I-0.3563 J-1.0984
G1 X32.7298
G3 X32.7403 Y6.1734 I-1.1442 J0.1557
G1 X32.7306 Y7.3282
G1 X32.5906 Y7.327
G1 X32.5803 Y8.545
G3 X33.776 Y8.1449 I1.2034 J1.6095
G3 X33.7838 I0.0039 J1.0147
G3 X35.0506 Y8.6007 I-0.0077 J2.0096
G3 X35.5784 Y8.2888 I1.2745 J1.5538
G1 X33.9151 Y7.6256
G3 X33.2763 Y6.6943 I0.3758 J-0.9426
G1 X33.2657 Y5.7396
G3 X32.7717 Y5.868 I-0.494 J-0.8864
G1 X32.5563
G3 X32.6004 Y6.1723 I-0.9707 J0.2957
G1 X32.5906 Y7.327
G1 X32.4506 Y7.3258
G1 X32.4377 Y8.857
G3 X33.7766 Y8.2849 I1.3461 J1.2976
G3 X33.7833 I0.0034 J0.8747
G3 X35.0506 Y8.7866 I-0.0072 J1.8696
G3 X36.0126 Y8.3112 I1.2745 J1.3679
G1 X33.967 Y7.4956
G3 X33.4162 Y6.6927 I0.324 J-0.8125
G1 X33.4026 Y5.4592
G3 X32.7717 Y5.728 I-0.6309 J-0.6059
G1 X32.3442
G3 X32.4604 Y6.1711 I-0.7585 J0.4357
G1 X32.4506 Y7.3258
G1 X32.3106 Y7.3246
G1 X32.2941 Y9.2755
G3 X33.7771 Y8.4249 I1.4896 J0.8791
G3 X33.7827 I0.0028 J0.7347
G3 X35.0506 Y8.9852 I-0.0066 J1.7296
G3 X36.3185 Y8.4249 I1.2745 J1.1693
G3 X36.3242 I0.0028 J0.7347
G3 X37.6569 Y9.0601 I-0.0066 J1.7296
G1 X37.6418 Y8.8101
G1 X34.0188 Y7.3655
G3 X33.5562 Y6.6912 I0.2721 J-0.6825
G1 X33.4969 Y1.3321
G3 X33.615 Y0.9245 I0.7347 J-0.0081
G1 X31.752
G3 X32.0278 Y1.4983 I-0.4589 J0.5738
G1 Y2.3713
G1 X32.6278
G3 X33.3625 Y3.106 I0.0 J0.7347
G1 Y3.4783
G3 X33.2261 Y3.9047 I-0.7347 J0.0
G3 X33.5064 Y4.4821 I-0.4544 J0.5774
G1 Y4.8533
G3 X32.7717 Y5.588 I-0.7347 J0.0
G1 X32.0421
G3 X32.3204 Y6.1699 I-0.4565 J0.5757
G1 X32.3106 Y7.3246
G1 X32.1706 Y7.3234
G1 X32.1181 Y13.5426
G3 X31.398 Y14.1189 I-0.5947 J-0.005
G1 X23.2648 Y12.3637
G3 X23.4864 Y13.1304 I-1.2359 J0.7726
G3 Y13.1353 I-0.5947 J0.0024
G3 X23.3146 Y13.8154 I-1.4565 J-0.0062
G1 X25.1058 Y14.0042
G1 X26.5418 Y14.1504
G1 X27.0796 Y14.2037
G1 X28.0219 Y14.2949
G1 X28.7277 Y14.3607
G1 X29.787 Y14.454
G1 X30.3146 Y14.497
G1 X30.7964 Y14.5327
G3 X31.4825 Y14.6951 I0.0776 J1.2023
G3 X31.9615 Y15.2377 I-0.5495 J0.9678
G3 X31.9616 Y15.2381 I-0.5496 J0.2272
G3 X32.0904 Y15.6849 I-1.9465 J0.8032
G1 X32.3633 Y17.0654
G3 X32.8336 Y16.5047 I1.4199 J0.7135
G3 X32.1941 Y15.2364 I0.9502 J-1.2744
G3 Y15.2318 I0.5947 J-0.0023
G3 X32.8339 Y13.963 I1.5902 J0.0061
G3 X32.1941 Y12.6944 I0.9499 J-1.2747
G3 Y12.6898 I0.5947 J-0.0023
G3 X32.8337 Y11.4217 I1.5891 J0.0061
G3 X32.1941 Y10.1529 I0.9504 J-1.2747
G3 Y10.1484 I0.5947 J-0.0022
G3 X33.7776 Y8.5649 I1.5896 J0.0061
G3 X33.7822 I0.0023 J0.5947
G3 X35.0506 Y9.2045 I-0.0061 J1.5896
G3 X36.3191 Y8.5649 I1.2745 J0.95
G3 X36.3236 I0.0023 J0.5947
G3 X37.8345 Y9.6793 I-0.0061 J1.5896
G1 X37.7762 Y8.7129
G1 X34.0707 Y7.2355
G3 X33.6962 Y6.6896 I0.2203 J-0.5524
G1 X33.6369 Y1.3306
G3 X33.9812 Y0.7845 I0.5947 J-0.0066
G1 X23.5939
G3 X23.6112 Y0.9137 I-0.5772 J0.1433
G1 X23.7171 Y5.3711
G1 X24.0715 Y5.38
G3 X23.775 Y4.8654 I0.2982 J-0.5145
G1 Y4.8588
G1 Y1.4873
G3 X24.3697 Y0.8926 I0.5947 J0.0
G1 X26.5505
G3 X26.9296 Y1.0291 I0.0 J0.5947
G3 X27.2951 Y0.9036 I0.3654 J0.4692
G1 X28.2249
G3 X28.2252 I0.0 J0.5947
G3 X28.8764 Y0.9508 I-0.0023 J4.5436
G3 X29.5803 Y1.1562 I-0.3772 J2.6016
G3 X29.5813 Y1.1567 I-0.2446 J0.5421
G3 X30.0482 Y1.4586 I-0.7773 J1.7141
G3 X30.0536 Y1.4634 I-0.3931 J0.4462
G3 X30.2538 Y1.6754 I-1.2308 J1.3629
G1 Y1.4983
G3 X30.8485 Y0.9036 I0.5947 J0.0
G1 X31.2931
G3 X31.8878 Y1.4983 I0.0 J0.5947
G1 Y2.5113
G1 X32.6278
G3 X33.2225 Y3.106 I0.0 J0.5947
G1 Y3.4783
G3 X33.0074 Y3.9361 I-0.5947 J0.0
G3 X33.3664 Y4.4821 I-0.2357 J0.546
G1 Y4.8533
G3 X32.7717 Y5.448 I-0.5947 J0.0
G1 X30.8485
G3 X30.2538 Y4.8533 I0.0 J-0.5947
G1 Y4.6789
G3 X30.058 Y4.8867 I-1.4462 J-1.1666
G3 X30.0471 Y4.8963 I-0.4002 J-0.4399
G3 X29.3407 Y5.2909 I-1.3051 J-1.5069
G3 X28.6567 Y5.4285 I-0.9622 J-3.0143
G3 X28.2243 Y5.448 I-0.423 J-4.5826
G1 X27.2951
G3 X26.9093 Y5.3059 I0.0 J-0.5947
G3 X26.6446 Y5.4446 I-0.3996 J-0.4405
G1 X31.6006 Y5.5692
G3 X32.1804 Y6.1687 I-0.0149 J0.5945
G1 X32.1706 Y7.3234
G0 Z3.0
G0 X37.4868 Y11.4217
G0 Z1.25
G1 Z-0.15
G3 X37.825 Y11.8481 I-1.1688 J1.2744
G1 X37.7783 Y11.0733
G3 X37.4868 Y11.4217 I-1.4613 J-0.9264
G0 Z3.0
G0 X37.8037 Y13.8227
G0 Z1.25
G1 Z-0.15
G3 X37.6853 Y13.963 I-1.4862 J-1.1344
G3 X37.8221 Y14.1278 I-1.3682 J1.2748
G1 X37.8037 Y13.8227
G1 X37.9435 Y13.8143
G1 X37.9155 Y13.3502
G3 X37.4867 Y13.963 I-1.598 J-0.6619
G3 X38.0069 Y14.8667 I-1.1696 J1.2748
G1 X37.9435 Y13.8143
G1 X38.0832 Y13.8058
G1 X37.8802 Y10.4384
G3 X37.2675 Y11.4217 I-1.5633 J-0.2915
G3 X37.9072 Y12.6898 I-0.9495 J1.2744
G3 Y12.6944 I-0.5947 J0.0024
G3 X37.2674 Y13.9629 I-1.5896 J-0.0061
G3 X37.9072 Y15.2319 I-0.9503 J1.2748
G3 Y15.2364 I-0.5947 J0.0022
G3 X37.2676 Y16.5047 I-1.5896 J-0.0061
G3 X37.8942 Y17.5761 I-0.9497 J1.2743
G1 X37.8641 Y16.6379
G3 X38.3955 Y16.0275 I0.5944 J-0.019
G3 X38.1923 Y15.6147 I0.3905 J-0.4486
G1 X38.0832 Y13.8058
G0 Z3.0
G0 X43.0186 Y13.5716
G0 Z1.25
G1 Z-0.15
G2 X43.1152 Y15.519 I452.2868 J-21.4632
G3 X42.8124 Y16.0683 I-0.5939 J0.0307
G3 X42.9958 Y16.1258 I-0.3559 J1.4567
G3 X42.9983 Y16.1268 I-0.2139 J0.5549
G3 X43.1512 Y16.202 I-0.3656 J0.9357
G2 X43.0862 Y8.3527 I-469.0532 J-0.0423
G1 X41.7808 Y6.6579
G3 X41.7639 Y6.6503 I0.3701 J-0.8439
G3 X41.7467 Y6.642 I0.2498 J-0.5397
G3 X41.6286 Y6.5764 I0.7311 J-1.4551
G1 X42.6885 Y7.9439
G3 X42.813 Y8.2962 I-0.4701 J0.3643
G1 X42.8176 Y8.5227
G2 X42.8426 Y9.3899 I50.6444 J-1.0249
G3 Y9.3907 I-0.5943 J0.0222
G1 X42.8702 Y10.1571
G1 X42.8967 Y10.8269
G2 X43.0186 Y13.5716 I452.4087 J-18.7186
G0 Z3.0
G0 X39.8413 Y4.2705
G0 Z1.25
G1 Z-0.15
G3 X39.7785 Y4.1483 I4.4357 J-2.3589
G3 X39.6722 Y3.932 I3.2421 J-1.7275
G3 X39.637 Y3.8548 I4.8704 J-2.2639
G1 X39.6392 Y4.0097
G1 X39.8413 Y4.2705
G0 Z3.0
G0 X39.8829 Y1.4082
G0 Z1.25
G1 Z-0.15
G3 X40.1748 Y1.089 I3.277 J2.7036
G3 X40.1996 Y1.0645 I1.9383 J1.939
G1 X39.8534
G3 X39.881 Y1.2709 I-0.847 J0.2185
G1 X39.8829 Y1.4082
G1 X39.9909 Y1.4973
G3 X40.2735 Y1.1883 I3.169 J2.6145
G3 X40.5821 Y0.9245 I1.8396 J1.8397
G1 X39.6477
G3 X39.741 Y1.2728 I-0.6413 J0.3585
G1 X39.7487 Y1.8223
G3 X39.9909 Y1.4973 I3.4112 J2.2895
G1 X40.0989 Y1.5864
G3 X40.3722 Y1.2876 I3.061 J2.5254
G3 X40.78 Y0.9586 I1.7409 J1.7404
G3 X40.7847 Y0.9556 I0.3221 J0.5
G3 X41.0522 Y0.8167 I0.9566 J1.5159
G3 X41.0566 Y0.8149 I0.2286 J0.549
G3 X41.1402 Y0.7845 I0.4385 J1.0773
G1 X39.3307
G3 X39.601 Y1.2748 I-0.3243 J0.4985
G1 X39.6158 Y2.3339
G3 X39.7958 Y2.007 I2.7388 J1.2947
G3 X40.0989 Y1.5864 I3.3641 J2.1048
G0 Z3.0
G0 X57.3302 Y1.4845
G0 Z1.25
G1 Z-0.15
G3 X57.3548 Y1.7376 I-1.2701 J0.2511
G3 X57.4827 Y1.4845 I3.2297 J1.4741
G1 X57.3302
G1 Y1.3445
G1 X57.1465
G3 X57.2148 Y1.7427 I-1.0865 J0.3911
G1 X57.2101 Y2.5152
G3 X57.3759 Y2.0437 I5.5503 J1.6881
G3 X57.4657 Y1.8322 I3.2138 J1.2396
G3 X57.6631 Y1.4524 I3.1187 J1.3795
G3 X57.7299 Y1.3445 I2.2458 J1.316
G1 X57.3302
G1 Y1.2045
G1 X56.9247
G3 X57.0748 Y1.7418 I-0.8646 J0.5311
G1 X57.0628 Y3.7037
G3 X57.0886 Y3.5753 I15.2578 J3.0047
G3 X57.091 Y3.5643 I0.9939 J0.2044
G1 X57.1616 Y3.2393
G3 X57.1641 Y3.228 I0.9916 J0.2155
G3 X57.3315 Y2.5977 I9.327 J2.139
G3 X57.5062 Y2.095 I5.4289 J1.6056
G3 X57.5933 Y1.89 I3.0835 J1.1883
G3 X57.7835 Y1.5239 I2.9912 J1.3217
G3 X57.9929 Y1.2207 I2.1254 J1.2445
G3 X58.0058 Y1.2045 I1.5098 J1.1908
G1 X57.3302
G1 Y1.0645
G1 X56.6211
G3 X56.9348 Y1.741 I-0.5611 J0.6711
G1 X56.9102 Y5.7759
G3 X57.0154 Y4.8768 I32.2566 J3.3217
G3 X57.0163 Y4.8702 I0.8673 J0.1139
G1 X57.0494 Y4.6325
G3 X57.0504 Y4.6257 I0.8664 J0.1205
G1 X57.0666 Y4.5155
G3 X57.2258 Y3.6035 I15.2541 J2.1928
G3 X57.2278 Y3.594 I0.8568 J0.1762
G1 X57.2984 Y3.269
G3 X57.3006 Y3.2593 I0.8548 J0.1857
G3 X57.4656 Y2.6378 I9.1905 J2.1077
G3 X57.6365 Y2.1462 I5.2947 J1.5655
G3 X57.7208 Y1.9478 I2.9532 J1.1371
G3 X57.9039 Y1.5954 I2.8637 J1.2639
G3 X58.1024 Y1.3081 I2.0051 J1.173
G3 X58.3347 Y1.0645 I1.4004 J1.1034
G1 X57.3302
G0 Z3.0
G0 X56.8783 Y10.9946
G0 Z1.25
G1 Z-0.15
G1 X56.8729 Y11.8834
G3 X57.183 Y11.4335 I1.6782 J0.8251
G3 X56.8783 Y10.9946 I1.3682 J-1.2751
G0 Z3.0
G0 X56.863 Y13.5049
G0 Z1.25
G1 Z-0.15
G1 X56.8572 Y14.4577
G3 X57.183 Y13.9752 I1.6933 J0.7922
G3 X56.863 Y13.5049 I1.3686 J-1.2752
G0 Z3.0
G0 X59.7128 Y13.9753
G0 Z1.25
G1 Z-0.15
G3 X59.818 Y14.0804 I-1.1689 J1.2744
G3 X59.923 Y13.9753 I1.2738 J1.1687
G3 X59.8179 Y13.8702 I1.1695 J-1.2742
G3 X59.7128 Y13.9753 I-1.2749 J-1.1697
G1 X59.6182 Y13.8721
G3 X59.4936 Y13.9753 I-1.0752 J-1.1717
G3 X59.818 Y14.2996 I-0.9496 J1.2744
G3 X60.1423 Y13.9753 I1.2737 J0.9495
G3 X59.8179 Y13.6509 I0.9502 J-1.2742
G3 X59.6182 Y13.8721 I-1.2749 J-0.9504
G1 X59.5235 Y13.769
G3 X59.2342 Y13.9753 I-0.9805 J-1.0685
G3 X59.818 Y14.5589 I-0.6902 J1.2743
G3 X60.4016 Y13.9754 I1.2737 J0.6902
G3 X59.818 Y13.3915 I0.691 J-1.2742
G3 X59.5235 Y13.769 I-1.275 J-0.6911
G1 X59.4289 Y13.6658
G3 X58.8448 Y13.9754 I-0.8858 J-0.9653
G3 X59.8181 Y14.9483 I-0.3008 J1.2742
G3 X60.7909 Y13.9754 I1.2737 J0.3008
G3 X59.818 Y13.002 I0.3016 J-1.2743
G3 X59.4289 Y13.6658 I-1.275 J-0.3015
G0 Z3.0
G0 X59.818 Y11.758
G0 Z1.25
G1 Z-0.15
G3 X59.8311 Y11.7407 I1.2742 J0.9497
G1 X59.8049 Y11.7406
G3 X59.818 Y11.758 I-1.2613 J0.9675
G1 X59.7058 Y11.8416
G3 X59.818 Y12.0173 I-1.1622 J0.8665
G3 X60.1557 Y11.6017 I1.2742 J0.6904
G1 X59.5243 Y11.5997
G1 X59.4781 Y11.5999
G3 X59.7058 Y11.8416 I-0.9345 J1.1082
G1 X59.5935 Y11.9253
G3 X59.8181 Y12.4067 I-1.05 J0.7828
G3 X60.6822 Y11.4643 I1.2742 J0.301
G1 X60.4995 Y11.4628
G1 X59.5243 Y11.4597
G1 X59.2817 Y11.4605
G1 X58.9498 Y11.463
G3 X59.5935 Y11.9253 I-0.4062 J1.2451
G0 Z3.0
G0 X59.818 Y16.4113
G0 Z1.25
G1 Z-0.15
G3 X59.7127 Y16.5165 I-1.2744 J-1.1694
G3 X59.818 Y16.6219 I-1.1695 J1.2749
G3 X59.9233 Y16.5166 I1.2748 J1.1693
G3 X59.818 Y16.4113 I1.1688 J-1.2742
G1 X59.9211 Y16.3167
G3 X59.818 Y16.192 I1.171 J-1.0743
G3 X59.4934 Y16.5165 I-1.2744 J-0.9502
G3 X59.8181 Y16.8412 I-0.9503 J1.2749
G3 X60.1426 Y16.5166 I1.2748 J0.95
G3 X59.9211 Y16.3167 I0.9496 J-1.2742
G1 X60.0243 Y16.222
G3 X59.818 Y15.9327 I1.0678 J-0.9796
G3 X59.234 Y16.5165 I-1.2744 J-0.6909
G3 X59.8181 Y17.1005 I-0.6909 J1.2749
G3 X60.4019 Y16.5166 I1.2747 J0.6906
G3 X60.0243 Y16.222 I0.6902 J-1.2742
G1 X60.1275 Y16.1274
G3 X59.8181 Y15.5433 I0.9647 J-0.885
G3 X58.8445 Y16.5165 I-1.2745 J-0.3014
G3 X59.8181 Y17.4901 I-0.3013 J1.2749
G3 X60.7914 Y16.5165 I1.2747 J0.3011
G3 X60.1275 Y16.1274 I0.3007 J-1.2741
G0 Z3.0
G0 X59.818 Y18.9531
G0 Z1.25
G1 Z-0.15
G3 X59.713 Y19.058 I-1.2739 J-1.1692
G3 X59.818 Y19.163 I-1.1695 J1.2744
G3 X59.923 Y19.058 I1.2743 J1.169
G3 X59.818 Y18.9531 I1.1687 J-1.2737
G1 X59.9212 Y18.8584
G3 X59.818 Y18.7338 I1.1706 J-1.0741
G3 X59.4938 Y19.058 I-1.2739 J-0.95
G3 X59.818 Y19.3823 I-0.9502 J1.2744
G3 X60.1422 Y19.058 I1.2743 J0.9497
G3 X59.9212 Y18.8584 I0.9495 J-1.2737
G1 X60.0243 Y18.7638
G3 X59.818 Y18.4746 I1.0674 J-0.9795
G3 X59.2344 Y19.058 I-1.2739 J-0.6907
G3 X59.818 Y19.6416 I-0.6909 J1.2744
G3 X60.4015 Y19.058 I1.2742 J0.6904
G3 X60.0243 Y18.7638 I0.6902 J-1.2737
G1 X60.1275 Y18.6691
G3 X59.8181 Y18.0852 I0.9643 J-0.8848
G3 X58.845 Y19.0579 I-1.274 J-0.3013
G3 X59.8181 Y20.0311 I-0.3014 J1.2745
G3 X60.7909 Y19.0579 I1.2742 J0.301
G3 X60.1275 Y18.6691 I0.3008 J-1.2736
G0 Z3.0
G0 X59.8179 Y21.2752
G0 Z1.25
G1 Z-0.15
G3 X59.8042 Y21.2934 I-1.2749 J-0.9504
G2 X59.8317 I0.0201 J-58.2765
G3 X59.8179 Y21.2752 I1.2608 J-0.9679
G1 X59.7057 Y21.1915
G3 X59.4792 Y21.4324 I-1.1627 J-0.8667
G2 X60.133 Y21.4326 I0.3451 J-58.4155
G3 X60.1344 I0.0024 J0.4547
G1 X60.1568 Y21.4325
G3 X59.818 Y21.0158 I0.9357 J-1.107
G3 X59.7057 Y21.1915 I-1.275 J-0.6911
G1 X59.5935 Y21.1079
G3 X58.957 Y21.5679 I-1.0504 J-0.7831
G1 X59.1854 Y21.5699
G3 X59.186 I-0.0028 J0.3147
G2 X60.1338 Y21.5726 I0.6382 J-58.553
G3 X60.1347 I0.0017 J0.3147
G1 X60.2539 Y21.5723
G3 X60.2667 Y21.5725 I0.0007 J0.3147
G2 X60.2927 Y21.5724 I0.012 J-0.311
G3 X60.3048 Y21.5721 I0.0141 J0.3144
G1 X60.6843 Y21.5697
G3 X59.818 Y20.6263 I0.4082 J-1.2442
G3 X59.5935 Y21.1079 I-1.275 J-0.3015
G0 Z3.0
G0 X56.997 Y21.5994
G0 Z1.25
G1 Z-0.15
G3 X56.954 Y21.545 I1.5546 J-1.275
G1 X56.9533 Y21.6547
G3 X56.997 Y21.5994 I1.5978 J1.2196
G1 X57.1053 Y21.6882
G3 X57.1829 Y21.5994 I1.4458 J1.1861
G3 X56.8171 Y21.0249 I1.3687 J-1.2751
G1 X56.81 Y22.1918
G3 X57.1053 Y21.6882 I1.7411 J0.6825
G0 Z3.0
G0 X56.9386 Y24.0658
G0 Z1.25
G1 Z-0.15
G1 X56.9377 Y24.2169
G3 X56.9971 Y24.1407 I1.6134 J1.1988
G3 X56.9386 Y24.0658 I1.5541 J-1.275
G1 X56.7986 Y24.0649
G1 X56.7943 Y24.7749
G3 X57.183 Y24.1407 I1.7568 J0.6408
G3 X56.8019 Y23.527 I1.3682 J-1.2751
G1 X56.7986 Y24.0649
G0 Z3.0
G0 X56.9232 Y26.5866
G0 Z1.25
G1 Z-0.15
G1 X56.922 Y26.7798
G3 X56.9971 Y26.6824 I1.6285 J1.1773
G3 X56.9232 Y26.5866 I1.5545 J-1.2751
G1 X56.7832 Y26.5857
G1 X56.7785 Y27.3614
G3 X57.183 Y26.6824 I1.772 J0.5957
G3 X56.7866 Y26.0269 I1.3686 J-1.2752
G1 X56.7832 Y26.5857
G0 Z3.0
G0 X56.6644 Y28.642
G0 Z1.25
G1 Z-0.15
G3 X56.4988 Y28.7939 I-0.7644 J-0.6673
G3 X56.8903 Y29.3667 I-0.5916 J0.8244
G3 X56.9973 Y29.2238 I1.6613 J1.1324
G3 X56.6644 Y28.642 I1.5539 J-1.2752
G1 X56.7958 Y28.5937
G3 X56.7136 Y28.296 I1.7554 J-0.6452
G3 X56.2032 Y28.7952 I-0.8136 J-0.3213
G3 X56.7819 Y29.6088 I-0.296 J0.8231
G1 X56.7849 Y29.8844
G3 X57.1832 Y29.2238 I1.7667 J0.6147
G3 X56.7958 Y28.5937 I1.368 J-1.2752
G0 Z3.0
G0 X59.7127 Y29.2238
G0 Z1.25
G1 Z-0.15
G3 X59.818 Y29.3291 I-1.1696 J1.2748
G3 X59.9233 Y29.2238 I1.2748 J1.1693
G3 X59.818 Y29.1185 I1.1689 J-1.2742
G3 X59.7127 Y29.2238 I-1.2744 J-1.1694
G1 X59.6181 Y29.3269
G3 X59.818 Y29.5484 I-1.0749 J1.1717
G3 X60.1425 Y29.2238 I1.2748 J0.95
G3 X59.818 Y28.8993 I0.9496 J-1.2742
G3 X59.4934 Y29.2238 I-1.2744 J-0.9502
G3 X59.6181 Y29.3269 I-0.9503 J1.2748
G1 X59.5234 Y29.4301
G3 X59.8181 Y29.8077 I-0.9803 J1.0685
G3 X60.4018 Y29.2238 I1.2748 J0.6906
G3 X59.818 Y28.64 I0.6903 J-1.2741
G3 X59.2341 Y29.2237 I-1.2744 J-0.6909
G3 X59.5234 Y29.4301 I-0.6909 J1.2749
G1 X59.4288 Y29.5333
G3 X59.8181 Y30.1973 I-0.8856 J0.9653
G3 X60.7913 Y29.2237 I1.2747 J0.3011
G3 X59.8181 Y28.2505 I0.3008 J-1.2741
G3 X58.8446 Y29.2237 I-1.2745 J-0.3014
G3 X59.4288 Y29.5333 I-0.3014 J1.2749
G0 Z3.0
G0 X59.818 Y31.6603
G0 Z1.25
G1 Z-0.15
G3 X59.713 Y31.7652 I-1.2739 J-1.1692
G3 X59.818 Y31.8702 I-1.1694 J1.2744
G3 X59.923 Y31.7652 I1.2743 J1.169
G3 X59.818 Y31.6603 I1.1687 J-1.2738
G1 X59.9211 Y31.5656
G3 X59.818 Y31.441 I1.1706 J-1.0741
G3 X59.4937 Y31.7652 I-1.2739 J-0.95
G3 X59.818 Y32.0895 I-0.9502 J1.2744
G3 X60.1422 Y31.7652 I1.2742 J0.9497
G3 X59.9211 Y31.5656 I0.9495 J-1.2737
G1 X60.0243 Y31.471
G3 X59.818 Y31.1818 I1.0674 J-0.9795
G3 X59.2344 Y31.7652 I-1.2739 J-0.6907
G3 X59.818 Y32.3488 I-0.6909 J1.2744
G3 X60.4015 Y31.7652 I1.2742 J0.6904
G3 X60.0243 Y31.471 I0.6902 J-1.2737
G1 X60.1275 Y31.3763
G3 X59.8181 Y30.7924 I0.9643 J-0.8848
G3 X58.845 Y31.7651 I-1.274 J-0.3013
G3 X59.8181 Y32.7383 I-0.3014 J1.2745
G3 X60.7909 Y31.7651 I1.2742 J0.301
G3 X60.1275 Y31.3763 I0.3008 J-1.2737
G0 Z3.0
G0 X59.8179 Y34.2017
G0 Z1.25
G1 Z-0.15
G3 X59.713 Y34.3067 I-1.2749 J-1.1697
G3 X59.818 Y34.4117 I-1.1694 J1.2744
G3 X59.9229 Y34.3067 I1.2743 J1.169
G3 X59.8179 Y34.2017 I1.1696 J-1.274
G1 X59.9211 Y34.1071
G3 X59.8179 Y33.9824 I1.1714 J-1.0744
G3 X59.4938 Y34.3067 I-1.2749 J-0.9504
G3 X59.818 Y34.6309 I-0.9502 J1.2744
G3 X60.1421 Y34.3067 I1.2742 J0.9497
G3 X59.9211 Y34.1071 I0.9504 J-1.2741
G1 X60.0243 Y34.0124
G3 X59.818 Y33.723 I1.0682 J-0.9797
G3 X59.2345 Y34.3067 I-1.275 J-0.6911
G3 X59.818 Y34.8903 I-0.691 J1.2744
G3 X60.4013 Y34.3068 I1.2742 J0.6904
G3 X60.0243 Y34.0124 I0.6912 J-1.2741
G1 X60.1274 Y33.9178
G3 X59.818 Y33.3335 I0.9651 J-0.8851
G3 X58.8457 Y34.3068 I-1.275 J-0.3016
G3 X59.8181 Y35.2797 I-0.3021 J1.2743
G3 X60.7901 Y34.3068 I1.2742 J0.301
G3 X60.1274 Y33.9178 I0.3024 J-1.2741
G0 Z3.0
G0 X59.818 Y36.7429
G0 Z1.25
G1 Z-0.15
G3 X59.7128 Y36.848 I-1.2744 J-1.1694
G3 X59.818 Y36.9531 I-1.1693 J1.2746
G3 X59.9231 Y36.848 I1.2743 J1.169
G3 X59.818 Y36.7429 I1.169 J-1.274
G1 X59.9211 Y36.6482
G3 X59.818 Y36.5236 I1.171 J-1.0743
G3 X59.4936 Y36.848 I-1.2744 J-0.9502
G3 X59.818 Y37.1724 I-0.95 J1.2746
G3 X60.1423 Y36.848 I1.2742 J0.9497
G3 X59.9211 Y36.6482 I0.9498 J-1.274
G1 X60.0243 Y36.5536
G3 X59.818 Y36.2643 I1.0678 J-0.9796
G3 X59.2342 Y36.848 I-1.2744 J-0.6909
G3 X59.818 Y37.4317 I-0.6907 J1.2746
G3 X60.4016 Y36.848 I1.2742 J0.6904
G3 X60.0243 Y36.5536 I0.6905 J-1.274
G1 X60.1275 Y36.4589
G3 X59.8181 Y35.8748 I0.9647 J-0.885
G3 X58.8448 Y36.848 I-1.2745 J-0.3014
G3 X59.8181 Y37.8212 I-0.3012 J1.2746
G3 X60.7911 Y36.848 I1.2742 J0.301
G3 X60.1275 Y36.4589 I0.3011 J-1.274
G0 Z3.0
G0 X59.8179 Y39.2846
G0 Z1.25
G1 Z-0.15
G3 X59.7128 Y39.3897 I-1.2749 J-1.1697
G3 X59.818 Y39.4948 I-1.1688 J1.2744
G3 X59.923 Y39.3897 I1.2738 J1.1687
G3 X59.8179 Y39.2846 I1.1695 J-1.2742
G1 X59.9211 Y39.19
G3 X59.8179 Y39.0653 I1.1714 J-1.0744
G3 X59.4935 Y39.3897 I-1.2749 J-0.9504
G3 X59.818 Y39.7141 I-0.9496 J1.2744
G3 X60.1423 Y39.3898 I1.2737 J0.9495
G3 X59.9211 Y39.19 I0.9502 J-1.2742
G1 X60.0243 Y39.0953
G3 X59.818 Y38.8059 I1.0682 J-0.9797
G3 X59.2342 Y39.3898 I-1.275 J-0.6911
G3 X59.818 Y39.9734 I-0.6902 J1.2743
G3 X60.4016 Y39.3898 I1.2737 J0.6902
G3 X60.0243 Y39.0953 I0.6909 J-1.2742
G1 X60.1275 Y39.0007
G3 X59.818 Y38.4164 I0.9651 J-0.8851
G3 X58.8447 Y39.3899 I-1.275 J-0.3015
G3 X59.8181 Y40.3627 I-0.3007 J1.2743
G3 X60.791 Y39.3899 I1.2737 J0.3008
G3 X60.1275 Y39.0007 I0.3015 J-1.2743
G0 Z3.0
G0 X59.818 Y41.8258
G0 Z1.25
G1 Z-0.15
G3 X59.7127 Y41.931 I-1.2744 J-1.1694
G3 X59.818 Y42.0363 I-1.1696 J1.2748
G3 X59.9233 Y41.9311 I1.2748 J1.1693
G3 X59.818 Y41.8258 I1.1689 J-1.2742
G1 X59.9211 Y41.7311
G3 X59.818 Y41.6065 I1.171 J-1.0743
G3 X59.4934 Y41.931 I-1.2744 J-0.9502
G3 X59.8181 Y42.2556 I-0.9503 J1.2748
G3 X60.1425 Y41.931 I1.2748 J0.95
G3 X59.9211 Y41.7311 I0.9496 J-1.2742
G1 X60.0243 Y41.6365
G3 X59.818 Y41.3472 I1.0678 J-0.9796
G3 X59.2341 Y41.9309 I-1.2744 J-0.6909
G3 X59.8181 Y42.515 I-0.6909 J1.2749
G3 X60.4019 Y41.931 I1.2748 J0.6906
G3 X60.0243 Y41.6365 I0.6903 J-1.2741
G1 X60.1275 Y41.5418
G3 X59.8181 Y40.9577 I0.9647 J-0.885
G3 X58.8446 Y41.9309 I-1.2745 J-0.3014
G3 X59.8181 Y42.9045 I-0.3014 J1.2749
G3 X60.7913 Y41.9309 I1.2747 J0.3011
G3 X60.1275 Y41.5418 I0.3008 J-1.2741
G0 Z3.0
G0 X59.818 Y44.3675
G0 Z1.25
G1 Z-0.15
G3 X59.713 Y44.4725 I-1.2739 J-1.1692
G3 X59.818 Y44.5774 I-1.1695 J1.2744
G3 X59.923 Y44.4725 I1.2743 J1.169
G3 X59.818 Y44.3675 I1.1687 J-1.2738
G1 X59.7149 Y44.2728
G3 X59.4938 Y44.4724 I-1.1707 J-1.0745
G3 X59.818 Y44.7967 I-0.9502 J1.2744
G3 X60.1422 Y44.4724 I1.2743 J0.9497
G3 X59.818 Y44.1483 I0.9495 J-1.2737
G3 X59.7149 Y44.2728 I-1.2739 J-0.95
G1 X59.6117 Y44.1782
G3 X59.2344 Y44.4724 I-1.0676 J-0.9799
G3 X59.818 Y45.056 I-0.6909 J1.2744
G3 X60.4015 Y44.4724 I1.2742 J0.6904
G3 X59.818 Y43.889 I0.6902 J-1.2737
G3 X59.6117 Y44.1782 I-1.2739 J-0.6907
G1 X59.5086 Y44.0835
G3 X58.845 Y44.4724 I-0.9645 J-0.8852
G3 X59.8181 Y45.4455 I-0.3014 J1.2745
G3 X60.7909 Y44.4724 I1.2742 J0.301
G3 X59.8181 Y43.4996 I0.3008 J-1.2737
G3 X59.5086 Y44.0835 I-1.274 J-0.3013
G0 Z3.0
G0 X57.1829 Y44.4724
G0 Z1.25
G1 Z-0.15
G3 X56.9405 Y44.1478 I1.3679 J-1.2748
G1 X56.9474 Y44.7853
G3 X57.1829 Y44.4724 I1.6037 J0.962
G0 Z3.0
G0 X56.9202 Y42.2911
G0 Z1.25
G1 Z-0.15
G3 X57.1832 Y41.931 I1.6314 J0.9152
G3 X56.9122 Y41.5565 I1.368 J-1.2752
G1 X56.9202 Y42.2911
G0 Z3.0
G0 X56.893 Y39.7996
G0 Z1.25
G1 Z-0.15
G3 X57.183 Y39.3896 I1.6575 J0.8647
G3 X56.8839 Y38.9617 I1.3686 J-1.2752
G1 X56.893 Y39.7996
G0 Z3.0
G0 X56.8659 Y37.3122
G0 Z1.25
G1 Z-0.15
G3 X57.183 Y36.8479 I1.6852 J0.8108
G3 X56.8555 Y36.3618 I1.3682 J-1.2751
G1 X56.8659 Y37.3122
G0 Z3.0
G0 X56.9735 Y34.3359
G0 Z1.25
G1 Z-0.15
G3 X56.997 Y34.3066 I1.5776 J1.2456
G3 X56.9728 Y34.2765 I1.5546 J-1.275
G1 X56.9735 Y34.3359
G1 X56.8335 Y34.3374
G1 X56.8388 Y34.8296
G3 X57.1829 Y34.3066 I1.7122 J0.7519
G3 X56.8271 Y33.7564 I1.3687 J-1.275
G1 X56.8335 Y34.3374
G0 Z3.0
G0 X56.9461 Y31.8299
G0 Z1.25
G1 Z-0.15
G3 X56.997 Y31.7652 I1.6049 J1.2102
G3 X56.9447 Y31.6986 I1.5538 J-1.2748
G1 X56.9461 Y31.8299
G1 X56.8061 Y31.8314
G1 X56.8118 Y32.3529
G3 X57.1829 Y31.7652 I1.7392 J0.6871
G3 X56.7986 Y31.1431 I1.3679 J-1.2748
G1 X56.8061 Y31.8314
G0 Z3.0
G0 X59.818 Y26.7876
G0 Z1.25
G1 Z-0.15
G3 X59.923 Y26.6825 I1.2738 J1.1687
G3 X59.8179 Y26.5774 I1.1695 J-1.2742
G3 X59.7128 Y26.6825 I-1.2749 J-1.1697
G3 X59.818 Y26.7876 I-1.1688 J1.2744
G1 X59.7148 Y26.8823
G3 X59.818 Y27.0069 I-1.1709 J1.0746
G3 X60.1423 Y26.6826 I1.2737 J0.9495
G3 X59.8179 Y26.3581 I0.9502 J-1.2742
G3 X59.4935 Y26.6825 I-1.2749 J-0.9504
G3 X59.7148 Y26.8823 I-0.9496 J1.2744
G1 X59.6117 Y26.9769
G3 X59.818 Y27.2661 I-1.0677 J0.98
G3 X60.4016 Y26.6826 I1.2737 J0.6902
G3 X59.818 Y26.0987 I0.6909 J-1.2742
G3 X59.2342 Y26.6826 I-1.275 J-0.6911
G3 X59.6117 Y26.9769 I-0.6902 J1.2743
G1 X59.5085 Y27.0716
G3 X59.8181 Y27.6555 I-0.9646 J0.8853
G3 X60.791 Y26.6827 I1.2737 J0.3008
G3 X59.818 Y25.7092 I0.3015 J-1.2743
G3 X58.8447 Y26.6827 I-1.275 J-0.3016
G3 X59.5085 Y27.0716 I-0.3007 J1.2743
G0 Z3.0
G0 X59.818 Y24.4652
G0 Z1.25
G1 Z-0.15
G3 X59.8311 Y24.4479 I1.2742 J0.9497
G1 X59.8049 Y24.4478
G3 X59.818 Y24.4652 I-1.2613 J0.9675
G1 X59.9303 Y24.5488
G3 X60.1558 Y24.3089 I1.162 J0.8661
G1 X59.5243 Y24.3069
G1 X59.4781 Y24.3071
G3 X59.818 Y24.7245 I-0.9345 J1.1082
G3 X59.9303 Y24.5488 I1.2742 J0.6904
G1 X60.0425 Y24.6325
G3 X60.6822 Y24.1715 I1.0497 J0.7824
G1 X60.4995 Y24.17
G1 X59.5243 Y24.1669
G1 X59.2818 Y24.1677
G1 X58.9498 Y24.1702
G3 X59.8181 Y25.114 I-0.4062 J1.2451
G3 X60.0425 Y24.6325 I1.2742 J0.301
G0 Z3.0
G0 X61.3858 Y24.1408
G0 Z1.25
G1 Z-0.15
G3 X62.3946 Y25.4101 I-0.3013 J1.2751
G3 X62.3947 Y25.4128 I-0.3147 J0.0014
G3 X61.3857 Y26.6827 I-1.3106 J-0.0056
G3 X62.3946 Y27.9515 I-0.3008 J1.2748
G3 X62.3947 Y27.9543 I-0.3147 J0.0014
G3 X61.3856 Y29.2237 I-1.31 J-0.0056
G3 X62.3946 Y30.4936 I-0.3016 J1.2754
G3 Y30.4963 I-0.3147 J0.0013
G3 X61.386 Y31.7652 I-1.3095 J-0.0056
G3 X62.3946 Y33.0344 I-0.3015 J1.275
G3 X62.3947 Y33.0371 I-0.3147 J0.0014
G3 X61.3867 Y34.3068 I-1.3106 J-0.0056
G3 X62.3946 Y35.5759 I-0.3022 J1.2749
G3 X62.3947 Y35.5786 I-0.3147 J0.0014
G3 X61.3858 Y36.848 I-1.31 J-0.0056
G3 X62.3946 Y38.1173 I-0.3013 J1.2751
G3 X62.3947 Y38.12 I-0.3147 J0.0014
G3 X61.3857 Y39.3899 I-1.3106 J-0.0056
G3 X62.3946 Y40.6587 I-0.3009 J1.2748
G3 X62.3947 Y40.6615 I-0.3147 J0.0014
G3 X61.3856 Y41.9309 I-1.31 J-0.0056
G3 X62.3947 Y43.2008 I-0.3015 J1.2754
G3 Y43.2035 I-0.3147 J0.0013
G3 X61.386 Y44.4724 I-1.3095 J-0.0056
G3 X62.3946 Y45.7416 I-0.3016 J1.275
G3 X62.3947 Y45.7444 I-0.3147 J0.0014
G3 X61.0896 Y47.0494 I-1.3106 J-0.0056
G3 X61.0869 I-0.0013 J-0.3147
G3 X59.818 Y46.0408 I0.0056 J-1.3095
G3 X58.5488 Y47.0494 I-1.275 J-0.3015
G3 X58.5461 I-0.0014 J-0.3147
G3 X57.241 Y45.7444 I0.0056 J-1.3106
G3 Y45.7417 I0.3147 J-0.0013
G3 X58.2497 Y44.4723 I1.31 J0.0056
G3 X57.241 Y43.2036 I0.3011 J-1.2747
G3 Y43.2008 I0.3147 J-0.0014
G3 X58.2501 Y41.9309 I1.3106 J0.0055
G3 X57.241 Y40.6615 I0.3011 J-1.2751
G3 Y40.6588 I0.3147 J-0.0014
G3 X58.2498 Y39.3899 I1.3095 J0.0056
G3 X57.241 Y38.12 I0.3018 J-1.2754
G3 Y38.1174 I0.3147 J-0.0013
G3 X58.2499 Y36.848 I1.31 J0.0056
G3 X57.241 Y35.5786 I0.3013 J-1.2751
G3 Y35.5759 I0.3147 J-0.0014
G3 X58.2489 Y34.3068 I1.31 J0.0056
G3 X57.241 Y33.0371 I0.3027 J-1.2752
G3 Y33.0345 I0.3147 J-0.0013
G3 X58.2497 Y31.7651 I1.31 J0.0056
G3 X57.241 Y30.4964 I0.3011 J-1.2747
G3 Y30.4936 I0.3147 J-0.0014
G3 X58.2501 Y29.2237 I1.3106 J0.0055
G3 X57.241 Y27.9543 I0.3011 J-1.2751
G3 Y27.9516 I0.3147 J-0.0014
G3 X58.2498 Y26.6826 I1.3095 J0.0056
G3 X57.241 Y25.4128 I0.3018 J-1.2754
G3 Y25.4102 I0.3147 J-0.0013
G3 X58.2499 Y24.1407 I1.31 J0.0056
G3 X57.241 Y22.8714 I0.3013 J-1.2751
G3 Y22.8687 I0.3147 J-0.0014
G3 X58.2489 Y21.5995 I1.31 J0.0056
G3 X57.241 Y20.3299 I0.3027 J-1.2752
G3 Y20.3273 I0.3147 J-0.0013
G3 X58.2497 Y19.0579 I1.31 J0.0056
G3 X57.241 Y17.7892 I0.3011 J-1.2747
G3 Y17.7864 I0.3147 J-0.0014
G3 X58.2503 Y16.5165 I1.3106 J0.0055
G3 X57.241 Y15.2471 I0.301 J-1.2752
G3 Y15.2443 I0.3147 J-0.0014
G3 X58.2498 Y13.9754 I1.3095 J0.0056
G3 X57.241 Y12.7056 I0.3019 J-1.2754
G3 Y12.7029 I0.3147 J-0.0013
G3 X58.2499 Y11.4335 I1.31 J0.0056
G3 X57.241 Y10.1642 I0.3013 J-1.2751
G3 Y10.1597 I0.3147 J-0.0014
G3 X57.3098 Y7.9232 I54.191 J0.5466
G3 Y7.9217 I0.3143 J0.0162
G1 X57.3335 Y7.5026
G3 X57.3336 Y7.4999 I0.3142 J0.0177
G1 X57.359 Y7.1082
G3 X57.3727 Y6.9163 I5.7012 J0.3098
G1 X57.4003 Y6.5602
G3 X57.4006 Y6.5575 I0.3138 J0.0244
G1 X57.4296 Y6.2218
G3 X57.4297 Y6.2205 I0.3135 J0.0271
G3 X57.5707 Y4.9497 I31.7371 J2.8771
G3 X57.571 Y4.9473 I0.312 J0.041
G1 X57.604 Y4.7097
G3 X57.6044 Y4.7072 I0.3117 J0.0434
G1 X57.6207 Y4.5961
G3 X57.7743 Y3.7164 I14.6999 J2.1123
G3 X57.775 Y3.7129 I0.3083 J0.0634
G1 X57.8456 Y3.388
G3 X57.8464 Y3.3844 I0.3075 J0.0668
G3 X58.0021 Y2.7982 I8.6447 J1.9826
G3 X58.1577 Y2.3511 I4.7582 J1.405
G3 X58.2308 Y2.1791 I2.432 J0.9322
G3 X58.3854 Y1.8813 I2.3536 J1.0326
G3 X58.5401 Y1.6573 I1.5235 J0.8871
G3 X58.8885 Y1.3541 I0.9626 J0.7542
G3 X58.894 Y1.3509 I0.1581 J0.2721
G3 X59.4036 Y1.2529 I0.4048 J0.7306
G1 X60.1249 Y1.2223
G3 X60.1261 I0.0133 J0.3144
G1 X60.4899 Y1.2083
G3 X60.4909 Y1.2082 I0.0121 J0.3145
G1 X61.2073 Y1.1829
G3 X61.2082 I0.0111 J0.3145
G1 X61.5552 Y1.1716
G3 X61.5565 I0.0102 J0.3146
G1 X62.9229 Y1.1327
G3 X62.9246 I0.0089 J0.3146
G1 X64.2057 Y1.1031
G3 X64.2067 I0.0073 J0.3146
G3 X69.0158 Y1.0355 I8.0621 J402.4844
G3 X69.0162 I0.0025 J0.3147
G1 X70.8184 Y1.0236
G3 X70.8191 I0.0021 J0.3147
G1 X71.6076 Y1.0202
G3 X71.608 I0.0013 J0.3147
G1 X72.3472 Y1.018
G3 X72.3477 I0.0009 J0.3147
G1 X73.7336 Y1.0162
G3 X73.7345 I0.0004 J0.3147
G1 X76.1598 Y1.0198
G3 X76.1605 I-0.0005 J0.3147
G1 X77.0701 Y1.0232
G3 X77.0706 I-0.0012 J0.3147
G1 X78.6621 Y1.0317
G3 X79.857 Y1.0403 I-0.9878 J221.9753
G3 X83.4397 Y1.0779 I-4.2078 J571.5439
G3 X83.7501 Y1.395 I-0.0043 J0.3147
G1 X83.6776 Y10.5567
G3 X82.3845 Y11.8605 I-1.3096 J-0.0057
G3 X82.3705 Y11.8608 I-0.0127 J-0.3145
G3 X81.0659 Y10.5562 I0.005 J-1.3096
G3 X81.0667 Y10.5338 I0.3147 J-0.0012
G1 X81.2411 Y7.9484
G1 X62.2292 Y8.4258
G2 X62.1004 Y8.6914 I0.9743 J0.6362
G2 X62.068 Y8.9731 I0.7028 J0.2236
G3 X62.0681 Y8.9737 I-0.3137 J0.0248
G2 X62.1112 Y9.2061 I1.1083 J-0.0855
G3 X62.1151 Y9.2202 I-0.3016 J0.09
G2 X62.1376 Y9.2916 I0.5905 J-0.1469
G3 X62.1426 Y9.3055 I-0.2938 J0.1129
G2 X62.2041 Y9.4715 I2.4079 J-0.7983
G3 X62.2061 Y9.4766 I-0.2911 J0.1196
G1 X62.2604 Y9.6157
G3 X62.2626 Y9.6214 I-0.2932 J0.1144
G1 X62.3009 Y9.7255
G3 X62.3936 Y10.137 I-1.4232 J0.5366
G3 X62.3946 Y10.1642 I-0.3137 J0.0259
G3 X61.5538 Y11.3818 I-1.31 J-0.0056
G2 X62.4597 Y11.2859 I-0.5865 J-9.8673
G2 X63.6429 Y11.0365 I-1.7918 J-11.4312
G1 X63.9043 Y10.9651
G3 X63.9109 Y10.9633 I0.0829 J0.3036
G2 X63.9549 Y10.9508 I-0.1736 J-0.694
G3 X63.9635 Y10.9482 I0.0957 J0.2998
G2 X64.9485 Y10.6408 I-6.498 J-22.5505
G3 X64.949 Y10.6406 I0.1004 J0.2983
G1 X65.8174 Y10.3502
G3 X65.8182 Y10.3499 I0.0998 J0.2985
G1 X66.0079 Y10.2871
G3 X66.7557 Y10.0493 I7.7136 J22.9662
G3 X69.4491 Y9.4338 I5.3895 J17.3834
G3 X69.4508 Y9.4336 I0.0466 J0.3112
G3 X72.2082 Y9.2486 I2.5905 J17.9715
G3 X73.5118 Y10.5538 I-0.0064 J1.31
G3 Y10.5562 I-0.3147 J0.0012
G3 X72.3046 Y11.8568 I-1.3096 J-0.005
G3 X71.7086 Y12.1783 I-2.6774 J-4.2496
G3 X71.7071 Y12.179 I-0.1304 J-0.2864
G1 X71.5543 Y12.2476
G3 X71.5488 Y12.25 I-0.1289 J-0.2871
G3 X70.2711 Y12.7038 I-4.3313 J-10.1686
G3 X70.2708 Y12.7039 I-0.087 J-0.3025
G1 X69.9942 Y12.7832
G3 X69.9919 Y12.7838 I-0.0867 J-0.3025
G3 X68.8927 Y13.0564 I-5.3603 J-19.2671
G1 X68.8335 Y13.0694
G3 X68.8328 Y13.0696 I-0.068 J-0.3073
G1 X68.7737 Y13.0826
G3 X68.7707 Y13.0832 I-0.0673 J-0.3074
G1 X68.3007 Y13.1813
G3 X68.2974 Y13.182 I-0.0643 J-0.3081
G3 X67.4058 Y13.3482 I-8.2848 J-41.9676
G3 X67.404 Y13.3485 I-0.0544 J-0.31
G3 X64.2639 Y13.7804 I-8.4506 J-49.8174
G3 X63.474 Y13.8584 I-4.148 J-37.9522
G3 X63.4732 Y13.8585 I-0.0277 J-0.3135
G1 X62.8845 Y13.9089
G3 X62.882 Y13.9091 I-0.0269 J-0.3136
G1 X62.6611 Y13.9263
G3 X62.6609 I-0.0243 J-0.3138
G3 X61.466 Y13.9971 I-2.6255 J-34.1763
G3 X62.3947 Y15.2442 I-0.3812 J1.2531
G3 Y15.247 I-0.3147 J0.0014
G3 X61.3855 Y16.5165 I-1.31 J-0.0056
G3 X62.3947 Y17.7864 I-0.3014 J1.2755
G3 Y17.7891 I-0.3147 J0.0013
G3 X61.386 Y19.058 I-1.3095 J-0.0056
G3 X62.3946 Y20.3272 I-0.3016 J1.275
G3 X62.3947 Y20.3299 I-0.3147 J0.0014
G3 X61.3867 Y21.5996 I-1.3106 J-0.0055
G3 X62.3947 Y22.8687 I-0.3022 J1.2749
G3 Y22.8714 I-0.3147 J0.0014
G3 X61.3858 Y24.1408 I-1.31 J-0.0056
G1 X61.3537 Y24.0048
G3 X61.0889 Y24.0361 I-0.269 J-1.139
G3 X61.0862 I-0.0006 J-0.175
G1 X60.9275 Y24.0342
G1 X60.7789 Y24.0326
G1 X60.5003 Y24.0302
G1 X59.5243 Y24.0272
G1 X59.281 Y24.028
G1 X58.915 Y24.0308
G3 X58.914 I-0.0013 J-0.175
G2 X58.5522 Y24.0361 I0.0252 J14.1164
G3 X58.5467 I-0.0048 J-0.1749
G3 X57.3808 Y22.8708 I0.0045 J-1.1705
G3 Y22.8693 I0.175 J-0.0008
G3 X58.5467 Y21.7039 I1.1703 J0.005
G3 X58.5489 Y21.704 I0.0006 J0.175
G1 X59.1842 Y21.7096
G3 X59.1845 I-0.0016 J0.175
G2 X60.1345 Y21.7123 I0.6398 J-58.6927
G3 X60.135 I0.0009 J0.175
G1 X60.2542 Y21.712
G3 X60.2613 Y21.7121 I0.0004 J0.175
G2 X60.2989 Y21.712 I0.0173 J-0.4506
G3 X60.3057 Y21.7118 I0.0079 J0.1748
G1 X60.6964 Y21.7094
G3 X60.7081 Y21.7097 I0.0011 J0.175
G3 X60.72 Y21.7091 I0.0139 J0.1744
G1 X60.9029 Y21.707
G1 X60.9483 Y21.7063
G1 X61.0853 Y21.704
G3 X61.089 Y21.7039 I0.003 J0.175
G3 X62.2549 Y22.8693 I-0.0045 J1.1705
G3 Y22.8708 I-0.175 J0.0008
G3 X61.3537 Y24.0048 I-1.1703 J-0.005
G0 Z3.0
G0 X61.3038 Y24.2661
G0 Z1.25
G1 Z-0.15
G3 X62.2549 Y25.4107 I-0.2193 J1.1497
G3 Y25.4122 I-0.175 J0.0008
G3 X61.089 Y26.5781 I-1.1709 J-0.005
G3 X61.0875 I-0.0007 J-0.175
G3 X59.9227 Y25.412 I0.005 J-1.1698
G3 Y25.4109 I0.175 J-0.0005
G3 X61.0876 Y24.2454 I1.1695 J0.004
G3 X61.089 I0.0007 J0.175
G3 X61.3038 Y24.2661 I-0.0045 J1.1705
G0 Z3.0
G0 X59.6236 Y24.9656
G0 Z1.25
G1 Z-0.15
G3 X59.7135 Y25.4108 I-1.0801 J0.4497
G3 Y25.4122 I-0.175 J0.0007
G3 X58.5482 Y26.5781 I-1.1705 J-0.0045
G3 X58.5467 I-0.0008 J-0.175
G3 X57.3808 Y25.4122 I0.005 J-1.1709
G3 Y25.4107 I0.175 J-0.0007
G3 X58.5467 Y24.2454 I1.1703 J0.005
G3 X58.5481 I0.0006 J0.175
G3 X59.6236 Y24.9656 I-0.0045 J1.1699
G0 Z3.0
G0 X58.941 Y26.8568
G0 Z1.25
G1 Z-0.15
G3 X59.7135 Y27.9522 I-0.3971 J1.1001
G3 Y27.9536 I-0.175 J0.0007
G3 X58.5481 Y29.119 I-1.1699 J-0.0045
G3 X58.5467 I-0.0007 J-0.175
G3 X57.3808 Y27.9537 I0.0045 J-1.1705
G3 Y27.9522 I0.175 J-0.0008
G3 X58.5468 Y26.7874 I1.1698 J0.005
G3 X58.548 I0.0005 J0.175
G3 X58.941 Y26.8568 I-0.004 J1.1695
G0 Z3.0
G0 X60.0509 Y27.4242
G0 Z1.25
G1 Z-0.15
G3 X61.0877 Y26.7874 I1.0408 J0.5321
G3 X61.0889 I0.0006 J0.175
G3 X62.2549 Y27.9521 I-0.004 J1.1701
G3 Y27.9537 I-0.175 J0.0008
G3 X61.0889 Y29.119 I-1.1703 J-0.005
G3 X61.0876 I-0.0006 J-0.175
G3 X59.9227 Y27.9535 I0.0045 J-1.1694
G3 Y27.9523 I0.175 J-0.0006
G3 X60.0509 Y27.4242 I1.169 J0.004
G0 Z3.0
G0 X60.7172 Y29.3902
G0 Z1.25
G1 Z-0.15
G3 X61.0875 Y29.3283 I0.3756 J1.1082
G3 X61.089 I0.0008 J0.175
G3 X62.2549 Y30.4942 I-0.005 J1.1709
G3 Y30.4957 I-0.175 J0.0007
G3 X61.0888 Y31.6605 I-1.1698 J-0.005
G3 X61.0877 I-0.0005 J-0.175
G3 X59.9227 Y30.4955 I0.004 J-1.169
G3 Y30.4943 I0.175 J-0.0006
G3 X60.7172 Y29.3902 I1.1701 J0.004
G0 Z3.0
G0 X59.5858 Y29.967
G0 Z1.25
G1 Z-0.15
G3 X59.7135 Y30.4943 I-1.0426 J0.5316
G3 Y30.4956 I-0.175 J0.0006
G3 X58.548 Y31.6605 I-1.1694 J-0.0045
G3 X58.5468 I-0.0006 J-0.175
G3 X57.3807 Y30.4957 I0.004 J-1.1701
G3 Y30.4942 I0.175 J-0.0008
G3 X58.5466 Y29.3283 I1.1709 J0.005
G3 X58.5481 I0.0007 J0.175
G3 X59.5858 Y29.967 I-0.005 J1.1703
G0 Z3.0
G0 X58.9194 Y31.9317
G0 Z1.25
G1 Z-0.15
G3 X59.7135 Y33.0351 I-0.3758 J1.1079
G3 Y33.0365 I-0.175 J0.0007
G3 X58.5482 Y34.2025 I-1.1705 J-0.0045
G3 X58.5467 I-0.0008 J-0.175
G3 X57.3808 Y33.0366 I0.005 J-1.1709
G3 Y33.0351 I0.175 J-0.0007
G3 X58.5467 Y31.8697 I1.1703 J0.005
G3 X58.5481 I0.0006 J0.175
G3 X58.9194 Y31.9317 I-0.0045 J1.1699
G0 Z3.0
G0 X60.0503 Y32.5081
G0 Z1.25
G1 Z-0.15
G3 X61.0876 Y31.8697 I1.042 J0.5311
G3 X61.089 I0.0007 J0.175
G3 X62.2549 Y33.035 I-0.0045 J1.1705
G3 Y33.0366 I-0.175 J0.0008
G3 X61.089 Y34.2025 I-1.1709 J-0.005
G3 X61.0875 I-0.0007 J-0.175
G3 X59.9227 Y33.0364 I0.005 J-1.1698
G3 Y33.0352 I0.175 J-0.0005
G3 X60.0503 Y32.5081 I1.1695 J0.004
G0 Z3.0
G0 X60.7167 Y34.4731
G0 Z1.25
G1 Z-0.15
G3 X61.0876 Y34.4112 I0.3756 J1.1076
G3 X61.089 I0.0007 J0.175
G3 X62.2549 Y35.5765 I-0.0045 J1.1705
G3 Y35.578 I-0.175 J0.0008
G3 X61.0889 Y36.7433 I-1.1703 J-0.005
G3 X61.0876 I-0.0006 J-0.175
G3 X59.9227 Y35.5778 I0.0045 J-1.1694
G3 Y35.5766 I0.175 J-0.0006
G3 X60.7167 Y34.4731 I1.1695 J0.004
G0 Z3.0
G0 X59.5858 Y35.0497
G0 Z1.25
G1 Z-0.15
G3 X59.7135 Y35.5766 I-1.0423 J0.5314
G3 Y35.5779 I-0.175 J0.0007
G3 X58.5481 Y36.7433 I-1.1699 J-0.0045
G3 X58.5467 I-0.0007 J-0.175
G3 X57.3808 Y35.578 I0.0045 J-1.1705
G3 Y35.5765 I0.175 J-0.0008
G3 X58.5467 Y34.4112 I1.1703 J0.005
G3 X58.5481 I0.0006 J0.175
G3 X59.5858 Y35.0497 I-0.0045 J1.1699
G0 Z3.0
G0 X58.9194 Y37.0146
G0 Z1.25
G1 Z-0.15
G3 X59.7135 Y38.118 I-0.3758 J1.1079
G3 Y38.1194 I-0.175 J0.0007
G3 X58.5482 Y39.2853 I-1.1705 J-0.0045
G3 X58.5467 I-0.0008 J-0.175
G3 X57.3808 Y38.1194 I0.005 J-1.1709
G3 Y38.118 I0.175 J-0.0007
G3 X58.5467 Y36.9526 I1.1703 J0.005
G3 X58.5481 I0.0006 J0.175
G3 X58.9194 Y37.0146 I-0.0045 J1.1699
G0 Z3.0
G0 X60.0503 Y37.591
G0 Z1.25
G1 Z-0.15
G3 X61.0876 Y36.9526 I1.042 J0.5311
G3 X61.089 I0.0007 J0.175
G3 X62.2549 Y38.1179 I-0.0045 J1.1705
G3 Y38.1194 I-0.175 J0.0008
G3 X61.089 Y39.2853 I-1.1709 J-0.005
G3 X61.0875 I-0.0007 J-0.175
G3 X59.9227 Y38.1192 I0.005 J-1.1698
G3 Y38.1181 I0.175 J-0.0005
G3 X60.0503 Y37.591 I1.1695 J0.004
G0 Z3.0
G0 X60.7165 Y39.5565
G0 Z1.25
G1 Z-0.15
G3 X61.0877 Y39.4946 I0.3753 J1.1071
G3 X61.0889 I0.0006 J0.175
G3 X62.2549 Y40.6593 I-0.004 J1.1701
G3 Y40.6609 I-0.175 J0.0008
G3 X61.0889 Y41.8262 I-1.1703 J-0.005
G3 X61.0876 I-0.0006 J-0.175
G3 X59.9227 Y40.6607 I0.0045 J-1.1694
G3 Y40.6595 I0.175 J-0.0006
G3 X60.7165 Y39.5565 I1.169 J0.004
G0 Z3.0
G0 X59.5859 Y40.1329
G0 Z1.25
G1 Z-0.15
G3 X59.7135 Y40.6594 I-1.0419 J0.5312
G3 Y40.6608 I-0.175 J0.0007
G3 X58.5481 Y41.8262 I-1.1699 J-0.0045
G3 X58.5467 I-0.0007 J-0.175
G3 X57.3808 Y40.6609 I0.0045 J-1.1705
G3 Y40.6594 I0.175 J-0.0008
G3 X58.5468 Y39.4946 I1.1698 J0.005
G3 X58.548 I0.0005 J0.175
G3 X59.5859 Y40.1329 I-0.004 J1.1695
G0 Z3.0
G0 X58.9192 Y42.0975
G0 Z1.25
G1 Z-0.15
G3 X59.7135 Y43.2015 I-0.3761 J1.1083
G3 Y43.2028 I-0.175 J0.0006
G3 X58.548 Y44.3677 I-1.1694 J-0.0045
G3 X58.5468 I-0.0006 J-0.175
G3 X57.3808 Y43.2029 I0.004 J-1.1701
G3 Y43.2014 I0.175 J-0.0008
G3 X58.5467 Y42.0355 I1.1709 J0.005
G3 X58.5481 I0.0007 J0.175
G3 X58.9192 Y42.0975 I-0.005 J1.1703
G0 Z3.0
G0 X60.0504 Y42.6742
G0 Z1.25
G1 Z-0.15
G3 X61.0875 Y42.0355 I1.0424 J0.5314
G3 X61.089 I0.0008 J0.175
G3 X62.2549 Y43.2014 I-0.005 J1.1709
G3 Y43.2029 I-0.175 J0.0007
G3 X61.0888 Y44.3677 I-1.1698 J-0.005
G3 X61.0877 I-0.0005 J-0.175
G3 X59.9227 Y43.2027 I0.004 J-1.169
G3 Y43.2015 I0.175 J-0.0006
G3 X60.0504 Y42.6742 I1.1701 J0.004
G0 Z3.0
G0 X60.7167 Y44.6389
G0 Z1.25
G1 Z-0.15
G3 X61.0876 Y44.5769 I0.3756 J1.1076
G3 X61.089 I0.0007 J0.175
G3 X62.2549 Y45.7423 I-0.0045 J1.1705
G3 Y45.7438 I-0.175 J0.0008
G3 X61.089 Y46.9097 I-1.1709 J-0.005
G3 X61.0875 I-0.0007 J-0.175
G3 X59.9227 Y45.7436 I0.005 J-1.1698
G3 Y45.7424 I0.175 J-0.0005
G3 X60.7167 Y44.6389 I1.1695 J0.004
G0 Z3.0
G0 X59.5858 Y45.2154
G0 Z1.25
G1 Z-0.15
G3 X59.7135 Y45.7423 I-1.0423 J0.5314
G3 Y45.7437 I-0.175 J0.0007
G3 X58.5482 Y46.9097 I-1.1705 J-0.0045
G3 X58.5467 I-0.0008 J-0.175
G3 X57.3808 Y45.7438 I0.005 J-1.1709
G3 Y45.7423 I0.175 J-0.0007
G3 X58.5467 Y44.5769 I1.1703 J0.005
G3 X58.5481 I0.0006 J0.175
G3 X59.5858 Y45.2154 I-0.0045 J1.1699
G0 Z3.0
G0 X58.592 Y21.4942
G0 Z1.25
G1 Z-0.15
G3 X58.5482 Y21.4952 I-0.049 J-1.1694
G3 X58.5467 I-0.0008 J-0.175
G3 X57.3808 Y20.3293 I0.005 J-1.1709
G3 Y20.3279 I0.175 J-0.0007
G3 X58.5467 Y19.1625 I1.1703 J0.005
G3 X58.5481 I0.0006 J0.175
G3 X59.7135 Y20.3279 I-0.0045 J1.1699
G3 Y20.3293 I-0.175 J0.0007
G3 X58.592 Y21.4942 I-1.1705 J-0.0045
G0 Z3.0
G0 X60.0328 Y20.8208
G0 Z1.25
G1 Z-0.15
G3 X59.9227 Y20.3291 I1.0597 J-0.4953
G3 Y20.328 I0.175 J-0.0005
G3 X61.0876 Y19.1625 I1.1695 J0.004
G3 X61.089 I0.0007 J0.175
G3 X62.2549 Y20.3278 I-0.0045 J1.1705
G3 Y20.3293 I-0.175 J0.0008
G3 X61.089 Y21.4952 I-1.1709 J-0.005
G3 X61.0875 I-0.0007 J-0.175
G3 X60.0328 Y20.8208 I0.005 J-1.1698
G0 Z3.0
G0 X60.7068 Y18.8881
G0 Z1.25
G1 Z-0.15
G3 X59.9227 Y17.7883 I0.3849 J-1.1038
G3 Y17.7871 I0.175 J-0.0006
G3 X61.0875 Y16.6211 I1.1701 J0.004
G3 X61.089 I0.0008 J0.175
G3 X62.2549 Y17.787 I-0.005 J1.1709
G3 Y17.7885 I-0.175 J0.0007
G3 X61.0888 Y18.9533 I-1.1698 J-0.005
G3 X61.0877 I-0.0006 J-0.175
G3 X60.7068 Y18.8881 I0.004 J-1.169
G0 Z3.0
G0 X59.5856 Y18.3156
G0 Z1.25
G1 Z-0.15
G3 X58.548 Y18.9533 I-1.0415 J-0.5318
G3 X58.5468 I-0.0006 J-0.175
G3 X57.3808 Y17.7885 I0.004 J-1.1701
G3 Y17.787 I0.175 J-0.0008
G3 X58.5467 Y16.6211 I1.1709 J0.005
G3 X58.5481 I0.0007 J0.175
G3 X59.7135 Y17.7871 I-0.005 J1.1703
G3 Y17.7884 I-0.175 J0.0006
G3 X59.5856 Y18.3156 I-1.1694 J-0.0045
G0 Z3.0
G0 X58.9192 Y16.3498
G0 Z1.25
G1 Z-0.15
G3 X58.5481 Y16.4118 I-0.3756 J-1.108
G3 X58.5467 I-0.0007 J-0.175
G3 X57.3808 Y15.2464 I0.0045 J-1.1705
G3 Y15.2449 I0.175 J-0.0008
G3 X58.5469 Y14.0801 I1.1698 J0.005
G3 X58.548 I0.0005 J0.175
G3 X59.7135 Y15.245 I-0.004 J1.1695
G3 Y15.2463 I-0.175 J0.0007
G3 X58.9192 Y16.3498 I-1.1699 J-0.0045
G0 Z3.0
G0 X60.0503 Y15.7734
G0 Z1.25
G1 Z-0.15
G3 X59.9228 Y15.2463 I1.0419 J-0.531
G3 Y15.2451 I0.175 J-0.0006
G3 X61.0877 Y14.0801 I1.169 J0.004
G3 X61.0889 I0.0006 J0.175
G3 X62.2549 Y15.2449 I-0.004 J1.1701
G3 Y15.2464 I-0.175 J0.0008
G3 X61.0889 Y16.4118 I-1.1703 J-0.005
G3 X61.0876 I-0.0006 J-0.175
G3 X60.0503 Y15.7734 I0.0045 J-1.1694
G0 Z3.0
G0 X60.7167 Y13.8089
G0 Z1.25
G1 Z-0.15
G3 X59.9227 Y12.7048 I0.3758 J-1.1078
G3 Y12.7037 I0.175 J-0.0005
G3 X61.0869 Y11.5382 I1.1695 J0.004
G2 X62.4811 Y11.4239 I-0.1196 J-10.0237
G2 X63.6792 Y11.1714 I-1.8131 J-11.5692
G1 X63.9411 Y11.0998
G3 X63.9448 Y11.0989 I0.0461 J0.1688
G2 X63.9974 Y11.0839 I-0.2075 J-0.8295
G3 X64.0022 Y11.0825 I0.0532 J0.1667
G2 X64.9931 Y10.7732 I-6.5367 J-22.6848
G3 X64.9934 Y10.7731 I0.0558 J0.1659
G1 X65.8617 Y10.4827
G3 X65.8622 Y10.4825 I0.0555 J0.166
