( Made using CamBam - http://www.cambam.co.uk )
( PCB2 10/14/2016 11:47:09 PM )
( T0 : 0.7 )
G21 G90 G40
G0 Z3.0
( T0 : 0.7 )
T0 M6
( Perçage1 )
G17
M3 S1000
G0 X2.0444 Y37.6615
G0 Z3.0
G0 X2.0449 Y37.6615
G0 Z1.0
G1 F300.0 Z0.0
G3 F800.0 X2.0442 Y37.6619 Z-0.1333 I-0.0005 J0.0
G3 Y37.6611 Z-0.2667 I0.0002 J-0.0004
G3 X2.0449 Y37.6615 Z-0.4 I0.0003 J0.0004
G3 X2.0442 Y37.6619 Z-0.5333 I-0.0005 J0.0
G3 Y37.6611 Z-0.6667 I0.0002 J-0.0004
G3 X2.0449 Y37.6615 Z-0.8 I0.0003 J0.0004
G3 X2.0442 Y37.6619 Z-0.9333 I-0.0005 J0.0
G3 Y37.6611 Z-1.0667 I0.0002 J-0.0004
G3 X2.0449 Y37.6615 Z-1.2 I0.0003 J0.0004
G3 X2.0442 Y37.6619 I-0.0005 J0.0
G3 Y37.6611 I0.0002 J-0.0004
G3 X2.0449 Y37.6615 I0.0003 J0.0004
G0 Z3.0
G0 X12.1983 Y37.6482
G0 Z1.0
G1 F300.0 Z0.0
G3 F800.0 X12.1975 Y37.6487 Z-0.1333 I-0.0005 J0.0
G3 Y37.6478 Z-0.2667 I0.0002 J-0.0004
G3 X12.1983 Y37.6482 Z-0.4 I0.0003 J0.0004
G3 X12.1975 Y37.6487 Z-0.5333 I-0.0005 J0.0
G3 Y37.6478 Z-0.6667 I0.0002 J-0.0004
G3 X12.1983 Y37.6482 Z-0.8 I0.0003 J0.0004
G3 X12.1975 Y37.6487 Z-0.9333 I-0.0005 J0.0
G3 Y37.6478 Z-1.0667 I0.0002 J-0.0004
G3 X12.1983 Y37.6482 Z-1.2 I0.0003 J0.0004
G3 X12.1975 Y37.6487 I-0.0005 J0.0
G3 Y37.6478 I0.0002 J-0.0004
G3 X12.1983 Y37.6482 I0.0003 J0.0004
G0 Z3.0
G0 X18.3522 Y37.7227
G0 Z1.0
G1 F300.0 Z0.0
G3 F800.0 X18.3515 Y37.7231 Z-0.1333 I-0.0005 J0.0
G3 Y37.7223 Z-0.2667 I0.0002 J-0.0004
G3 X18.3522 Y37.7227 Z-0.4 I0.0003 J0.0004
G3 X18.3515 Y37.7231 Z-0.5333 I-0.0005 J0.0
G3 Y37.7223 Z-0.6667 I0.0002 J-0.0004
G3 X18.3522 Y37.7227 Z-0.8 I0.0003 J0.0004
G3 X18.3515 Y37.7231 Z-0.9333 I-0.0005 J0.0
G3 Y37.7223 Z-1.0667 I0.0002 J-0.0004
G3 X18.3522 Y37.7227 Z-1.2 I0.0003 J0.0004
G3 X18.3515 Y37.7231 I-0.0005 J0.0
G3 Y37.7223 I0.0002 J-0.0004
G3 X18.3522 Y37.7227 I0.0003 J0.0004
G0 Z3.0
G0 X18.3586 Y35.7355
G0 Z1.0
G1 F300.0 Z0.0
G3 F800.0 X18.3578 Y35.736 Z-0.1333 I-0.0005 J0.0
G3 Y35.7351 Z-0.2667 I0.0002 J-0.0004
G3 X18.3586 Y35.7355 Z-0.4 I0.0003 J0.0004
G3 X18.3578 Y35.736 Z-0.5333 I-0.0005 J0.0
G3 Y35.7351 Z-0.6667 I0.0002 J-0.0004
G3 X18.3586 Y35.7355 Z-0.8 I0.0003 J0.0004
G3 X18.3578 Y35.736 Z-0.9333 I-0.0005 J0.0
G3 Y35.7351 Z-1.0667 I0.0002 J-0.0004
G3 X18.3586 Y35.7355 Z-1.2 I0.0003 J0.0004
G3 X18.3578 Y35.736 I-0.0005 J0.0
G3 Y35.7351 I0.0002 J-0.0004
G3 X18.3586 Y35.7355 I0.0003 J0.0004
G0 Z3.0
G0 X25.9642 Y35.5298
G0 Z1.0
G1 F300.0 Z0.0
G3 F800.0 X25.9634 Y35.5303 Z-0.1333 I-0.0005 J0.0
G3 Y35.5294 Z-0.2667 I0.0002 J-0.0004
G3 X25.9642 Y35.5298 Z-0.4 I0.0003 J0.0004
G3 X25.9634 Y35.5303 Z-0.5333 I-0.0005 J0.0
G3 Y35.5294 Z-0.6667 I0.0002 J-0.0004
G3 X25.9642 Y35.5298 Z-0.8 I0.0003 J0.0004
G3 X25.9634 Y35.5303 Z-0.9333 I-0.0005 J0.0
G3 Y35.5294 Z-1.0667 I0.0002 J-0.0004
G3 X25.9642 Y35.5298 Z-1.2 I0.0003 J0.0004
G3 X25.9634 Y35.5303 I-0.0005 J0.0
G3 Y35.5294 I0.0002 J-0.0004
G3 X25.9642 Y35.5298 I0.0003 J0.0004
G0 Z3.0
G0 X25.9796 Y32.9887
G0 Z1.0
G1 F300.0 Z0.0
G3 F800.0 X25.9789 Y32.9891 Z-0.1333 I-0.0005 J0.0
G3 Y32.9882 Z-0.2667 I0.0002 J-0.0004
G3 X25.9796 Y32.9887 Z-0.4 I0.0003 J0.0004
G3 X25.9789 Y32.9891 Z-0.5333 I-0.0005 J0.0
G3 Y32.9882 Z-0.6667 I0.0002 J-0.0004
G3 X25.9796 Y32.9887 Z-0.8 I0.0003 J0.0004
G3 X25.9789 Y32.9891 Z-0.9333 I-0.0005 J0.0
G3 Y32.9882 Z-1.0667 I0.0002 J-0.0004
G3 X25.9796 Y32.9887 Z-1.2 I0.0003 J0.0004
G3 X25.9789 Y32.9891 I-0.0005 J0.0
G3 Y32.9882 I0.0002 J-0.0004
G3 X25.9796 Y32.9887 I0.0003 J0.0004
G0 Z3.0
G0 X25.9686 Y30.4497
G0 Z1.0
G1 F300.0 Z0.0
G3 F800.0 X25.9678 Y30.4501 Z-0.1333 I-0.0005 J0.0
G3 Y30.4493 Z-0.2667 I0.0003 J-0.0004
G3 X25.9686 Y30.4497 Z-0.4 I0.0003 J0.0004
G3 X25.9678 Y30.4501 Z-0.5333 I-0.0005 J0.0
G3 Y30.4493 Z-0.6667 I0.0003 J-0.0004
G3 X25.9686 Y30.4497 Z-0.8 I0.0003 J0.0004
G3 X25.9678 Y30.4501 Z-0.9333 I-0.0005 J0.0
G3 Y30.4493 Z-1.0667 I0.0003 J-0.0004
G3 X25.9686 Y30.4497 Z-1.2 I0.0003 J0.0004
G3 X25.9678 Y30.4501 I-0.0005 J0.0
G3 Y30.4493 I0.0003 J-0.0004
G3 X25.9686 Y30.4497 I0.0003 J0.0004
G0 Z3.0
G0 X22.034 Y27.14
G0 Z1.0
G1 F300.0 Z0.0
G3 F800.0 X22.0332 Y27.1404 Z-0.1333 I-0.0005 J0.0
G3 Y27.1395 Z-0.2667 I0.0003 J-0.0004
G3 X22.034 Y27.14 Z-0.4 I0.0003 J0.0004
G3 X22.0332 Y27.1404 Z-0.5333 I-0.0005 J0.0
G3 Y27.1395 Z-0.6667 I0.0003 J-0.0004
G3 X22.034 Y27.14 Z-0.8 I0.0003 J0.0004
G3 X22.0332 Y27.1404 Z-0.9333 I-0.0005 J0.0
G3 Y27.1395 Z-1.0667 I0.0003 J-0.0004
G3 X22.034 Y27.14 Z-1.2 I0.0003 J0.0004
G3 X22.0332 Y27.1404 I-0.0005 J0.0
G3 Y27.1395 I0.0003 J-0.0004
G3 X22.034 Y27.14 I0.0003 J0.0004
G0 Z3.0
G0 X22.0508 Y25.1396
G0 Z1.0
G1 F300.0 Z0.0
G3 F800.0 X22.0501 Y25.14 Z-0.1333 I-0.0005 J0.0
G3 Y25.1391 Z-0.2667 I0.0003 J-0.0004
G3 X22.0508 Y25.1396 Z-0.4 I0.0003 J0.0004
G3 X22.0501 Y25.14 Z-0.5333 I-0.0005 J0.0
G3 Y25.1391 Z-0.6667 I0.0003 J-0.0004
G3 X22.0508 Y25.1396 Z-0.8 I0.0003 J0.0004
G3 X22.0501 Y25.14 Z-0.9333 I-0.0005 J0.0
G3 Y25.1391 Z-1.0667 I0.0003 J-0.0004
G3 X22.0508 Y25.1396 Z-1.2 I0.0003 J0.0004
G3 X22.0501 Y25.14 I-0.0005 J0.0
G3 Y25.1391 I0.0003 J-0.0004
G3 X22.0508 Y25.1396 I0.0003 J0.0004
G0 Z3.0
G0 X22.045 Y23.1381
G0 Z1.0
G1 F300.0 Z0.0
G3 F800.0 X22.0443 Y23.1385 Z-0.1333 I-0.0005 J0.0
G3 Y23.1376 Z-0.2667 I0.0003 J-0.0004
G3 X22.045 Y23.1381 Z-0.4 I0.0003 J0.0004
G3 X22.0443 Y23.1385 Z-0.5333 I-0.0005 J0.0
G3 Y23.1376 Z-0.6667 I0.0003 J-0.0004
G3 X22.045 Y23.1381 Z-0.8 I0.0003 J0.0004
G3 X22.0443 Y23.1385 Z-0.9333 I-0.0005 J0.0
G3 Y23.1376 Z-1.0667 I0.0003 J-0.0004
G3 X22.045 Y23.1381 Z-1.2 I0.0003 J0.0004
G3 X22.0443 Y23.1385 I-0.0005 J0.0
G3 Y23.1376 I0.0003 J-0.0004
G3 X22.045 Y23.1381 I0.0003 J0.0004
G0 Z3.0
G0 X22.0235 Y21.1366
G0 Z1.0
G1 F300.0 Z0.0
G3 F800.0 X22.0227 Y21.137 Z-0.1333 I-0.0005 J0.0
G3 Y21.1362 Z-0.2667 I0.0003 J-0.0004
G3 X22.0235 Y21.1366 Z-0.4 I0.0003 J0.0004
G3 X22.0227 Y21.137 Z-0.5333 I-0.0005 J0.0
G3 Y21.1362 Z-0.6667 I0.0003 J-0.0004
G3 X22.0235 Y21.1366 Z-0.8 I0.0003 J0.0004
G3 X22.0227 Y21.137 Z-0.9333 I-0.0005 J0.0
G3 Y21.1362 Z-1.0667 I0.0003 J-0.0004
G3 X22.0235 Y21.1366 Z-1.2 I0.0003 J0.0004
G3 X22.0227 Y21.137 I-0.0005 J0.0
G3 Y21.1362 I0.0003 J-0.0004
G3 X22.0235 Y21.1366 I0.0003 J0.0004
G0 Z3.0
G0 X22.0257 Y19.1362
G0 Z1.0
G1 F300.0 Z0.0
G3 F800.0 X22.0249 Y19.1366 Z-0.1333 I-0.0005 J0.0
G3 Y19.1358 Z-0.2667 I0.0003 J-0.0004
G3 X22.0257 Y19.1362 Z-0.4 I0.0003 J0.0004
G3 X22.0249 Y19.1366 Z-0.5333 I-0.0005 J0.0
G3 Y19.1358 Z-0.6667 I0.0003 J-0.0004
G3 X22.0257 Y19.1362 Z-0.8 I0.0003 J0.0004
G3 X22.0249 Y19.1366 Z-0.9333 I-0.0005 J0.0
G3 Y19.1358 Z-1.0667 I0.0003 J-0.0004
G3 X22.0257 Y19.1362 Z-1.2 I0.0003 J0.0004
G3 X22.0249 Y19.1366 I-0.0005 J0.0
G3 Y19.1358 I0.0003 J-0.0004
G3 X22.0257 Y19.1362 I0.0003 J0.0004
G0 Z3.0
G0 X22.0196 Y17.1347
G0 Z1.0
G1 F300.0 Z0.0
G3 F800.0 X22.0189 Y17.1351 Z-0.1333 I-0.0005 J0.0
G3 Y17.1343 Z-0.2667 I0.0003 J-0.0004
G3 X22.0196 Y17.1347 Z-0.4 I0.0003 J0.0004
G3 X22.0189 Y17.1351 Z-0.5333 I-0.0005 J0.0
G3 Y17.1343 Z-0.6667 I0.0003 J-0.0004
G3 X22.0196 Y17.1347 Z-0.8 I0.0003 J0.0004
G3 X22.0189 Y17.1351 Z-0.9333 I-0.0005 J0.0
G3 Y17.1343 Z-1.0667 I0.0003 J-0.0004
G3 X22.0196 Y17.1347 Z-1.2 I0.0003 J0.0004
G3 X22.0189 Y17.1351 I-0.0005 J0.0
G3 Y17.1343 I0.0003 J-0.0004
G3 X22.0196 Y17.1347 I0.0003 J0.0004
G0 Z3.0
G0 X22.0235 Y15.1332
G0 Z1.0
G1 F300.0 Z0.0
G3 F800.0 X22.0227 Y15.1336 Z-0.1333 I-0.0005 J0.0
G3 Y15.1328 Z-0.2667 I0.0003 J-0.0004
G3 X22.0235 Y15.1332 Z-0.4 I0.0003 J0.0004
G3 X22.0227 Y15.1336 Z-0.5333 I-0.0005 J0.0
G3 Y15.1328 Z-0.6667 I0.0003 J-0.0004
G3 X22.0235 Y15.1332 Z-0.8 I0.0003 J0.0004
G3 X22.0227 Y15.1336 Z-0.9333 I-0.0005 J0.0
G3 Y15.1328 Z-1.0667 I0.0003 J-0.0004
G3 X22.0235 Y15.1332 Z-1.2 I0.0003 J0.0004
G3 X22.0227 Y15.1336 I-0.0005 J0.0
G3 Y15.1328 I0.0003 J-0.0004
G3 X22.0235 Y15.1332 I0.0003 J0.0004
G0 Z3.0
G0 X22.034 Y13.1328
G0 Z1.0
G1 F300.0 Z0.0
G3 F800.0 X22.0332 Y13.1333 Z-0.1333 I-0.0005 J0.0
G3 Y13.1324 Z-0.2667 I0.0003 J-0.0004
G3 X22.034 Y13.1328 Z-0.4 I0.0003 J0.0004
G3 X22.0332 Y13.1333 Z-0.5333 I-0.0005 J0.0
G3 Y13.1324 Z-0.6667 I0.0003 J-0.0004
G3 X22.034 Y13.1328 Z-0.8 I0.0003 J0.0004
G3 X22.0332 Y13.1333 Z-0.9333 I-0.0005 J0.0
G3 Y13.1324 Z-1.0667 I0.0003 J-0.0004
G3 X22.034 Y13.1328 Z-1.2 I0.0003 J0.0004
G3 X22.0332 Y13.1333 I-0.0005 J0.0
G3 Y13.1324 I0.0003 J-0.0004
G3 X22.034 Y13.1328 I0.0003 J0.0004
G0 Z3.0
G0 X33.7807 Y12.6924
G0 Z1.0
G1 F300.0 Z0.0
G3 F800.0 X33.7799 Y12.6929 Z-0.1333 I-0.0005 J0.0
G3 Y12.692 Z-0.2667 I0.0003 J-0.0004
G3 X33.7807 Y12.6924 Z-0.4 I0.0003 J0.0004
G3 X33.7799 Y12.6929 Z-0.5333 I-0.0005 J0.0
G3 Y12.692 Z-0.6667 I0.0003 J-0.0004
G3 X33.7807 Y12.6924 Z-0.8 I0.0003 J0.0004
G3 X33.7799 Y12.6929 Z-0.9333 I-0.0005 J0.0
G3 Y12.692 Z-1.0667 I0.0003 J-0.0004
G3 X33.7807 Y12.6924 Z-1.2 I0.0003 J0.0004
G3 X33.7799 Y12.6929 I-0.0005 J0.0
G3 Y12.692 I0.0003 J-0.0004
G3 X33.7807 Y12.6924 I0.0003 J0.0004
G0 Z3.0
G0 X36.3216
G0 Z1.0
G1 F300.0 Z0.0
G3 F800.0 X36.3208 Y12.6929 Z-0.1333 I-0.0005 J0.0
G3 Y12.692 Z-0.2667 I0.0003 J-0.0004
G3 X36.3216 Y12.6924 Z-0.4 I0.0003 J0.0004
G3 X36.3208 Y12.6929 Z-0.5333 I-0.0005 J0.0
G3 Y12.692 Z-0.6667 I0.0003 J-0.0004
G3 X36.3216 Y12.6924 Z-0.8 I0.0003 J0.0004
G3 X36.3208 Y12.6929 Z-0.9333 I-0.0005 J0.0
G3 Y12.692 Z-1.0667 I0.0003 J-0.0004
G3 X36.3216 Y12.6924 Z-1.2 I0.0003 J0.0004
G3 X36.3208 Y12.6929 I-0.0005 J0.0
G3 Y12.692 I0.0003 J-0.0004
G3 X36.3216 Y12.6924 I0.0003 J0.0004
G0 Z3.0
G0 Y15.2336
G0 Z1.0
G1 F300.0 Z0.0
G3 F800.0 X36.3208 Y15.234 Z-0.1333 I-0.0005 J0.0
G3 Y15.2331 Z-0.2667 I0.0003 J-0.0004
G3 X36.3216 Y15.2336 Z-0.4 I0.0003 J0.0004
G3 X36.3208 Y15.234 Z-0.5333 I-0.0005 J0.0
G3 Y15.2331 Z-0.6667 I0.0003 J-0.0004
G3 X36.3216 Y15.2336 Z-0.8 I0.0003 J0.0004
G3 X36.3208 Y15.234 Z-0.9333 I-0.0005 J0.0
G3 Y15.2331 Z-1.0667 I0.0003 J-0.0004
G3 X36.3216 Y15.2336 Z-1.2 I0.0003 J0.0004
G3 X36.3208 Y15.234 I-0.0005 J0.0
G3 Y15.2331 I0.0003 J-0.0004
G3 X36.3216 Y15.2336 I0.0003 J0.0004
G0 Z3.0
G0 X33.7807
G0 Z1.0
G1 F300.0 Z0.0
G3 F800.0 X33.7799 Y15.234 Z-0.1333 I-0.0005 J0.0
G3 Y15.2331 Z-0.2667 I0.0003 J-0.0004
G3 X33.7807 Y15.2336 Z-0.4 I0.0003 J0.0004
G3 X33.7799 Y15.234 Z-0.5333 I-0.0005 J0.0
G3 Y15.2331 Z-0.6667 I0.0003 J-0.0004
G3 X33.7807 Y15.2336 Z-0.8 I0.0003 J0.0004
G3 X33.7799 Y15.234 Z-0.9333 I-0.0005 J0.0
G3 Y15.2331 Z-1.0667 I0.0003 J-0.0004
G3 X33.7807 Y15.2336 Z-1.2 I0.0003 J0.0004
G3 X33.7799 Y15.234 I-0.0005 J0.0
G3 Y15.2331 I0.0003 J-0.0004
G3 X33.7807 Y15.2336 I0.0003 J0.0004
G0 Z3.0
G0 X33.7633 Y17.7753
G0 Z1.0
G1 F300.0 Z0.0
G3 F800.0 X33.7626 Y17.7757 Z-0.1333 I-0.0005 J0.0
G3 Y17.7749 Z-0.2667 I0.0003 J-0.0004
G3 X33.7633 Y17.7753 Z-0.4 I0.0003 J0.0004
G3 X33.7626 Y17.7757 Z-0.5333 I-0.0005 J0.0
G3 Y17.7749 Z-0.6667 I0.0003 J-0.0004
G3 X33.7633 Y17.7753 Z-0.8 I0.0003 J0.0004
G3 X33.7626 Y17.7757 Z-0.9333 I-0.0005 J0.0
G3 Y17.7749 Z-1.0667 I0.0003 J-0.0004
G3 X33.7633 Y17.7753 Z-1.2 I0.0003 J0.0004
G3 X33.7626 Y17.7757 I-0.0005 J0.0
G3 Y17.7749 I0.0003 J-0.0004
G3 X33.7633 Y17.7753 I0.0003 J0.0004
G0 Z3.0
G0 X33.7931 Y20.3168
G0 Z1.0
G1 F300.0 Z0.0
G3 F800.0 X33.7924 Y20.3172 Z-0.1333 I-0.0005 J0.0
G3 Y20.3163 Z-0.2667 I0.0003 J-0.0004
G3 X33.7931 Y20.3168 Z-0.4 I0.0003 J0.0004
G3 X33.7924 Y20.3172 Z-0.5333 I-0.0005 J0.0
G3 Y20.3163 Z-0.6667 I0.0003 J-0.0004
G3 X33.7931 Y20.3168 Z-0.8 I0.0003 J0.0004
G3 X33.7924 Y20.3172 Z-0.9333 I-0.0005 J0.0
G3 Y20.3163 Z-1.0667 I0.0003 J-0.0004
G3 X33.7931 Y20.3168 Z-1.2 I0.0003 J0.0004
G3 X33.7924 Y20.3172 I-0.0005 J0.0
G3 Y20.3163 I0.0003 J-0.0004
G3 X33.7931 Y20.3168 I0.0003 J0.0004
G0 Z3.0
G0 X36.3216
G0 Z1.0
G1 F300.0 Z0.0
G3 F800.0 X36.3208 Y20.3172 Z-0.1333 I-0.0005 J0.0
G3 Y20.3163 Z-0.2667 I0.0003 J-0.0004
G3 X36.3216 Y20.3168 Z-0.4 I0.0003 J0.0004
G3 X36.3208 Y20.3172 Z-0.5333 I-0.0005 J0.0
G3 Y20.3163 Z-0.6667 I0.0003 J-0.0004
G3 X36.3216 Y20.3168 Z-0.8 I0.0003 J0.0004
G3 X36.3208 Y20.3172 Z-0.9333 I-0.0005 J0.0
G3 Y20.3163 Z-1.0667 I0.0003 J-0.0004
G3 X36.3216 Y20.3168 Z-1.2 I0.0003 J0.0004
G3 X36.3208 Y20.3172 I-0.0005 J0.0
G3 Y20.3163 I0.0003 J-0.0004
G3 X36.3216 Y20.3168 I0.0003 J0.0004
G0 Z3.0
G0 Y22.8579
G0 Z1.0
G1 F300.0 Z0.0
G3 F800.0 X36.3208 Y22.8583 Z-0.1333 I-0.0005 J0.0
G3 Y22.8575 Z-0.2667 I0.0003 J-0.0004
G3 X36.3216 Y22.8579 Z-0.4 I0.0003 J0.0004
G3 X36.3208 Y22.8583 Z-0.5333 I-0.0005 J0.0
G3 Y22.8575 Z-0.6667 I0.0003 J-0.0004
G3 X36.3216 Y22.8579 Z-0.8 I0.0003 J0.0004
G3 X36.3208 Y22.8583 Z-0.9333 I-0.0005 J0.0
G3 Y22.8575 Z-1.0667 I0.0003 J-0.0004
G3 X36.3216 Y22.8579 Z-1.2 I0.0003 J0.0004
G3 X36.3208 Y22.8583 I-0.0005 J0.0
G3 Y22.8575 I0.0003 J-0.0004
G3 X36.3216 Y22.8579 I0.0003 J0.0004
G0 Z3.0
G0 X33.789
G0 Z1.0
G1 F300.0 Z0.0
G3 F800.0 X33.7882 Y22.8583 Z-0.1333 I-0.0005 J0.0
G3 Y22.8575 Z-0.2667 I0.0003 J-0.0004
G3 X33.789 Y22.8579 Z-0.4 I0.0003 J0.0004
G3 X33.7882 Y22.8583 Z-0.5333 I-0.0005 J0.0
G3 Y22.8575 Z-0.6667 I0.0003 J-0.0004
G3 X33.789 Y22.8579 Z-0.8 I0.0003 J0.0004
G3 X33.7882 Y22.8583 Z-0.9333 I-0.0005 J0.0
G3 Y22.8575 Z-1.0667 I0.0003 J-0.0004
G3 X33.789 Y22.8579 Z-1.2 I0.0003 J0.0004
G3 X33.7882 Y22.8583 I-0.0005 J0.0
G3 Y22.8575 I0.0003 J-0.0004
G3 X33.789 Y22.8579 I0.0003 J0.0004
G0 Z3.0
G0 X33.7937 Y25.3996
G0 Z1.0
G1 F300.0 Z0.0
G3 F800.0 X33.7929 Y25.4001 Z-0.1333 I-0.0005 J0.0
G3 Y25.3992 Z-0.2667 I0.0003 J-0.0004
G3 X33.7937 Y25.3996 Z-0.4 I0.0003 J0.0004
G3 X33.7929 Y25.4001 Z-0.5333 I-0.0005 J0.0
G3 Y25.3992 Z-0.6667 I0.0003 J-0.0004
G3 X33.7937 Y25.3996 Z-0.8 I0.0003 J0.0004
G3 X33.7929 Y25.4001 Z-0.9333 I-0.0005 J0.0
G3 Y25.3992 Z-1.0667 I0.0003 J-0.0004
G3 X33.7937 Y25.3996 Z-1.2 I0.0003 J0.0004
G3 X33.7929 Y25.4001 I-0.0005 J0.0
G3 Y25.3992 I0.0003 J-0.0004
G3 X33.7937 Y25.3996 I0.0003 J0.0004
G0 Z3.0
G0 X36.3216
G0 Z1.0
G1 F300.0 Z0.0
G3 F800.0 X36.3208 Y25.4001 Z-0.1333 I-0.0005 J0.0
G3 Y25.3992 Z-0.2667 I0.0003 J-0.0004
G3 X36.3216 Y25.3996 Z-0.4 I0.0003 J0.0004
G3 X36.3208 Y25.4001 Z-0.5333 I-0.0005 J0.0
G3 Y25.3992 Z-0.6667 I0.0003 J-0.0004
G3 X36.3216 Y25.3996 Z-0.8 I0.0003 J0.0004
G3 X36.3208 Y25.4001 Z-0.9333 I-0.0005 J0.0
G3 Y25.3992 Z-1.0667 I0.0003 J-0.0004
G3 X36.3216 Y25.3996 Z-1.2 I0.0003 J0.0004
G3 X36.3208 Y25.4001 I-0.0005 J0.0
G3 Y25.3992 I0.0003 J-0.0004
G3 X36.3216 Y25.3996 I0.0003 J0.0004
G0 Z3.0
G0 Y27.9408
G0 Z1.0
G1 F300.0 Z0.0
G3 F800.0 X36.3208 Y27.9412 Z-0.1333 I-0.0005 J0.0
G3 Y27.9404 Z-0.2667 I0.0003 J-0.0004
G3 X36.3216 Y27.9408 Z-0.4 I0.0003 J0.0004
G3 X36.3208 Y27.9412 Z-0.5333 I-0.0005 J0.0
G3 Y27.9404 Z-0.6667 I0.0003 J-0.0004
G3 X36.3216 Y27.9408 Z-0.8 I0.0003 J0.0004
G3 X36.3208 Y27.9412 Z-0.9333 I-0.0005 J0.0
G3 Y27.9404 Z-1.0667 I0.0003 J-0.0004
G3 X36.3216 Y27.9408 Z-1.2 I0.0003 J0.0004
G3 X36.3208 Y27.9412 I-0.0005 J0.0
G3 Y27.9404 I0.0003 J-0.0004
G3 X36.3216 Y27.9408 I0.0003 J0.0004
G0 Z3.0
G0 X33.792
G0 Z1.0
G1 F300.0 Z0.0
G3 F800.0 X33.7913 Y27.9412 Z-0.1333 I-0.0005 J0.0
G3 Y27.9404 Z-0.2667 I0.0003 J-0.0004
G3 X33.792 Y27.9408 Z-0.4 I0.0003 J0.0004
G3 X33.7913 Y27.9412 Z-0.5333 I-0.0005 J0.0
G3 Y27.9404 Z-0.6667 I0.0003 J-0.0004
G3 X33.792 Y27.9408 Z-0.8 I0.0003 J0.0004
G3 X33.7913 Y27.9412 Z-0.9333 I-0.0005 J0.0
G3 Y27.9404 Z-1.0667 I0.0003 J-0.0004
G3 X33.792 Y27.9408 Z-1.2 I0.0003 J0.0004
G3 X33.7913 Y27.9412 I-0.0005 J0.0
G3 Y27.9404 I0.0003 J-0.0004
G3 X33.792 Y27.9408 I0.0003 J0.0004
G0 Z3.0
G0 X33.7801 Y30.4825
G0 Z1.0
G1 F300.0 Z0.0
G3 F800.0 X33.7794 Y30.4829 Z-0.1333 I-0.0005 J0.0
G3 Y30.4821 Z-0.2667 I0.0003 J-0.0004
G3 X33.7801 Y30.4825 Z-0.4 I0.0003 J0.0004
G3 X33.7794 Y30.4829 Z-0.5333 I-0.0005 J0.0
G3 Y30.4821 Z-0.6667 I0.0003 J-0.0004
G3 X33.7801 Y30.4825 Z-0.8 I0.0003 J0.0004
G3 X33.7794 Y30.4829 Z-0.9333 I-0.0005 J0.0
G3 Y30.4821 Z-1.0667 I0.0003 J-0.0004
G3 X33.7801 Y30.4825 Z-1.2 I0.0003 J0.0004
G3 X33.7794 Y30.4829 I-0.0005 J0.0
G3 Y30.4821 I0.0003 J-0.0004
G3 X33.7801 Y30.4825 I0.0003 J0.0004
G0 Z3.0
G0 Y33.024
G0 Z1.0
G1 F300.0 Z0.0
G3 F800.0 X33.7794 Y33.0244 Z-0.1333 I-0.0005 J0.0
G3 Y33.0235 Z-0.2667 I0.0003 J-0.0004
G3 X33.7801 Y33.024 Z-0.4 I0.0003 J0.0004
G3 X33.7794 Y33.0244 Z-0.5333 I-0.0005 J0.0
G3 Y33.0235 Z-0.6667 I0.0003 J-0.0004
G3 X33.7801 Y33.024 Z-0.8 I0.0003 J0.0004
G3 X33.7794 Y33.0244 Z-0.9333 I-0.0005 J0.0
G3 Y33.0235 Z-1.0667 I0.0003 J-0.0004
G3 X33.7801 Y33.024 Z-1.2 I0.0003 J0.0004
G3 X33.7794 Y33.0244 I-0.0005 J0.0
G3 Y33.0235 I0.0003 J-0.0004
G3 X33.7801 Y33.024 I0.0003 J0.0004
G0 Z3.0
G0 X33.7931 Y35.5651
G0 Z1.0
G1 F300.0 Z0.0
G3 F800.0 X33.7923 Y35.5656 Z-0.1333 I-0.0005 J0.0
G3 Y35.5647 Z-0.2667 I0.0003 J-0.0004
G3 X33.7931 Y35.5651 Z-0.4 I0.0003 J0.0004
G3 X33.7923 Y35.5656 Z-0.5333 I-0.0005 J0.0
G3 Y35.5647 Z-0.6667 I0.0003 J-0.0004
G3 X33.7931 Y35.5651 Z-0.8 I0.0003 J0.0004
G3 X33.7923 Y35.5656 Z-0.9333 I-0.0005 J0.0
G3 Y35.5647 Z-1.0667 I0.0003 J-0.0004
G3 X33.7931 Y35.5651 Z-1.2 I0.0003 J0.0004
G3 X33.7923 Y35.5656 I-0.0005 J0.0
G3 Y35.5647 I0.0003 J-0.0004
G3 X33.7931 Y35.5651 I0.0003 J0.0004
G0 Z3.0
G0 X36.3216
G0 Z1.0
G1 F300.0 Z0.0
G3 F800.0 X36.3208 Y35.5656 Z-0.1333 I-0.0005 J0.0
G3 Y35.5647 Z-0.2667 I0.0003 J-0.0004
G3 X36.3216 Y35.5651 Z-0.4 I0.0003 J0.0004
G3 X36.3208 Y35.5656 Z-0.5333 I-0.0005 J0.0
G3 Y35.5647 Z-0.6667 I0.0003 J-0.0004
G3 X36.3216 Y35.5651 Z-0.8 I0.0003 J0.0004
G3 X36.3208 Y35.5656 Z-0.9333 I-0.0005 J0.0
G3 Y35.5647 Z-1.0667 I0.0003 J-0.0004
G3 X36.3216 Y35.5651 Z-1.2 I0.0003 J0.0004
G3 X36.3208 Y35.5656 I-0.0005 J0.0
G3 Y35.5647 I0.0003 J-0.0004
G3 X36.3216 Y35.5651 I0.0003 J0.0004
G0 Z3.0
G0 X36.3219 Y33.0239
G0 Z1.0
G1 F300.0 Z0.0
G3 F800.0 X36.3211 Y33.0244 Z-0.1333 I-0.0005 J0.0
G3 Y33.0235 Z-0.2667 I0.0003 J-0.0004
G3 X36.3219 Y33.0239 Z-0.4 I0.0003 J0.0004
G3 X36.3211 Y33.0244 Z-0.5333 I-0.0005 J0.0
G3 Y33.0235 Z-0.6667 I0.0003 J-0.0004
G3 X36.3219 Y33.0239 Z-0.8 I0.0003 J0.0004
G3 X36.3211 Y33.0244 Z-0.9333 I-0.0005 J0.0
G3 Y33.0235 Z-1.0667 I0.0003 J-0.0004
G3 X36.3219 Y33.0239 Z-1.2 I0.0003 J0.0004
G3 X36.3211 Y33.0244 I-0.0005 J0.0
G3 Y33.0235 I0.0003 J-0.0004
G3 X36.3219 Y33.0239 I0.0003 J0.0004
G0 Z3.0
G0 X36.3257 Y30.4825
G0 Z1.0
G1 F300.0 Z0.0
G3 F800.0 X36.325 Y30.4829 Z-0.1333 I-0.0005 J0.0
G3 Y30.4821 Z-0.2667 I0.0003 J-0.0004
G3 X36.3257 Y30.4825 Z-0.4 I0.0003 J0.0004
G3 X36.325 Y30.4829 Z-0.5333 I-0.0005 J0.0
G3 Y30.4821 Z-0.6667 I0.0003 J-0.0004
G3 X36.3257 Y30.4825 Z-0.8 I0.0003 J0.0004
G3 X36.325 Y30.4829 Z-0.9333 I-0.0005 J0.0
G3 Y30.4821 Z-1.0667 I0.0003 J-0.0004
G3 X36.3257 Y30.4825 Z-1.2 I0.0003 J0.0004
G3 X36.325 Y30.4829 I-0.0005 J0.0
G3 Y30.4821 I0.0003 J-0.0004
G3 X36.3257 Y30.4825 I0.0003 J0.0004
G0 Z3.0
G0 X42.1408 Y30.2178
G0 Z1.0
G1 F300.0 Z0.0
G3 F800.0 X42.14 Y30.2182 Z-0.1333 I-0.0005 J0.0
G3 Y30.2173 Z-0.2667 I0.0003 J-0.0004
G3 X42.1408 Y30.2178 Z-0.4 I0.0003 J0.0004
G3 X42.14 Y30.2182 Z-0.5333 I-0.0005 J0.0
G3 Y30.2173 Z-0.6667 I0.0003 J-0.0004
G3 X42.1408 Y30.2178 Z-0.8 I0.0003 J0.0004
G3 X42.14 Y30.2182 Z-0.9333 I-0.0005 J0.0
G3 Y30.2173 Z-1.0667 I0.0003 J-0.0004
G3 X42.1408 Y30.2178 Z-1.2 I0.0003 J0.0004
G3 X42.14 Y30.2182 I-0.0005 J0.0
G3 Y30.2173 I0.0003 J-0.0004
G3 X42.1408 Y30.2178 I0.0003 J0.0004
G0 Z3.0
G0 X44.656 Y30.1927
G0 Z1.0
G1 F300.0 Z0.0
G3 F800.0 X44.6552 Y30.1931 Z-0.1333 I-0.0005 J0.0
G3 Y30.1923 Z-0.2667 I0.0003 J-0.0004
G3 X44.656 Y30.1927 Z-0.4 I0.0003 J0.0004
G3 X44.6552 Y30.1931 Z-0.5333 I-0.0005 J0.0
G3 Y30.1923 Z-0.6667 I0.0003 J-0.0004
G3 X44.656 Y30.1927 Z-0.8 I0.0003 J0.0004
G3 X44.6552 Y30.1931 Z-0.9333 I-0.0005 J0.0
G3 Y30.1923 Z-1.0667 I0.0003 J-0.0004
G3 X44.656 Y30.1927 Z-1.2 I0.0003 J0.0004
G3 X44.6552 Y30.1931 I-0.0005 J0.0
G3 Y30.1923 I0.0003 J-0.0004
G3 X44.656 Y30.1927 I0.0003 J0.0004
G0 Z3.0
G0 X44.6673 Y22.6083
G0 Z1.0
G1 F300.0 Z0.0
G3 F800.0 X44.6666 Y22.6088 Z-0.1333 I-0.0005 J0.0
G3 Y22.6079 Z-0.2667 I0.0003 J-0.0004
G3 X44.6673 Y22.6083 Z-0.4 I0.0003 J0.0004
G3 X44.6666 Y22.6088 Z-0.5333 I-0.0005 J0.0
G3 Y22.6079 Z-0.6667 I0.0003 J-0.0004
G3 X44.6673 Y22.6083 Z-0.8 I0.0003 J0.0004
G3 X44.6666 Y22.6088 Z-0.9333 I-0.0005 J0.0
G3 Y22.6079 Z-1.0667 I0.0003 J-0.0004
G3 X44.6673 Y22.6083 Z-1.2 I0.0003 J0.0004
G3 X44.6666 Y22.6088 I-0.0005 J0.0
G3 Y22.6079 I0.0003 J-0.0004
G3 X44.6673 Y22.6083 I0.0003 J0.0004
G0 Z3.0
G0 X42.1432 Y22.594
G0 Z1.0
G1 F300.0 Z0.0
G3 F800.0 X42.1425 Y22.5944 Z-0.1333 I-0.0005 J0.0
G3 Y22.5936 Z-0.2667 I0.0003 J-0.0004
G3 X42.1432 Y22.594 Z-0.4 I0.0003 J0.0004
G3 X42.1425 Y22.5944 Z-0.5333 I-0.0005 J0.0
G3 Y22.5936 Z-0.6667 I0.0003 J-0.0004
G3 X42.1432 Y22.594 Z-0.8 I0.0003 J0.0004
G3 X42.1425 Y22.5944 Z-0.9333 I-0.0005 J0.0
G3 Y22.5936 Z-1.0667 I0.0003 J-0.0004
G3 X42.1432 Y22.594 Z-1.2 I0.0003 J0.0004
G3 X42.1425 Y22.5944 I-0.0005 J0.0
G3 Y22.5936 I0.0003 J-0.0004
G3 X42.1432 Y22.594 I0.0003 J0.0004
G0 Z3.0
G0 X40.0254 Y19.3474
G0 Z1.0
G1 F300.0 Z0.0
G3 F800.0 X40.0246 Y19.3479 Z-0.1333 I-0.0005 J0.0
G3 Y19.347 Z-0.2667 I0.0003 J-0.0004
G3 X40.0254 Y19.3474 Z-0.4 I0.0003 J0.0004
G3 X40.0246 Y19.3479 Z-0.5333 I-0.0005 J0.0
G3 Y19.347 Z-0.6667 I0.0003 J-0.0004
G3 X40.0254 Y19.3474 Z-0.8 I0.0003 J0.0004
G3 X40.0246 Y19.3479 Z-0.9333 I-0.0005 J0.0
G3 Y19.347 Z-1.0667 I0.0003 J-0.0004
G3 X40.0254 Y19.3474 Z-1.2 I0.0003 J0.0004
G3 X40.0246 Y19.3479 I-0.0005 J0.0
G3 Y19.347 I0.0003 J-0.0004
G3 X40.0254 Y19.3474 I0.0003 J0.0004
G0 Z3.0
G0 X36.339 Y17.7753
G0 Z1.0
G1 F300.0 Z0.0
G3 F800.0 X36.3382 Y17.7757 Z-0.1333 I-0.0005 J0.0
G3 Y17.7749 Z-0.2667 I0.0003 J-0.0004
G3 X36.339 Y17.7753 Z-0.4 I0.0003 J0.0004
G3 X36.3382 Y17.7757 Z-0.5333 I-0.0005 J0.0
G3 Y17.7749 Z-0.6667 I0.0003 J-0.0004
G3 X36.339 Y17.7753 Z-0.8 I0.0003 J0.0004
G3 X36.3382 Y17.7757 Z-0.9333 I-0.0005 J0.0
G3 Y17.7749 Z-1.0667 I0.0003 J-0.0004
G3 X36.339 Y17.7753 Z-1.2 I0.0003 J0.0004
G3 X36.3382 Y17.7757 I-0.0005 J0.0
G3 Y17.7749 I0.0003 J-0.0004
G3 X36.339 Y17.7753 I0.0003 J0.0004
G0 Z3.0
G0 X36.3216 Y10.1507
G0 Z1.0
G1 F300.0 Z0.0
G3 F800.0 X36.3208 Y10.1511 Z-0.1333 I-0.0005 J0.0
G3 Y10.1503 Z-0.2667 I0.0003 J-0.0004
G3 X36.3216 Y10.1507 Z-0.4 I0.0003 J0.0004
G3 X36.3208 Y10.1511 Z-0.5333 I-0.0005 J0.0
G3 Y10.1503 Z-0.6667 I0.0003 J-0.0004
G3 X36.3216 Y10.1507 Z-0.8 I0.0003 J0.0004
G3 X36.3208 Y10.1511 Z-0.9333 I-0.0005 J0.0
G3 Y10.1503 Z-1.0667 I0.0003 J-0.0004
G3 X36.3216 Y10.1507 Z-1.2 I0.0003 J0.0004
G3 X36.3208 Y10.1511 I-0.0005 J0.0
G3 Y10.1503 I0.0003 J-0.0004
G3 X36.3216 Y10.1507 I0.0003 J0.0004
G0 Z3.0
G0 X33.7807
G0 Z1.0
G1 F300.0 Z0.0
G3 F800.0 X33.7799 Y10.1511 Z-0.1333 I-0.0005 J0.0
G3 Y10.1503 Z-0.2667 I0.0003 J-0.0004
G3 X33.7807 Y10.1507 Z-0.4 I0.0003 J0.0004
G3 X33.7799 Y10.1511 Z-0.5333 I-0.0005 J0.0
G3 Y10.1503 Z-0.6667 I0.0003 J-0.0004
G3 X33.7807 Y10.1507 Z-0.8 I0.0003 J0.0004
G3 X33.7799 Y10.1511 Z-0.9333 I-0.0005 J0.0
G3 Y10.1503 Z-1.0667 I0.0003 J-0.0004
G3 X33.7807 Y10.1507 Z-1.2 I0.0003 J0.0004
G3 X33.7799 Y10.1511 I-0.0005 J0.0
G3 Y10.1503 I0.0003 J-0.0004
G3 X33.7807 Y10.1507 I0.0003 J0.0004
G0 Z3.0
G0 X40.0254 Y9.209
G0 Z1.0
G1 F300.0 Z0.0
G3 F800.0 X40.0246 Y9.2094 Z-0.1333 I-0.0005 J0.0
G3 Y9.2085 Z-0.2667 I0.0003 J-0.0004
G3 X40.0254 Y9.209 Z-0.4 I0.0003 J0.0004
G3 X40.0246 Y9.2094 Z-0.5333 I-0.0005 J0.0
G3 Y9.2085 Z-0.6667 I0.0003 J-0.0004
G3 X40.0254 Y9.209 Z-0.8 I0.0003 J0.0004
G3 X40.0246 Y9.2094 Z-0.9333 I-0.0005 J0.0
G3 Y9.2085 Z-1.0667 I0.0003 J-0.0004
G3 X40.0254 Y9.209 Z-1.2 I0.0003 J0.0004
G3 X40.0246 Y9.2094 I-0.0005 J0.0
G3 Y9.2085 I0.0003 J-0.0004
G3 X40.0254 Y9.209 I0.0003 J0.0004
G0 Z3.0
G0 X58.5302 Y10.1631
G0 Z1.0
G1 F300.0 Z0.0
G3 F800.0 X58.5295 Y10.1635 Z-0.1333 I-0.0005 J0.0
G3 Y10.1627 Z-0.2667 I0.0003 J-0.0004
G3 X58.5302 Y10.1631 Z-0.4 I0.0003 J0.0004
G3 X58.5295 Y10.1635 Z-0.5333 I-0.0005 J0.0
G3 Y10.1627 Z-0.6667 I0.0003 J-0.0004
G3 X58.5302 Y10.1631 Z-0.8 I0.0003 J0.0004
G3 X58.5295 Y10.1635 Z-0.9333 I-0.0005 J0.0
G3 Y10.1627 Z-1.0667 I0.0003 J-0.0004
G3 X58.5302 Y10.1631 Z-1.2 I0.0003 J0.0004
G3 X58.5295 Y10.1635 I-0.0005 J0.0
G3 Y10.1627 I0.0003 J-0.0004
G3 X58.5302 Y10.1631 I0.0003 J0.0004
G0 Z3.0
G0 X58.5476 Y12.704
G0 Z1.0
G1 F300.0 Z0.0
G3 F800.0 X58.5469 Y12.7044 Z-0.1333 I-0.0005 J0.0
G3 Y12.7036 Z-0.2667 I0.0003 J-0.0004
G3 X58.5476 Y12.704 Z-0.4 I0.0003 J0.0004
G3 X58.5469 Y12.7044 Z-0.5333 I-0.0005 J0.0
G3 Y12.7036 Z-0.6667 I0.0003 J-0.0004
G3 X58.5476 Y12.704 Z-0.8 I0.0003 J0.0004
G3 X58.5469 Y12.7044 Z-0.9333 I-0.0005 J0.0
G3 Y12.7036 Z-1.0667 I0.0003 J-0.0004
G3 X58.5476 Y12.704 Z-1.2 I0.0003 J0.0004
G3 X58.5469 Y12.7044 I-0.0005 J0.0
G3 Y12.7036 I0.0003 J-0.0004
G3 X58.5476 Y12.704 I0.0003 J0.0004
G0 Z3.0
G0 X61.0855
G0 Z1.0
G1 F300.0 Z0.0
G3 F800.0 X61.0847 Y12.7044 Z-0.1333 I-0.0005 J0.0
G3 Y12.7036 Z-0.2667 I0.0003 J-0.0004
G3 X61.0855 Y12.704 Z-0.4 I0.0003 J0.0004
G3 X61.0847 Y12.7044 Z-0.5333 I-0.0005 J0.0
G3 Y12.7036 Z-0.6667 I0.0003 J-0.0004
G3 X61.0855 Y12.704 Z-0.8 I0.0003 J0.0004
G3 X61.0847 Y12.7044 Z-0.9333 I-0.0005 J0.0
G3 Y12.7036 Z-1.0667 I0.0003 J-0.0004
G3 X61.0855 Y12.704 Z-1.2 I0.0003 J0.0004
G3 X61.0847 Y12.7044 I-0.0005 J0.0
G3 Y12.7036 I0.0003 J-0.0004
G3 X61.0855 Y12.704 I0.0003 J0.0004
G0 Z3.0
G0 X61.1067 Y10.2607
G0 Z1.0
G1 F300.0 Z0.0
G3 F800.0 X61.106 Y10.2612 Z-0.1333 I-0.0005 J0.0
G3 Y10.2603 Z-0.2667 I0.0003 J-0.0004
G3 X61.1067 Y10.2607 Z-0.4 I0.0003 J0.0004
G3 X61.106 Y10.2612 Z-0.5333 I-0.0005 J0.0
G3 Y10.2603 Z-0.6667 I0.0003 J-0.0004
G3 X61.1067 Y10.2607 Z-0.8 I0.0003 J0.0004
G3 X61.106 Y10.2612 Z-0.9333 I-0.0005 J0.0
G3 Y10.2603 Z-1.0667 I0.0003 J-0.0004
G3 X61.1067 Y10.2607 Z-1.2 I0.0003 J0.0004
G3 X61.106 Y10.2612 I-0.0005 J0.0
G3 Y10.2603 I0.0003 J-0.0004
G3 X61.1067 Y10.2607 I0.0003 J0.0004
G0 Z3.0
G0 X61.0893 Y15.246
G0 Z1.0
G1 F300.0 Z0.0
G3 F800.0 X61.0886 Y15.2464 Z-0.1333 I-0.0005 J0.0
G3 Y15.2456 Z-0.2667 I0.0003 J-0.0004
G3 X61.0893 Y15.246 Z-0.4 I0.0003 J0.0004
G3 X61.0886 Y15.2464 Z-0.5333 I-0.0005 J0.0
G3 Y15.2456 Z-0.6667 I0.0003 J-0.0004
G3 X61.0893 Y15.246 Z-0.8 I0.0003 J0.0004
G3 X61.0886 Y15.2464 Z-0.9333 I-0.0005 J0.0
G3 Y15.2456 Z-1.0667 I0.0003 J-0.0004
G3 X61.0893 Y15.246 Z-1.2 I0.0003 J0.0004
G3 X61.0886 Y15.2464 I-0.0005 J0.0
G3 Y15.2456 I0.0003 J-0.0004
G3 X61.0893 Y15.246 I0.0003 J0.0004
G0 Z3.0
G0 Y17.7872
G0 Z1.0
G1 F300.0 Z0.0
G3 F800.0 X61.0886 Y17.7876 Z-0.1333 I-0.0005 J0.0
G3 Y17.7867 Z-0.2667 I0.0003 J-0.0004
G3 X61.0893 Y17.7872 Z-0.4 I0.0003 J0.0004
G3 X61.0886 Y17.7876 Z-0.5333 I-0.0005 J0.0
G3 Y17.7867 Z-0.6667 I0.0003 J-0.0004
G3 X61.0893 Y17.7872 Z-0.8 I0.0003 J0.0004
G3 X61.0886 Y17.7876 Z-0.9333 I-0.0005 J0.0
G3 Y17.7867 Z-1.0667 I0.0003 J-0.0004
G3 X61.0893 Y17.7872 Z-1.2 I0.0003 J0.0004
G3 X61.0886 Y17.7876 I-0.0005 J0.0
G3 Y17.7867 I0.0003 J-0.0004
G3 X61.0893 Y17.7872 I0.0003 J0.0004
G0 Z3.0
G0 Y20.3286
G0 Z1.0
G1 F300.0 Z0.0
G3 F800.0 X61.0886 Y20.329 Z-0.1333 I-0.0005 J0.0
G3 Y20.3282 Z-0.2667 I0.0003 J-0.0004
G3 X61.0893 Y20.3286 Z-0.4 I0.0003 J0.0004
G3 X61.0886 Y20.329 Z-0.5333 I-0.0005 J0.0
G3 Y20.3282 Z-0.6667 I0.0003 J-0.0004
G3 X61.0893 Y20.3286 Z-0.8 I0.0003 J0.0004
G3 X61.0886 Y20.329 Z-0.9333 I-0.0005 J0.0
G3 Y20.3282 Z-1.0667 I0.0003 J-0.0004
G3 X61.0893 Y20.3286 Z-1.2 I0.0003 J0.0004
G3 X61.0886 Y20.329 I-0.0005 J0.0
G3 Y20.3282 I0.0003 J-0.0004
G3 X61.0893 Y20.3286 I0.0003 J0.0004
G0 Z3.0
G0 X58.5476
G0 Z1.0
G1 F300.0 Z0.0
G3 F800.0 X58.5469 Y20.329 Z-0.1333 I-0.0005 J0.0
G3 Y20.3282 Z-0.2667 I0.0003 J-0.0004
G3 X58.5476 Y20.3286 Z-0.4 I0.0003 J0.0004
G3 X58.5469 Y20.329 Z-0.5333 I-0.0005 J0.0
G3 Y20.3282 Z-0.6667 I0.0003 J-0.0004
G3 X58.5476 Y20.3286 Z-0.8 I0.0003 J0.0004
G3 X58.5469 Y20.329 Z-0.9333 I-0.0005 J0.0
G3 Y20.3282 Z-1.0667 I0.0003 J-0.0004
G3 X58.5476 Y20.3286 Z-1.2 I0.0003 J0.0004
G3 X58.5469 Y20.329 I-0.0005 J0.0
G3 Y20.3282 I0.0003 J-0.0004
G3 X58.5476 Y20.3286 I0.0003 J0.0004
G0 Z3.0
G0 Y17.7872
G0 Z1.0
G1 F300.0 Z0.0
G3 F800.0 X58.5469 Y17.7876 Z-0.1333 I-0.0005 J0.0
G3 Y17.7867 Z-0.2667 I0.0003 J-0.0004
G3 X58.5476 Y17.7872 Z-0.4 I0.0003 J0.0004
G3 X58.5469 Y17.7876 Z-0.5333 I-0.0005 J0.0
G3 Y17.7867 Z-0.6667 I0.0003 J-0.0004
G3 X58.5476 Y17.7872 Z-0.8 I0.0003 J0.0004
G3 X58.5469 Y17.7876 Z-0.9333 I-0.0005 J0.0
G3 Y17.7867 Z-1.0667 I0.0003 J-0.0004
G3 X58.5476 Y17.7872 Z-1.2 I0.0003 J0.0004
G3 X58.5469 Y17.7876 I-0.0005 J0.0
G3 Y17.7867 I0.0003 J-0.0004
G3 X58.5476 Y17.7872 I0.0003 J0.0004
G0 Z3.0
G0 Y15.246
G0 Z1.0
G1 F300.0 Z0.0
G3 F800.0 X58.5469 Y15.2464 Z-0.1333 I-0.0005 J0.0
G3 Y15.2456 Z-0.2667 I0.0003 J-0.0004
G3 X58.5476 Y15.246 Z-0.4 I0.0003 J0.0004
G3 X58.5469 Y15.2464 Z-0.5333 I-0.0005 J0.0
G3 Y15.2456 Z-0.6667 I0.0003 J-0.0004
G3 X58.5476 Y15.246 Z-0.8 I0.0003 J0.0004
G3 X58.5469 Y15.2464 Z-0.9333 I-0.0005 J0.0
G3 Y15.2456 Z-1.0667 I0.0003 J-0.0004
G3 X58.5476 Y15.246 Z-1.2 I0.0003 J0.0004
G3 X58.5469 Y15.2464 I-0.0005 J0.0
G3 Y15.2456 I0.0003 J-0.0004
G3 X58.5476 Y15.246 I0.0003 J0.0004
G0 Z3.0
G0 X58.5302 Y22.8703
G0 Z1.0
G1 F300.0 Z0.0
G3 F800.0 X58.5295 Y22.8707 Z-0.1333 I-0.0005 J0.0
G3 Y22.8699 Z-0.2667 I0.0003 J-0.0004
G3 X58.5302 Y22.8703 Z-0.4 I0.0003 J0.0004
G3 X58.5295 Y22.8707 Z-0.5333 I-0.0005 J0.0
G3 Y22.8699 Z-0.6667 I0.0003 J-0.0004
G3 X58.5302 Y22.8703 Z-0.8 I0.0003 J0.0004
G3 X58.5295 Y22.8707 Z-0.9333 I-0.0005 J0.0
G3 Y22.8699 Z-1.0667 I0.0003 J-0.0004
G3 X58.5302 Y22.8703 Z-1.2 I0.0003 J0.0004
G3 X58.5295 Y22.8707 I-0.0005 J0.0
G3 Y22.8699 I0.0003 J-0.0004
G3 X58.5302 Y22.8703 I0.0003 J0.0004
G0 Z3.0
G0 X58.5476 Y25.4112
G0 Z1.0
G1 F300.0 Z0.0
G3 F800.0 X58.5469 Y25.4116 Z-0.1333 I-0.0005 J0.0
G3 Y25.4108 Z-0.2667 I0.0003 J-0.0004
G3 X58.5476 Y25.4112 Z-0.4 I0.0003 J0.0004
G3 X58.5469 Y25.4116 Z-0.5333 I-0.0005 J0.0
G3 Y25.4108 Z-0.6667 I0.0003 J-0.0004
G3 X58.5476 Y25.4112 Z-0.8 I0.0003 J0.0004
G3 X58.5469 Y25.4116 Z-0.9333 I-0.0005 J0.0
G3 Y25.4108 Z-1.0667 I0.0003 J-0.0004
G3 X58.5476 Y25.4112 Z-1.2 I0.0003 J0.0004
G3 X58.5469 Y25.4116 I-0.0005 J0.0
G3 Y25.4108 I0.0003 J-0.0004
G3 X58.5476 Y25.4112 I0.0003 J0.0004
G0 Z3.0
G0 X61.0893
G0 Z1.0
G1 F300.0 Z0.0
G3 F800.0 X61.0886 Y25.4116 Z-0.1333 I-0.0005 J0.0
G3 Y25.4108 Z-0.2667 I0.0003 J-0.0004
G3 X61.0893 Y25.4112 Z-0.4 I0.0003 J0.0004
G3 X61.0886 Y25.4116 Z-0.5333 I-0.0005 J0.0
G3 Y25.4108 Z-0.6667 I0.0003 J-0.0004
G3 X61.0893 Y25.4112 Z-0.8 I0.0003 J0.0004
G3 X61.0886 Y25.4116 Z-0.9333 I-0.0005 J0.0
G3 Y25.4108 Z-1.0667 I0.0003 J-0.0004
G3 X61.0893 Y25.4112 Z-1.2 I0.0003 J0.0004
G3 X61.0886 Y25.4116 I-0.0005 J0.0
G3 Y25.4108 I0.0003 J-0.0004
G3 X61.0893 Y25.4112 I0.0003 J0.0004
G0 Z3.0
G0 X61.1067 Y22.8703
G0 Z1.0
G1 F300.0 Z0.0
G3 F800.0 X61.106 Y22.8707 Z-0.1333 I-0.0005 J0.0
G3 Y22.8699 Z-0.2667 I0.0003 J-0.0004
G3 X61.1067 Y22.8703 Z-0.4 I0.0003 J0.0004
G3 X61.106 Y22.8707 Z-0.5333 I-0.0005 J0.0
G3 Y22.8699 Z-0.6667 I0.0003 J-0.0004
G3 X61.1067 Y22.8703 Z-0.8 I0.0003 J0.0004
G3 X61.106 Y22.8707 Z-0.9333 I-0.0005 J0.0
G3 Y22.8699 Z-1.0667 I0.0003 J-0.0004
G3 X61.1067 Y22.8703 Z-1.2 I0.0003 J0.0004
G3 X61.106 Y22.8707 I-0.0005 J0.0
G3 Y22.8699 I0.0003 J-0.0004
G3 X61.1067 Y22.8703 I0.0003 J0.0004
G0 Z3.0
G0 X61.0893 Y27.9532
G0 Z1.0
G1 F300.0 Z0.0
G3 F800.0 X61.0886 Y27.9536 Z-0.1333 I-0.0005 J0.0
G3 Y27.9528 Z-0.2667 I0.0003 J-0.0004
G3 X61.0893 Y27.9532 Z-0.4 I0.0003 J0.0004
G3 X61.0886 Y27.9536 Z-0.5333 I-0.0005 J0.0
G3 Y27.9528 Z-0.6667 I0.0003 J-0.0004
G3 X61.0893 Y27.9532 Z-0.8 I0.0003 J0.0004
G3 X61.0886 Y27.9536 Z-0.9333 I-0.0005 J0.0
G3 Y27.9528 Z-1.0667 I0.0003 J-0.0004
G3 X61.0893 Y27.9532 Z-1.2 I0.0003 J0.0004
G3 X61.0886 Y27.9536 I-0.0005 J0.0
G3 Y27.9528 I0.0003 J-0.0004
G3 X61.0893 Y27.9532 I0.0003 J0.0004
G0 Z3.0
G0 Y30.4944
G0 Z1.0
G1 F300.0 Z0.0
G3 F800.0 X61.0886 Y30.4948 Z-0.1333 I-0.0005 J0.0
G3 Y30.4939 Z-0.2667 I0.0003 J-0.0004
G3 X61.0893 Y30.4944 Z-0.4 I0.0003 J0.0004
G3 X61.0886 Y30.4948 Z-0.5333 I-0.0005 J0.0
G3 Y30.4939 Z-0.6667 I0.0003 J-0.0004
G3 X61.0893 Y30.4944 Z-0.8 I0.0003 J0.0004
G3 X61.0886 Y30.4948 Z-0.9333 I-0.0005 J0.0
G3 Y30.4939 Z-1.0667 I0.0003 J-0.0004
G3 X61.0893 Y30.4944 Z-1.2 I0.0003 J0.0004
G3 X61.0886 Y30.4948 I-0.0005 J0.0
G3 Y30.4939 I0.0003 J-0.0004
G3 X61.0893 Y30.4944 I0.0003 J0.0004
G0 Z3.0
G0 Y33.0358
G0 Z1.0
G1 F300.0 Z0.0
G3 F800.0 X61.0886 Y33.0362 Z-0.1333 I-0.0005 J0.0
G3 Y33.0354 Z-0.2667 I0.0003 J-0.0004
G3 X61.0893 Y33.0358 Z-0.4 I0.0003 J0.0004
G3 X61.0886 Y33.0362 Z-0.5333 I-0.0005 J0.0
G3 Y33.0354 Z-0.6667 I0.0003 J-0.0004
G3 X61.0893 Y33.0358 Z-0.8 I0.0003 J0.0004
G3 X61.0886 Y33.0362 Z-0.9333 I-0.0005 J0.0
G3 Y33.0354 Z-1.0667 I0.0003 J-0.0004
G3 X61.0893 Y33.0358 Z-1.2 I0.0003 J0.0004
G3 X61.0886 Y33.0362 I-0.0005 J0.0
G3 Y33.0354 I0.0003 J-0.0004
G3 X61.0893 Y33.0358 I0.0003 J0.0004
G0 Z3.0
G0 X58.5476
G0 Z1.0
G1 F300.0 Z0.0
G3 F800.0 X58.5469 Y33.0362 Z-0.1333 I-0.0005 J0.0
G3 Y33.0354 Z-0.2667 I0.0003 J-0.0004
G3 X58.5476 Y33.0358 Z-0.4 I0.0003 J0.0004
G3 X58.5469 Y33.0362 Z-0.5333 I-0.0005 J0.0
G3 Y33.0354 Z-0.6667 I0.0003 J-0.0004
G3 X58.5476 Y33.0358 Z-0.8 I0.0003 J0.0004
G3 X58.5469 Y33.0362 Z-0.9333 I-0.0005 J0.0
G3 Y33.0354 Z-1.0667 I0.0003 J-0.0004
G3 X58.5476 Y33.0358 Z-1.2 I0.0003 J0.0004
G3 X58.5469 Y33.0362 I-0.0005 J0.0
G3 Y33.0354 I0.0003 J-0.0004
G3 X58.5476 Y33.0358 I0.0003 J0.0004
G0 Z3.0
G0 Y30.4944
G0 Z1.0
G1 F300.0 Z0.0
G3 F800.0 X58.5469 Y30.4948 Z-0.1333 I-0.0005 J0.0
G3 Y30.4939 Z-0.2667 I0.0003 J-0.0004
G3 X58.5476 Y30.4944 Z-0.4 I0.0003 J0.0004
G3 X58.5469 Y30.4948 Z-0.5333 I-0.0005 J0.0
G3 Y30.4939 Z-0.6667 I0.0003 J-0.0004
G3 X58.5476 Y30.4944 Z-0.8 I0.0003 J0.0004
G3 X58.5469 Y30.4948 Z-0.9333 I-0.0005 J0.0
G3 Y30.4939 Z-1.0667 I0.0003 J-0.0004
G3 X58.5476 Y30.4944 Z-1.2 I0.0003 J0.0004
G3 X58.5469 Y30.4948 I-0.0005 J0.0
G3 Y30.4939 I0.0003 J-0.0004
G3 X58.5476 Y30.4944 I0.0003 J0.0004
G0 Z3.0
G0 Y27.9532
G0 Z1.0
G1 F300.0 Z0.0
G3 F800.0 X58.5469 Y27.9536 Z-0.1333 I-0.0005 J0.0
G3 Y27.9528 Z-0.2667 I0.0003 J-0.0004
G3 X58.5476 Y27.9532 Z-0.4 I0.0003 J0.0004
G3 X58.5469 Y27.9536 Z-0.5333 I-0.0005 J0.0
G3 Y27.9528 Z-0.6667 I0.0003 J-0.0004
G3 X58.5476 Y27.9532 Z-0.8 I0.0003 J0.0004
G3 X58.5469 Y27.9536 Z-0.9333 I-0.0005 J0.0
G3 Y27.9528 Z-1.0667 I0.0003 J-0.0004
G3 X58.5476 Y27.9532 Z-1.2 I0.0003 J0.0004
G3 X58.5469 Y27.9536 I-0.0005 J0.0
G3 Y27.9528 I0.0003 J-0.0004
G3 X58.5476 Y27.9532 I0.0003 J0.0004
G0 Z3.0
G0 Y35.5775
G0 Z1.0
G1 F300.0 Z0.0
G3 F800.0 X58.5469 Y35.578 Z-0.1333 I-0.0005 J0.0
G3 Y35.5771 Z-0.2667 I0.0003 J-0.0004
G3 X58.5476 Y35.5775 Z-0.4 I0.0003 J0.0004
G3 X58.5469 Y35.578 Z-0.5333 I-0.0005 J0.0
G3 Y35.5771 Z-0.6667 I0.0003 J-0.0004
G3 X58.5476 Y35.5775 Z-0.8 I0.0003 J0.0004
G3 X58.5469 Y35.578 Z-0.9333 I-0.0005 J0.0
G3 Y35.5771 Z-1.0667 I0.0003 J-0.0004
G3 X58.5476 Y35.5775 Z-1.2 I0.0003 J0.0004
G3 X58.5469 Y35.578 I-0.0005 J0.0
G3 Y35.5771 I0.0003 J-0.0004
G3 X58.5476 Y35.5775 I0.0003 J0.0004
G0 Z3.0
G0 Y38.1184
G0 Z1.0
G1 F300.0 Z0.0
G3 F800.0 X58.5469 Y38.1189 Z-0.1333 I-0.0005 J0.0
G3 Y38.118 Z-0.2667 I0.0003 J-0.0004
G3 X58.5476 Y38.1184 Z-0.4 I0.0003 J0.0004
G3 X58.5469 Y38.1189 Z-0.5333 I-0.0005 J0.0
G3 Y38.118 Z-0.6667 I0.0003 J-0.0004
G3 X58.5476 Y38.1184 Z-0.8 I0.0003 J0.0004
G3 X58.5469 Y38.1189 Z-0.9333 I-0.0005 J0.0
G3 Y38.118 Z-1.0667 I0.0003 J-0.0004
G3 X58.5476 Y38.1184 Z-1.2 I0.0003 J0.0004
G3 X58.5469 Y38.1189 I-0.0005 J0.0
G3 Y38.118 I0.0003 J-0.0004
G3 X58.5476 Y38.1184 I0.0003 J0.0004
G0 Z3.0
G0 X61.0893
G0 Z1.0
G1 F300.0 Z0.0
G3 F800.0 X61.0886 Y38.1189 Z-0.1333 I-0.0005 J0.0
G3 Y38.118 Z-0.2667 I0.0003 J-0.0004
G3 X61.0893 Y38.1184 Z-0.4 I0.0003 J0.0004
G3 X61.0886 Y38.1189 Z-0.5333 I-0.0005 J0.0
G3 Y38.118 Z-0.6667 I0.0003 J-0.0004
G3 X61.0893 Y38.1184 Z-0.8 I0.0003 J0.0004
G3 X61.0886 Y38.1189 Z-0.9333 I-0.0005 J0.0
G3 Y38.118 Z-1.0667 I0.0003 J-0.0004
G3 X61.0893 Y38.1184 Z-1.2 I0.0003 J0.0004
G3 X61.0886 Y38.1189 I-0.0005 J0.0
G3 Y38.118 I0.0003 J-0.0004
G3 X61.0893 Y38.1184 I0.0003 J0.0004
G0 Z3.0
G0 Y35.5775
G0 Z1.0
G1 F300.0 Z0.0
G3 F800.0 X61.0886 Y35.578 Z-0.1333 I-0.0005 J0.0
G3 Y35.5771 Z-0.2667 I0.0003 J-0.0004
G3 X61.0893 Y35.5775 Z-0.4 I0.0003 J0.0004
G3 X61.0886 Y35.578 Z-0.5333 I-0.0005 J0.0
G3 Y35.5771 Z-0.6667 I0.0003 J-0.0004
G3 X61.0893 Y35.5775 Z-0.8 I0.0003 J0.0004
G3 X61.0886 Y35.578 Z-0.9333 I-0.0005 J0.0
G3 Y35.5771 Z-1.0667 I0.0003 J-0.0004
G3 X61.0893 Y35.5775 Z-1.2 I0.0003 J0.0004
G3 X61.0886 Y35.578 I-0.0005 J0.0
G3 Y35.5771 I0.0003 J-0.0004
G3 X61.0893 Y35.5775 I0.0003 J0.0004
G0 Z3.0
G0 Y40.6604
G0 Z1.0
G1 F300.0 Z0.0
G3 F800.0 X61.0886 Y40.6608 Z-0.1333 I-0.0005 J0.0
G3 Y40.66 Z-0.2667 I0.0003 J-0.0004
G3 X61.0893 Y40.6604 Z-0.4 I0.0003 J0.0004
G3 X61.0886 Y40.6608 Z-0.5333 I-0.0005 J0.0
G3 Y40.66 Z-0.6667 I0.0003 J-0.0004
G3 X61.0893 Y40.6604 Z-0.8 I0.0003 J0.0004
G3 X61.0886 Y40.6608 Z-0.9333 I-0.0005 J0.0
G3 Y40.66 Z-1.0667 I0.0003 J-0.0004
G3 X61.0893 Y40.6604 Z-1.2 I0.0003 J0.0004
G3 X61.0886 Y40.6608 I-0.0005 J0.0
G3 Y40.66 I0.0003 J-0.0004
G3 X61.0893 Y40.6604 I0.0003 J0.0004
G0 Z3.0
G0 Y43.2016
G0 Z1.0
G1 F300.0 Z0.0
G3 F800.0 X61.0886 Y43.202 Z-0.1333 I-0.0005 J0.0
G3 Y43.2011 Z-0.2667 I0.0003 J-0.0004
G3 X61.0893 Y43.2016 Z-0.4 I0.0003 J0.0004
G3 X61.0886 Y43.202 Z-0.5333 I-0.0005 J0.0
G3 Y43.2011 Z-0.6667 I0.0003 J-0.0004
G3 X61.0893 Y43.2016 Z-0.8 I0.0003 J0.0004
G3 X61.0886 Y43.202 Z-0.9333 I-0.0005 J0.0
G3 Y43.2011 Z-1.0667 I0.0003 J-0.0004
G3 X61.0893 Y43.2016 Z-1.2 I0.0003 J0.0004
G3 X61.0886 Y43.202 I-0.0005 J0.0
G3 Y43.2011 I0.0003 J-0.0004
G3 X61.0893 Y43.2016 I0.0003 J0.0004
G0 Z3.0
G0 Y45.743
G0 Z1.0
G1 F300.0 Z0.0
G3 F800.0 X61.0886 Y45.7435 Z-0.1333 I-0.0005 J0.0
G3 Y45.7426 Z-0.2667 I0.0003 J-0.0004
G3 X61.0893 Y45.743 Z-0.4 I0.0003 J0.0004
G3 X61.0886 Y45.7435 Z-0.5333 I-0.0005 J0.0
G3 Y45.7426 Z-0.6667 I0.0003 J-0.0004
G3 X61.0893 Y45.743 Z-0.8 I0.0003 J0.0004
G3 X61.0886 Y45.7435 Z-0.9333 I-0.0005 J0.0
G3 Y45.7426 Z-1.0667 I0.0003 J-0.0004
G3 X61.0893 Y45.743 Z-1.2 I0.0003 J0.0004
G3 X61.0886 Y45.7435 I-0.0005 J0.0
G3 Y45.7426 I0.0003 J-0.0004
G3 X61.0893 Y45.743 I0.0003 J0.0004
G0 Z3.0
G0 X58.5476
G0 Z1.0
G1 F300.0 Z0.0
G3 F800.0 X58.5469 Y45.7435 Z-0.1333 I-0.0005 J0.0
G3 Y45.7426 Z-0.2667 I0.0003 J-0.0004
G3 X58.5476 Y45.743 Z-0.4 I0.0003 J0.0004
G3 X58.5469 Y45.7435 Z-0.5333 I-0.0005 J0.0
G3 Y45.7426 Z-0.6667 I0.0003 J-0.0004
G3 X58.5476 Y45.743 Z-0.8 I0.0003 J0.0004
G3 X58.5469 Y45.7435 Z-0.9333 I-0.0005 J0.0
G3 Y45.7426 Z-1.0667 I0.0003 J-0.0004
G3 X58.5476 Y45.743 Z-1.2 I0.0003 J0.0004
G3 X58.5469 Y45.7435 I-0.0005 J0.0
G3 Y45.7426 I0.0003 J-0.0004
G3 X58.5476 Y45.743 I0.0003 J0.0004
G0 Z3.0
G0 Y43.2016
G0 Z1.0
G1 F300.0 Z0.0
G3 F800.0 X58.5469 Y43.202 Z-0.1333 I-0.0005 J0.0
G3 Y43.2012 Z-0.2667 I0.0003 J-0.0004
G3 X58.5476 Y43.2016 Z-0.4 I0.0003 J0.0004
G3 X58.5469 Y43.202 Z-0.5333 I-0.0005 J0.0
G3 Y43.2012 Z-0.6667 I0.0003 J-0.0004
G3 X58.5476 Y43.2016 Z-0.8 I0.0003 J0.0004
G3 X58.5469 Y43.202 Z-0.9333 I-0.0005 J0.0
G3 Y43.2012 Z-1.0667 I0.0003 J-0.0004
G3 X58.5476 Y43.2016 Z-1.2 I0.0003 J0.0004
G3 X58.5469 Y43.202 I-0.0005 J0.0
G3 Y43.2012 I0.0003 J-0.0004
G3 X58.5476 Y43.2016 I0.0003 J0.0004
G0 Z3.0
G0 Y40.6604
G0 Z1.0
G1 F300.0 Z0.0
G3 F800.0 X58.5469 Y40.6608 Z-0.1333 I-0.0005 J0.0
G3 Y40.66 Z-0.2667 I0.0003 J-0.0004
G3 X58.5476 Y40.6604 Z-0.4 I0.0003 J0.0004
G3 X58.5469 Y40.6608 Z-0.5333 I-0.0005 J0.0
G3 Y40.66 Z-0.6667 I0.0003 J-0.0004
G3 X58.5476 Y40.6604 Z-0.8 I0.0003 J0.0004
G3 X58.5469 Y40.6608 Z-0.9333 I-0.0005 J0.0
G3 Y40.66 Z-1.0667 I0.0003 J-0.0004
G3 X58.5476 Y40.6604 Z-1.2 I0.0003 J0.0004
G3 X58.5469 Y40.6608 I-0.0005 J0.0
G3 Y40.66 I0.0003 J-0.0004
G3 X58.5476 Y40.6604 I0.0003 J0.0004
G0 Z3.0
G0 X67.1189 Y37.6179
G0 Z1.0
G1 F300.0 Z0.0
G3 F800.0 X67.1182 Y37.6183 Z-0.1333 I-0.0005 J0.0
G3 Y37.6175 Z-0.2667 I0.0002 J-0.0004
G3 X67.1189 Y37.6179 Z-0.4 I0.0002 J0.0004
G3 X67.1182 Y37.6183 Z-0.5333 I-0.0005 J0.0
G3 Y37.6175 Z-0.6667 I0.0002 J-0.0004
G3 X67.1189 Y37.6179 Z-0.8 I0.0002 J0.0004
G3 X67.1182 Y37.6183 Z-0.9333 I-0.0005 J0.0
G3 Y37.6175 Z-1.0667 I0.0002 J-0.0004
G3 X67.1189 Y37.6179 Z-1.2 I0.0002 J0.0004
G3 X67.1182 Y37.6183 I-0.0005 J0.0
G3 Y37.6175 I0.0002 J-0.0004
G3 X67.1189 Y37.6179 I0.0002 J0.0004
G0 Z3.0
G0 X72.1891 Y37.635
G0 Z1.0
G1 F300.0 Z0.0
G3 F800.0 X72.1884 Y37.6354 Z-0.1333 I-0.0005 J0.0
G3 Y37.6346 Z-0.2667 I0.0002 J-0.0004
G3 X72.1891 Y37.635 Z-0.4 I0.0002 J0.0004
G3 X72.1884 Y37.6354 Z-0.5333 I-0.0005 J0.0
G3 Y37.6346 Z-0.6667 I0.0002 J-0.0004
G3 X72.1891 Y37.635 Z-0.8 I0.0002 J0.0004
G3 X72.1884 Y37.6354 Z-0.9333 I-0.0005 J0.0
G3 Y37.6346 Z-1.0667 I0.0002 J-0.0004
G3 X72.1891 Y37.635 Z-1.2 I0.0002 J0.0004
G3 X72.1884 Y37.6354 I-0.0005 J0.0
G3 Y37.6346 I0.0002 J-0.0004
G3 X72.1891 Y37.635 I0.0002 J0.0004
G0 Z3.0
G0 X46.944 Y43.096
G0 Z1.0
G1 F300.0 Z0.0
G3 F800.0 X46.9433 Y43.0964 Z-0.1333 I-0.0005 J0.0
G3 Y43.0955 Z-0.2667 I0.0003 J-0.0004
G3 X46.944 Y43.096 Z-0.4 I0.0003 J0.0004
G3 X46.9433 Y43.0964 Z-0.5333 I-0.0005 J0.0
G3 Y43.0955 Z-0.6667 I0.0003 J-0.0004
G3 X46.944 Y43.096 Z-0.8 I0.0003 J0.0004
G3 X46.9433 Y43.0964 Z-0.9333 I-0.0005 J0.0
G3 Y43.0955 Z-1.0667 I0.0003 J-0.0004
G3 X46.944 Y43.096 Z-1.2 I0.0003 J0.0004
G3 X46.9433 Y43.0964 I-0.0005 J0.0
G3 Y43.0955 I0.0003 J-0.0004
G3 X46.944 Y43.096 I0.0003 J0.0004
G0 Z3.0
G0 X39.4132 Y43.0805
G0 Z1.0
G1 F300.0 Z0.0
G3 F800.0 X39.4124 Y43.081 Z-0.1333 I-0.0005 J0.0
G3 Y43.0801 Z-0.2667 I0.0003 J-0.0004
G3 X39.4132 Y43.0805 Z-0.4 I0.0003 J0.0004
G3 X39.4124 Y43.081 Z-0.5333 I-0.0005 J0.0
G3 Y43.0801 Z-0.6667 I0.0003 J-0.0004
G3 X39.4132 Y43.0805 Z-0.8 I0.0003 J0.0004
G3 X39.4124 Y43.081 Z-0.9333 I-0.0005 J0.0
G3 Y43.0801 Z-1.0667 I0.0003 J-0.0004
G3 X39.4132 Y43.0805 Z-1.2 I0.0003 J0.0004
G3 X39.4124 Y43.081 I-0.0005 J0.0
G3 Y43.0801 I0.0003 J-0.0004
G3 X39.4132 Y43.0805 I0.0003 J0.0004
G0 Z3.0
G0 X36.2355 Y43.1897
G0 Z1.0
G1 F300.0 Z0.0
G3 F800.0 X36.2348 Y43.1902 Z-0.1333 I-0.0005 J0.0
G3 Y43.1893 Z-0.2667 I0.0003 J-0.0004
G3 X36.2355 Y43.1897 Z-0.4 I0.0003 J0.0004
G3 X36.2348 Y43.1902 Z-0.5333 I-0.0005 J0.0
G3 Y43.1893 Z-0.6667 I0.0003 J-0.0004
G3 X36.2355 Y43.1897 Z-0.8 I0.0003 J0.0004
G3 X36.2348 Y43.1902 Z-0.9333 I-0.0005 J0.0
G3 Y43.1893 Z-1.0667 I0.0003 J-0.0004
G3 X36.2355 Y43.1897 Z-1.2 I0.0003 J0.0004
G3 X36.2348 Y43.1902 I-0.0005 J0.0
G3 Y43.1893 I0.0003 J-0.0004
G3 X36.2355 Y43.1897 I0.0003 J0.0004
G0 Z3.0
G0 X33.8645
G0 Z1.0
G1 F300.0 Z0.0
G3 F800.0 X33.8638 Y43.1902 Z-0.1333 I-0.0005 J0.0
G3 Y43.1893 Z-0.2667 I0.0003 J-0.0004
G3 X33.8645 Y43.1897 Z-0.4 I0.0003 J0.0004
G3 X33.8638 Y43.1902 Z-0.5333 I-0.0005 J0.0
G3 Y43.1893 Z-0.6667 I0.0003 J-0.0004
G3 X33.8645 Y43.1897 Z-0.8 I0.0003 J0.0004
G3 X33.8638 Y43.1902 Z-0.9333 I-0.0005 J0.0
G3 Y43.1893 Z-1.0667 I0.0003 J-0.0004
G3 X33.8645 Y43.1897 Z-1.2 I0.0003 J0.0004
G3 X33.8638 Y43.1902 I-0.0005 J0.0
G3 Y43.1893 I0.0003 J-0.0004
G3 X33.8645 Y43.1897 I0.0003 J0.0004
G0 Z3.0
G0 X33.7964 Y40.648
G0 Z1.0
G1 F300.0 Z0.0
G3 F800.0 X33.7957 Y40.6484 Z-0.1333 I-0.0005 J0.0
G3 Y40.6476 Z-0.2667 I0.0003 J-0.0004
G3 X33.7964 Y40.648 Z-0.4 I0.0003 J0.0004
G3 X33.7957 Y40.6484 Z-0.5333 I-0.0005 J0.0
G3 Y40.6476 Z-0.6667 I0.0003 J-0.0004
G3 X33.7964 Y40.648 Z-0.8 I0.0003 J0.0004
G3 X33.7957 Y40.6484 Z-0.9333 I-0.0005 J0.0
G3 Y40.6476 Z-1.0667 I0.0003 J-0.0004
G3 X33.7964 Y40.648 Z-1.2 I0.0003 J0.0004
G3 X33.7957 Y40.6484 I-0.0005 J0.0
G3 Y40.6476 I0.0003 J-0.0004
G3 X33.7964 Y40.648 I0.0003 J0.0004
G0 Z3.0
G0 X36.3216
G0 Z1.0
G1 F300.0 Z0.0
G3 F800.0 X36.3208 Y40.6484 Z-0.1333 I-0.0005 J0.0
G3 Y40.6476 Z-0.2667 I0.0003 J-0.0004
G3 X36.3216 Y40.648 Z-0.4 I0.0003 J0.0004
G3 X36.3208 Y40.6484 Z-0.5333 I-0.0005 J0.0
G3 Y40.6476 Z-0.6667 I0.0003 J-0.0004
G3 X36.3216 Y40.648 Z-0.8 I0.0003 J0.0004
G3 X36.3208 Y40.6484 Z-0.9333 I-0.0005 J0.0
G3 Y40.6476 Z-1.0667 I0.0003 J-0.0004
G3 X36.3216 Y40.648 Z-1.2 I0.0003 J0.0004
G3 X36.3208 Y40.6484 I-0.0005 J0.0
G3 Y40.6476 I0.0003 J-0.0004
G3 X36.3216 Y40.648 I0.0003 J0.0004
G0 Z3.0
G0 Y38.1068
G0 Z1.0
G1 F300.0 Z0.0
G3 F800.0 X36.3208 Y38.1073 Z-0.1333 I-0.0005 J0.0
G3 Y38.1064 Z-0.2667 I0.0003 J-0.0004
G3 X36.3216 Y38.1068 Z-0.4 I0.0003 J0.0004
G3 X36.3208 Y38.1073 Z-0.5333 I-0.0005 J0.0
G3 Y38.1064 Z-0.6667 I0.0003 J-0.0004
G3 X36.3216 Y38.1068 Z-0.8 I0.0003 J0.0004
G3 X36.3208 Y38.1073 Z-0.9333 I-0.0005 J0.0
G3 Y38.1064 Z-1.0667 I0.0003 J-0.0004
G3 X36.3216 Y38.1068 Z-1.2 I0.0003 J0.0004
G3 X36.3208 Y38.1073 I-0.0005 J0.0
G3 Y38.1064 I0.0003 J-0.0004
G3 X36.3216 Y38.1068 I0.0003 J0.0004
G0 Z3.0
G0 X33.7931
G0 Z1.0
G1 F300.0 Z0.0
G3 F800.0 X33.7924 Y38.1073 Z-0.1333 I-0.0005 J0.0
G3 Y38.1064 Z-0.2667 I0.0003 J-0.0004
G3 X33.7931 Y38.1068 Z-0.4 I0.0003 J0.0004
G3 X33.7924 Y38.1073 Z-0.5333 I-0.0005 J0.0
G3 Y38.1064 Z-0.6667 I0.0003 J-0.0004
G3 X33.7931 Y38.1068 Z-0.8 I0.0003 J0.0004
G3 X33.7924 Y38.1073 Z-0.9333 I-0.0005 J0.0
G3 Y38.1064 Z-1.0667 I0.0003 J-0.0004
G3 X33.7931 Y38.1068 Z-1.2 I0.0003 J0.0004
G3 X33.7924 Y38.1073 I-0.0005 J0.0
G3 Y38.1064 I0.0003 J-0.0004
G3 X33.7931 Y38.1068 I0.0003 J0.0004
G0 Z3.0
G0 X29.7137 Y43.4762
G0 Z1.0
G1 F300.0 Z0.0
G3 F800.0 X29.713 Y43.4767 Z-0.1333 I-0.0005 J0.0
G3 Y43.4758 Z-0.2667 I0.0002 J-0.0004
G3 X29.7137 Y43.4762 Z-0.4 I0.0003 J0.0004
G3 X29.713 Y43.4767 Z-0.5333 I-0.0005 J0.0
G3 Y43.4758 Z-0.6667 I0.0002 J-0.0004
G3 X29.7137 Y43.4762 Z-0.8 I0.0003 J0.0004
G3 X29.713 Y43.4767 Z-0.9333 I-0.0005 J0.0
G3 Y43.4758 Z-1.0667 I0.0002 J-0.0004
G3 X29.7137 Y43.4762 Z-1.2 I0.0003 J0.0004
G3 X29.713 Y43.4767 I-0.0005 J0.0
G3 Y43.4758 I0.0002 J-0.0004
G3 X29.7137 Y43.4762 I0.0003 J0.0004
G0 Z3.0
G0 X33.7807 Y45.7312
G0 Z1.0
G1 F300.0 Z0.0
G3 F800.0 X33.7799 Y45.7316 Z-0.1333 I-0.0005 J0.0
G3 Y45.7307 Z-0.2667 I0.0003 J-0.0004
G3 X33.7807 Y45.7312 Z-0.4 I0.0003 J0.0004
G3 X33.7799 Y45.7316 Z-0.5333 I-0.0005 J0.0
G3 Y45.7307 Z-0.6667 I0.0003 J-0.0004
G3 X33.7807 Y45.7312 Z-0.8 I0.0003 J0.0004
G3 X33.7799 Y45.7316 Z-0.9333 I-0.0005 J0.0
G3 Y45.7307 Z-1.0667 I0.0003 J-0.0004
G3 X33.7807 Y45.7312 Z-1.2 I0.0003 J0.0004
G3 X33.7799 Y45.7316 I-0.0005 J0.0
G3 Y45.7307 I0.0003 J-0.0004
G3 X33.7807 Y45.7312 I0.0003 J0.0004
G0 Z3.0
G0 X36.3216
G0 Z1.0
G1 F300.0 Z0.0
G3 F800.0 X36.3208 Y45.7316 Z-0.1333 I-0.0005 J0.0
G3 Y45.7307 Z-0.2667 I0.0003 J-0.0004
G3 X36.3216 Y45.7312 Z-0.4 I0.0003 J0.0004
G3 X36.3208 Y45.7316 Z-0.5333 I-0.0005 J0.0
G3 Y45.7307 Z-0.6667 I0.0003 J-0.0004
G3 X36.3216 Y45.7312 Z-0.8 I0.0003 J0.0004
G3 X36.3208 Y45.7316 Z-0.9333 I-0.0005 J0.0
G3 Y45.7307 Z-1.0667 I0.0003 J-0.0004
G3 X36.3216 Y45.7312 Z-1.2 I0.0003 J0.0004
G3 X36.3208 Y45.7316 I-0.0005 J0.0
G3 Y45.7307 I0.0003 J-0.0004
G3 X36.3216 Y45.7312 I0.0003 J0.0004
G0 Z3.0
G0 X19.6525 Y43.4762
G0 Z1.0
G1 F300.0 Z0.0
G3 F800.0 X19.6517 Y43.4767 Z-0.1333 I-0.0005 J0.0
G3 Y43.4758 Z-0.2667 I0.0002 J-0.0004
G3 X19.6525 Y43.4762 Z-0.4 I0.0003 J0.0004
G3 X19.6517 Y43.4767 Z-0.5333 I-0.0005 J0.0
G3 Y43.4758 Z-0.6667 I0.0002 J-0.0004
G3 X19.6525 Y43.4762 Z-0.8 I0.0003 J0.0004
G3 X19.6517 Y43.4767 Z-0.9333 I-0.0005 J0.0
G3 Y43.4758 Z-1.0667 I0.0002 J-0.0004
G3 X19.6525 Y43.4762 Z-1.2 I0.0003 J0.0004
G3 X19.6517 Y43.4767 I-0.0005 J0.0
G3 Y43.4758 I0.0002 J-0.0004
G3 X19.6525 Y43.4762 I0.0003 J0.0004
G0 Z3.0
G0 X11.1212 Y30.715
G0 Z1.0
G1 F300.0 Z0.0
G3 F800.0 X11.1204 Y30.7154 Z-0.1333 I-0.0005 J0.0
G3 Y30.7146 Z-0.2667 I0.0003 J-0.0004
G3 X11.1212 Y30.715 Z-0.4 I0.0002 J0.0004
G3 X11.1204 Y30.7154 Z-0.5333 I-0.0005 J0.0
G3 Y30.7146 Z-0.6667 I0.0003 J-0.0004
G3 X11.1212 Y30.715 Z-0.8 I0.0002 J0.0004
G3 X11.1204 Y30.7154 Z-0.9333 I-0.0005 J0.0
G3 Y30.7146 Z-1.0667 I0.0003 J-0.0004
G3 X11.1212 Y30.715 Z-1.2 I0.0002 J0.0004
G3 X11.1204 Y30.7154 I-0.0005 J0.0
G3 Y30.7146 I0.0003 J-0.0004
G3 X11.1212 Y30.715 I0.0002 J0.0004
G0 Z3.0
G0 X4.336 Y27.1237
G0 Z1.0
G1 F300.0 Z0.0
G3 F800.0 X4.3352 Y27.1241 Z-0.1333 I-0.0005 J0.0
G3 Y27.1233 Z-0.2667 I0.0003 J-0.0004
G3 X4.336 Y27.1237 Z-0.4 I0.0002 J0.0004
G3 X4.3352 Y27.1241 Z-0.5333 I-0.0005 J0.0
G3 Y27.1233 Z-0.6667 I0.0003 J-0.0004
G3 X4.336 Y27.1237 Z-0.8 I0.0002 J0.0004
G3 X4.3352 Y27.1241 Z-0.9333 I-0.0005 J0.0
G3 Y27.1233 Z-1.0667 I0.0003 J-0.0004
G3 X4.336 Y27.1237 Z-1.2 I0.0002 J0.0004
G3 X4.3352 Y27.1241 I-0.0005 J0.0
G3 Y27.1233 I0.0003 J-0.0004
G3 X4.336 Y27.1237 I0.0002 J0.0004
G0 Z3.0
G0 Y25.1396
G0 Z1.0
G1 F300.0 Z0.0
G3 F800.0 X4.3352 Y25.14 Z-0.1333 I-0.0005 J0.0
G3 Y25.1391 Z-0.2667 I0.0003 J-0.0004
G3 X4.336 Y25.1396 Z-0.4 I0.0002 J0.0004
G3 X4.3352 Y25.14 Z-0.5333 I-0.0005 J0.0
G3 Y25.1391 Z-0.6667 I0.0003 J-0.0004
G3 X4.336 Y25.1396 Z-0.8 I0.0002 J0.0004
G3 X4.3352 Y25.14 Z-0.9333 I-0.0005 J0.0
G3 Y25.1391 Z-1.0667 I0.0003 J-0.0004
G3 X4.336 Y25.1396 Z-1.2 I0.0002 J0.0004
G3 X4.3352 Y25.14 I-0.0005 J0.0
G3 Y25.1391 I0.0003 J-0.0004
G3 X4.336 Y25.1396 I0.0002 J0.0004
G0 Z3.0
G0 Y23.1381
G0 Z1.0
G1 F300.0 Z0.0
G3 F800.0 X4.3352 Y23.1385 Z-0.1333 I-0.0005 J0.0
G3 Y23.1377 Z-0.2667 I0.0003 J-0.0004
G3 X4.336 Y23.1381 Z-0.4 I0.0002 J0.0004
G3 X4.3352 Y23.1385 Z-0.5333 I-0.0005 J0.0
G3 Y23.1377 Z-0.6667 I0.0003 J-0.0004
G3 X4.336 Y23.1381 Z-0.8 I0.0002 J0.0004
G3 X4.3352 Y23.1385 Z-0.9333 I-0.0005 J0.0
G3 Y23.1377 Z-1.0667 I0.0003 J-0.0004
G3 X4.336 Y23.1381 Z-1.2 I0.0002 J0.0004
G3 X4.3352 Y23.1385 I-0.0005 J0.0
G3 Y23.1377 I0.0003 J-0.0004
G3 X4.336 Y23.1381 I0.0002 J0.0004
G0 Z3.0
G0 Y21.1366
G0 Z1.0
G1 F300.0 Z0.0
G3 F800.0 X4.3352 Y21.137 Z-0.1333 I-0.0005 J0.0
G3 Y21.1362 Z-0.2667 I0.0003 J-0.0004
G3 X4.336 Y21.1366 Z-0.4 I0.0002 J0.0004
G3 X4.3352 Y21.137 Z-0.5333 I-0.0005 J0.0
G3 Y21.1362 Z-0.6667 I0.0003 J-0.0004
G3 X4.336 Y21.1366 Z-0.8 I0.0002 J0.0004
G3 X4.3352 Y21.137 Z-0.9333 I-0.0005 J0.0
G3 Y21.1362 Z-1.0667 I0.0003 J-0.0004
G3 X4.336 Y21.1366 Z-1.2 I0.0002 J0.0004
G3 X4.3352 Y21.137 I-0.0005 J0.0
G3 Y21.1362 I0.0003 J-0.0004
G3 X4.336 Y21.1366 I0.0002 J0.0004
G0 Z3.0
G0 Y19.1362
G0 Z1.0
G1 F300.0 Z0.0
G3 F800.0 X4.3352 Y19.1366 Z-0.1333 I-0.0005 J0.0
G3 Y19.1358 Z-0.2667 I0.0003 J-0.0004
G3 X4.336 Y19.1362 Z-0.4 I0.0002 J0.0004
G3 X4.3352 Y19.1366 Z-0.5333 I-0.0005 J0.0
G3 Y19.1358 Z-0.6667 I0.0003 J-0.0004
G3 X4.336 Y19.1362 Z-0.8 I0.0002 J0.0004
G3 X4.3352 Y19.1366 Z-0.9333 I-0.0005 J0.0
G3 Y19.1358 Z-1.0667 I0.0003 J-0.0004
G3 X4.336 Y19.1362 Z-1.2 I0.0002 J0.0004
G3 X4.3352 Y19.1366 I-0.0005 J0.0
G3 Y19.1358 I0.0003 J-0.0004
G3 X4.336 Y19.1362 I0.0002 J0.0004
G0 Z3.0
G0 Y17.1347
G0 Z1.0
G1 F300.0 Z0.0
G3 F800.0 X4.3352 Y17.1351 Z-0.1333 I-0.0005 J0.0
G3 Y17.1343 Z-0.2667 I0.0003 J-0.0004
G3 X4.336 Y17.1347 Z-0.4 I0.0002 J0.0004
G3 X4.3352 Y17.1351 Z-0.5333 I-0.0005 J0.0
G3 Y17.1343 Z-0.6667 I0.0003 J-0.0004
G3 X4.336 Y17.1347 Z-0.8 I0.0002 J0.0004
G3 X4.3352 Y17.1351 Z-0.9333 I-0.0005 J0.0
G3 Y17.1343 Z-1.0667 I0.0003 J-0.0004
G3 X4.336 Y17.1347 Z-1.2 I0.0002 J0.0004
G3 X4.3352 Y17.1351 I-0.0005 J0.0
G3 Y17.1343 I0.0003 J-0.0004
G3 X4.336 Y17.1347 I0.0002 J0.0004
G0 Z3.0
G0 X4.3164 Y15.1332
G0 Z1.0
G1 F300.0 Z0.0
G3 F800.0 X4.3156 Y15.1336 Z-0.1333 I-0.0005 J0.0
G3 Y15.1328 Z-0.2667 I0.0003 J-0.0004
G3 X4.3164 Y15.1332 Z-0.4 I0.0003 J0.0004
G3 X4.3156 Y15.1336 Z-0.5333 I-0.0005 J0.0
G3 Y15.1328 Z-0.6667 I0.0003 J-0.0004
G3 X4.3164 Y15.1332 Z-0.8 I0.0003 J0.0004
G3 X4.3156 Y15.1336 Z-0.9333 I-0.0005 J0.0
G3 Y15.1328 Z-1.0667 I0.0003 J-0.0004
G3 X4.3164 Y15.1332 Z-1.2 I0.0003 J0.0004
G3 X4.3156 Y15.1336 I-0.0005 J0.0
G3 Y15.1328 I0.0003 J-0.0004
G3 X4.3164 Y15.1332 I0.0003 J0.0004
G0 Z3.0
G0 X4.336 Y13.1328
G0 Z1.0
G1 F300.0 Z0.0
G3 F800.0 X4.3352 Y13.1333 Z-0.1333 I-0.0005 J0.0
G3 Y13.1324 Z-0.2667 I0.0003 J-0.0004
G3 X4.336 Y13.1328 Z-0.4 I0.0003 J0.0004
G3 X4.3352 Y13.1333 Z-0.5333 I-0.0005 J0.0
G3 Y13.1324 Z-0.6667 I0.0003 J-0.0004
G3 X4.336 Y13.1328 Z-0.8 I0.0003 J0.0004
G3 X4.3352 Y13.1333 Z-0.9333 I-0.0005 J0.0
G3 Y13.1324 Z-1.0667 I0.0003 J-0.0004
G3 X4.336 Y13.1328 Z-1.2 I0.0003 J0.0004
G3 X4.3352 Y13.1333 I-0.0005 J0.0
G3 Y13.1324 I0.0003 J-0.0004
G3 X4.336 Y13.1328 I0.0003 J0.0004
G0 Z3.0
G0 X72.2109 Y10.5552
G0 Z1.0
G1 F300.0 Z0.0
G3 F800.0 X72.2102 Y10.5557 Z-0.1333 I-0.0005 J0.0
G3 Y10.5548 Z-0.2667 I0.0002 J-0.0004
G3 X72.2109 Y10.5552 Z-0.4 I0.0002 J0.0004
G3 X72.2102 Y10.5557 Z-0.5333 I-0.0005 J0.0
G3 Y10.5548 Z-0.6667 I0.0002 J-0.0004
G3 X72.2109 Y10.5552 Z-0.8 I0.0002 J0.0004
G3 X72.2102 Y10.5557 Z-0.9333 I-0.0005 J0.0
G3 Y10.5548 Z-1.0667 I0.0002 J-0.0004
G3 X72.2109 Y10.5552 Z-1.2 I0.0002 J0.0004
G3 X72.2102 Y10.5557 I-0.0005 J0.0
G3 Y10.5548 I0.0002 J-0.0004
G3 X72.2109 Y10.5552 I0.0002 J0.0004
G0 Z3.0
G0 X82.372 Y10.646
G0 Z1.0
G1 F300.0 Z0.0
G3 F800.0 X82.3712 Y10.6464 Z-0.1333 I-0.0005 J0.0
G3 Y10.6455 Z-0.2667 I0.0002 J-0.0004
G3 X82.372 Y10.646 Z-0.4 I0.0002 J0.0004
G3 X82.3712 Y10.6464 Z-0.5333 I-0.0005 J0.0
G3 Y10.6455 Z-0.6667 I0.0002 J-0.0004
G3 X82.372 Y10.646 Z-0.8 I0.0002 J0.0004
G3 X82.3712 Y10.6464 Z-0.9333 I-0.0005 J0.0
G3 Y10.6455 Z-1.0667 I0.0002 J-0.0004
G3 X82.372 Y10.646 Z-1.2 I0.0002 J0.0004
G3 X82.3712 Y10.6464 I-0.0005 J0.0
G3 Y10.6455 I0.0002 J-0.0004
G3 X82.372 Y10.646 I0.0002 J0.0004
G0 Z3.0
M5
M30
