(Generated by PartKam Version 0.05)

G21 G90 G40

(profile)
G0 Z15
T0 M6
G17
M3
G0 X0.013197969543147208 Y-0.7868020304568528
G1 Z-0.9 F100
G1 X43.44923857868021 Y-0.7868020304568528 F150
G3 X44.248730964467 Y0.012690355329949238 I0 J0.799492385786802
G1 X44.248730964467 Y39.49746192893401
G3 X43.44923857868021 Y40.296954314720814 I-0.799492385786802 J0
G1 X0.012690355329949238 Y40.296954314720814
G3 X-0.7868020304568528 Y39.49746192893401 I0 J-0.799492385786802
G1 X-0.7868020304568528 Y39.40862944162437
G1 X-0.7868020304568528 Y0.012690355329949238
G3 X0.012690355329949238 Y-0.7868020304568528 I0.799492385786802 J0
G0 Z15
M5
M30
