( Made using CamBam - http://www.cambam.co.uk )
( ESP8266GAZ_etch_copper_bottom 8/24/2016 7:47:56 PM )
( T0 : 0.2 )
G21 G90 G64 G40
G0 Z3.0
( T0 : 0.2 )
T0 M6
( Contour1 )
G17
M3 S1000
G0 X16.9991 Y4.3414
G0 Z1.25
G1 F300.0 Z-0.15
G3 F800.0 X17.0934 Y4.257 I0.0988 J0.0155
G3 X16.9991 Y4.1726 I0.0045 J-0.0999
G3 X16.9049 Y4.257 I-0.0988 J-0.0155
G3 X16.9991 Y4.3414 I-0.0045 J0.0999
G0 Z3.0
G0 X16.7893 Y4.4685
G0 Z1.25
G1 F300.0 Z-0.15
G1 F800.0 X16.1972
G3 X16.0972 Y4.3685 I0.0 J-0.1
G1 Y4.1455
G3 X16.1972 Y4.0455 I0.1 J0.0
G1 X16.7893
G1 Y3.4545
G3 X16.8893 Y3.3545 I0.1 J0.0
G1 X17.1095
G3 X17.2095 Y3.4545 I0.0 J0.1
G1 Y4.0455
G1 X17.8005
G3 X17.9005 Y4.1455 I0.0 J0.1
G1 Y4.3685
G3 X17.8005 Y4.4685 I-0.1 J0.0
G1 X17.2095
G1 Y5.0595
G3 X17.1095 Y5.1595 I-0.1 J0.0
G1 X16.8893
G3 X16.7893 Y5.0595 I0.0 J-0.1
G1 Y5.054
G1 Y4.4685
G0 Z3.0
G0 X15.6862
G0 Z1.25
G1 F300.0 Z-0.15
G1 F800.0 Y6.2998
G3 X15.5862 Y6.3998 I-0.1 J0.0
G1 X13.7513
G1 X11.9534 Y9.1872
G3 X12.1793 Y9.8596 I-0.9076 J0.679
G3 Y9.8606 I-0.1 J0.0006
G3 X11.0372 Y11.0033 I-1.1469 J-0.0042
G3 X11.0363 I-0.0004 J-0.1
G3 X9.8936 Y9.8606 I0.0046 J-1.1473
G3 Y9.8598 I0.1 J-0.0004
G3 X11.0364 Y8.7176 I1.1467 J0.0045
G3 X11.0371 I0.0003 J0.1
G3 X11.2739 Y8.7455 I-0.0038 J1.0525
G1 X13.0837 Y5.9409
G3 X13.1693 Y5.8394 I0.3484 J0.2069
G1 Y5.1472
G1 X10.8439 Y5.3978
G3 X9.8362 Y6.1525 I-1.0126 J-0.302
G3 X9.8354 I-0.0005 J-0.1
G3 X8.7826 Y5.0997 I0.0039 J-1.0567
G3 Y5.099 I0.1 J-0.0004
G3 X9.8353 Y4.0451 I1.0577 J0.0038
G3 X9.8363 I0.0005 J0.1
G3 X10.7553 Y4.5924 I-0.0059 J1.0552
G1 X13.1693 Y4.3323
G1 Y2.9088
G3 X13.2693 Y2.8088 I0.1 J0.0
G1 X15.5862
G3 X15.6862 Y2.9088 I0.0 J0.1
G1 Y4.4685
G0 Z3.0
G0 X15.5646 Y1.8685
G0 Z1.25
G1 F300.0 Z-0.15
G1 F800.0 X3.9027 Y2.4142
G1 Y4.6533
G1 X5.8514 Y8.7175
G1 X6.5748 Y6.1525
G1 X6.3388
G3 X6.2388 Y6.0525 I0.0 J-0.1
G1 Y5.7981
G1 Y4.1451
G3 X6.3388 Y4.0451 I0.1 J0.0
G1 X8.2462
G3 X8.3462 Y4.1451 I0.0 J0.1
G1 Y6.0525
G3 X8.2462 Y6.1525 I-0.1 J0.0
G1 X7.4162
G1 X6.6933 Y8.7176
G1 X6.9928
G3 X7.0928 Y8.8176 I0.0 J0.1
G1 Y10.9033
G3 X6.9928 Y11.0033 I-0.1 J0.0
G1 X6.1797
G1 X5.6512 Y14.345
G1 X6.0281
G3 X6.1281 Y14.445 I0.0 J0.1
G1 Y16.353
G3 X6.0281 Y16.453 I-0.1 J0.0
G1 X4.1206
G3 X4.0206 Y16.353 I0.0 J-0.1
G1 Y16.098
G1 Y14.445
G3 X4.1206 Y14.345 I0.1 J0.0
G1 X4.8311
G1 X5.3596 Y11.0033
G1 X4.9071
G3 X4.8071 Y10.9033 I0.0 J-0.1
G1 Y10.6489
G1 Y8.8176
G3 X4.9071 Y8.7176 I0.1 J0.0
G1 X4.9525
G1 X3.0559 Y4.7611
G1 X1.4858
G3 X1.3858 Y4.6611 I0.0 J-0.1
G1 Y1.2701
G3 X1.4858 Y1.1701 I0.1 J0.0
G1 X3.8027
G3 X3.9027 Y1.2701 I0.0 J0.1
G1 Y1.6035
G1 X16.0008 Y1.0374
G3 X16.0787 Y1.0338 I0.058 J0.4023
G3 X16.1664 Y1.0433 I0.0004 J0.4048
G1 X34.6858 Y3.0697
G3 X34.706 Y3.0717 I-0.0348 J0.4441
G3 X34.72 Y3.0735 I-0.2153 J1.7384
G3 X34.7318 Y3.0758 I-0.0131 J0.0991
G3 X34.7596 Y3.0814 I-0.0735 J0.4359
G3 X34.7694 Y3.0843 I-0.0229 J0.0973
G3 X34.8993 Y3.1468 I-0.108 J0.3906
G3 X34.9076 Y3.1525 I-0.0528 J0.085
G3 X34.9373 Y3.1778 I-0.2408 J0.3127
G3 X34.9407 Y3.1811 I-0.0773 J0.0836
G3 X35.0658 Y3.4987 I-0.2794 J0.2935
G1 X34.9547 Y8.5528
G3 X35.5824 Y9.5115 I-0.4279 J0.965
G3 Y9.5126 I-0.1 J0.0006
G3 X34.778 Y10.5334 I-1.0568 J-0.0054
G1 X34.5896 Y11.7375
G3 X35.0929 Y12.6299 I-0.5502 J0.8984
G3 Y12.6308 I-0.1 J0.0006
G3 X34.8148 Y13.3385 I-1.0482 J-0.0034
G1 X36.8893 Y17.8051
G3 X36.9257 Y17.8025 I0.1017 J1.1821
G3 X36.9316 Y17.8024 I0.0055 J0.0998
G3 X37.9844 Y18.8557 I-0.0043 J1.0571
G3 Y18.8565 I-0.1 J0.0003
G3 X36.9316 Y19.9098 I-1.0572 J-0.0038
G3 X36.9308 I-0.0004 J-0.1
G3 X35.8769 Y18.8566 I0.0043 J-1.0581
G3 Y18.8558 I0.1 J-0.0005
G3 X36.155 Y18.1475 I1.0485 J0.0029
G1 X34.0806 Y13.681
G3 X34.0442 Y13.6835 I-0.0904 J-1.069
G3 X34.0388 Y13.6836 I-0.005 J-0.0999
G3 X32.9854 Y12.6309 I0.0038 J-1.0572
G3 Y12.6299 I0.1 J-0.0004
G3 X33.7893 Y11.6092 I1.0575 J0.006
G1 X33.972 Y10.4443
G1 X28.1771 Y14.8511
G3 X28.2198 Y15.1398 I-1.0017 J0.2955
G3 Y15.1409 I-0.1 J0.0006
G3 X27.871 Y15.9327 I-1.0857 J-0.0056
G1 X29.4907 Y20.0899
G1 X31.8441
G3 X31.9441 Y20.1899 I0.0 J0.1
G1 Y21.4389
G3 X31.8441 Y21.5389 I-0.1 J0.0
G1 X26.8316
G3 X26.7316 Y21.4389 I0.0 J-0.1
G1 Y20.1899
G3 X26.8316 Y20.0899 I0.1 J0.0
G1 X28.6209
G1 X27.1182 Y16.2327
G3 X26.0356 Y15.1408 I0.0134 J-1.096
G3 Y15.14 I0.1 J-0.0004
G3 X27.127 Y14.0486 I1.0956 J0.0042
G3 X27.1277 I0.0004 J0.1
G3 X27.6876 Y14.2057 I-0.0028 J1.0864
G1 X33.5125 Y9.7757
G3 X33.4755 Y9.513 I0.9888 J-0.2734
G3 Y9.5113 I0.1 J-0.001
G3 X34.1448 Y8.5361 I1.0547 J0.0066
G1 X34.2473 Y3.8366
G1 X16.0555 Y1.8456
G1 X15.5646 Y1.8685
G0 Z3.0
G0 X18.8415 Y8.6367
G0 Z1.25
G1 F300.0 Z-0.15
G3 F800.0 X19.2565 Y8.5404 I0.4196 J0.8667
G3 X19.2575 I0.0005 J0.1
G3 X20.2158 Y9.4994 I-0.0046 J0.9629
G3 Y9.5002 I-0.1 J0.0004
G3 X19.6884 Y10.3553 I-0.9635 J-0.0041
G1 X19.7377 Y12.0068
G1 X22.0365 Y12.0526
G3 X22.3635 Y12.1313 I0.0773 J0.3978
G3 X22.5189 Y12.4422 I-0.2497 J0.3191
G3 X22.519 Y12.4673 I-0.405 J0.0131
G3 Y12.4687 I-0.4402 J-0.0001
G1 Y12.475
G3 Y12.4784 I-0.4402 J0.0016
G3 X22.5189 Y12.4807 I-0.1 J-0.0004
G1 X22.4734 Y14.1431
G3 X23.1327 Y15.1398 I-0.434 J1.0035
G3 Y15.1408 I-0.1 J0.0006
G3 X22.0413 Y16.2328 I-1.0962 J-0.0042
G3 X22.0405 I-0.0004 J-0.1
G3 X20.9497 Y15.1407 I0.0047 J-1.0955
G3 Y15.1398 I0.1 J-0.0003
G3 X21.6636 Y14.1211 I1.0931 J0.0066
G1 X21.6981 Y12.8573
G1 X19.3949 Y12.8094
G3 X19.3533 Y12.813 I-0.0561 J-0.4017
G3 X19.3496 Y12.8131 I-0.0036 J-0.0999
G3 X19.2954 Y12.8094 I0.0008 J-0.4076
G1 X12.0342 Y12.9551
G1 X12.1158 Y16.4936
G1 X17.3243 Y20.3989
G3 X17.3596 Y20.4197 I-0.1891 J0.3612
G3 X17.5519 Y20.8401 I-0.2065 J0.3487
G1 X18.8155 Y37.4884
G1 X33.8047 Y37.5438
G1 X33.8137
G3 X33.8178 I0.0019 J0.391
G3 X33.8187 Y37.5439 I-0.0006 J0.1
G1 X41.1803 Y37.6512
G1 X41.1932 Y37.4756
G3 X40.6151 Y36.5371 I0.4802 J-0.9431
G3 Y36.5362 I0.1 J-0.0004
G3 X41.6689 Y35.4824 I1.0585 J0.0047
G3 X41.6698 I0.0004 J0.1
G3 X42.7226 Y36.5364 I-0.0048 J1.0575
G3 X42.7225 Y36.5373 I-0.1 J0.0003
G3 X42.0009 Y37.5324 I-1.0555 J-0.0062
G1 X41.9608 Y38.0811
G3 X41.96 Y38.0925 I-0.3037 J-0.0132
G3 X41.9577 Y38.1151 I-0.3886 J-0.0282
G3 X41.9572 Y38.1201 I-0.0997 J-0.0082
G3 X41.5601 Y38.4718 I-0.4016 J-0.0534
G3 X41.56 I-0.0011 J-0.1
G3 X41.4918 Y38.4667 I-0.0041 J-0.4045
G1 X33.8075 Y38.3543
G1 X18.4967 Y38.298
G3 X18.425 Y38.3018 I-0.0571 J-0.4019
G3 X18.4245 I0.0036 J-0.0999
G3 X18.0413 Y37.9632 I0.0165 J-0.4049
G3 X18.041 Y37.961 I0.0987 J-0.0164
G3 X18.0402 Y37.955 I0.1853 J-0.0265
G3 X18.0364 Y37.9234 I0.3974 J-0.0639
G3 X18.0361 Y37.9172 I0.0997 J-0.008
G1 X16.7652 Y21.1746
G1 X13.4311 Y21.1929
G1 Y21.4257
G3 X13.3311 Y21.5257 I-0.1 J0.0
G1 X8.3185
G3 X8.2185 Y21.4257 I0.0 J-0.1
G1 Y21.0874
G1 X6.1096 Y20.9906
G3 X5.1592 Y21.5958 I-0.955 J-0.451
G3 X5.1584 I-0.0004 J-0.1
G3 X4.1056 Y20.5424 I0.0043 J-1.0571
G3 Y20.5417 I0.1 J-0.0003
G3 X5.1584 Y19.4883 I1.0572 J0.0038
G3 X5.1594 I0.0004 J0.1
G3 X6.1441 Y20.1815 I-0.0066 J1.0554
G1 X8.2185 Y20.2762
G1 Y20.1761
G3 X8.3185 Y20.0761 I0.1 J0.0
G1 X9.9285
G1 X7.7869 Y16.4383
G3 X7.617 Y16.453 I-0.1633 J-0.9012
G3 X6.5639 Y15.3997 I0.0044 J-1.0576
G3 Y15.3987 I0.1 J-0.0004
G3 X7.3926 Y14.3739 I1.056 J0.0065
G1 X7.9323 Y10.8512
G3 X7.3509 Y9.8607 I0.5628 J-0.9963
G3 Y9.8598 I0.1 J-0.0005
G3 X8.4931 Y8.7176 I1.1463 J0.0041
G3 X8.4938 I0.0004 J0.1
G3 X9.6366 Y9.8598 I-0.0042 J1.1469
G3 Y9.8608 I-0.1 J0.0004
G3 X8.7328 Y10.9735 I-1.1451 J-0.0068
G1 X8.1901 Y14.5206
G3 X8.6261 Y15.1075 I-0.5782 J0.885
G3 X8.7498 Y15.3985 I-0.2816 J0.2915
G3 X8.6269 Y15.6897 I-0.4053 J0.0005
G3 X8.4733 Y16.0057 I-0.99 J-0.286
G1 X10.8683 Y20.0761
G1 X13.3311
G3 X13.4311 Y20.1761 I0.0 J0.1
G1 Y20.383
G1 X15.9341 Y20.3697
G1 X11.509 Y17.0513
G3 X11.3199 Y16.7902 I0.2065 J-0.3486
G3 X11.3186 Y16.7831 I0.0976 J-0.0216
G3 X11.3143 Y16.7589 I0.3949 J-0.083
G3 X11.3123 Y16.7445 I0.4089 J-0.0657
G3 X11.3118 Y16.7399 I0.0992 J-0.0124
G3 X11.311 Y16.7252 I0.2927 J-0.0229
G3 X11.3098 Y16.6946 I0.3949 J-0.0307
G1 X11.215 Y12.5691
G3 X11.3609 Y12.2353 I0.4046 J-0.0219
G3 X11.7039 Y12.1509 I0.2587 J0.3119
G1 X18.9272 Y12.0069
G1 X18.8776 Y10.3762
G3 X18.2982 Y9.5005 I0.3825 J-0.8826
G3 Y9.4994 I0.1 J-0.0007
G3 X18.8415 Y8.6367 I0.9629 J0.004
G0 Z3.0
G0 X20.3565 Y9.1793
G0 Z1.25
G1 F300.0 Z-0.15
G3 F800.0 X21.2595 Y8.5405 I0.9074 J0.325
G3 X21.2606 I0.0005 J0.1
G3 X22.1273 Y9.0982 I-0.0067 J0.9626
G1 X23.3895 Y9.1031
G3 X24.3551 Y8.4582 I0.9712 J0.4089
G3 X24.3561 I0.0005 J0.1
G3 X25.4094 Y9.5115 I-0.0043 J1.0576
G3 Y9.5123 I-0.1 J0.0004
G3 X24.3561 Y10.5657 I-1.0576 J-0.0043
G3 X24.355 I-0.0004 J-0.1
G3 X23.3866 Y9.913 I0.0066 J-1.0547
G1 X22.1243 Y9.9085
G3 X21.2605 Y10.4591 I-0.8695 J-0.4112
G3 X21.2595 I-0.0006 J-0.1
G3 X20.3001 Y9.5003 I0.0044 J-0.9639
G3 Y9.4993 I0.1 J-0.0005
G3 X20.3565 Y9.1793 I0.9639 J0.005
G0 Z3.0
G0 X19.6507 Y14.0599
G0 Z1.25
G1 F300.0 Z-0.15
G3 F800.0 X20.59 Y15.14 I-0.1569 J1.0849
G3 Y15.1411 I-0.1 J0.0004
G3 X20.4094 Y15.7336 I-1.0863 J-0.0075
G1 X23.8185 Y20.591
G3 X23.9245 Y20.7972 I-0.2923 J0.2807
G1 X23.9249 Y20.7991
G3 X23.9256 Y20.803 I-0.098 J0.02
G3 X23.9341 Y20.8832 I-0.3964 J0.0825
G1 X25.0815 Y32.4033
G1 X26.7316 Y32.4142
G1 Y32.2124
G3 X26.8316 Y32.1124 I0.1 J0.0
G1 X31.8441
G3 X31.9441 Y32.2124 I0.0 J0.1
G1 Y33.462
G3 X31.8441 Y33.562 I-0.1 J0.0
G1 X26.8316 Y33.5619
G3 X26.7316 Y33.4619 I0.0 J-0.1
G1 Y33.2246
G1 X24.7756 Y33.2115
G3 X24.7075 Y33.2159 I-0.0598 J-0.4013
G3 X24.5737 Y33.1904 I0.0078 J-0.4052
G3 X24.3001 Y32.7436 I0.1269 J-0.3848
G1 X23.1339 Y21.0268
G1 X19.7468 Y16.2004
G3 X19.4985 Y16.2328 I-0.2568 J-1.002
G3 X19.4972 I-0.0008 J-0.1
G3 X18.4059 Y15.1408 I0.0046 J-1.096
G3 Y15.14 I0.1 J-0.0004
G3 X19.4973 Y14.0486 I1.0956 J0.0042
G3 X19.4981 I0.0004 J0.1
G3 X19.6507 Y14.0599 I-0.0042 J1.0962
G0 Z3.0
G0 X17.9673 Y14.7359
G0 Z1.25
G1 F300.0 Z-0.15
G3 F800.0 X18.0462 Y15.14 I-1.0167 J0.4083
G3 Y15.141 I-0.1 J0.0004
G3 X17.8456 Y15.763 I-1.0839 J-0.0062
G1 X20.5025 Y19.8232
G3 X20.5817 Y19.9751 I-0.3116 J0.2592
G3 X20.596 Y20.0424 I-0.3908 J0.1184
G1 X23.4087 Y34.4361
G1 X26.6102 Y34.4387
G1 Y34.2203
G3 X26.7102 Y34.1203 I0.1 J0.0
G1 X31.7227
G3 X31.8227 Y34.2203 I0.0 J0.1
G1 Y35.4698
G3 X31.7227 Y35.5698 I-0.1 J0.0
G1 X26.7102
G3 X26.6102 Y35.4698 I0.0 J-0.1
G1 Y35.2485
G1 X23.1379 Y35.2459
G3 X23.0661 Y35.2502 I-0.0604 J-0.4002
G3 X22.9434 Y35.2283 I0.0091 J-0.4051
G3 X22.657 Y34.8148 I0.1181 J-0.3876
G1 X19.8106 Y20.2449
G1 X17.1687 Y16.2081
G3 X16.9559 Y16.2328 I-0.2291 J-1.0473
G3 X16.954 I-0.0015 J-0.1
G3 X15.8626 Y15.1408 I0.0046 J-1.096
G3 Y15.14 I0.1 J-0.0004
G3 X16.954 Y14.0486 I1.0956 J0.0042
G3 X16.9548 I0.0004 J0.1
G3 X17.9673 Y14.7359 I-0.0042 J1.0956
G0 Z3.0
G0 X15.4964 Y15.0197
G0 Z1.25
G1 F300.0 Z-0.15
G3 F800.0 X15.5035 Y15.14 I-1.089 J0.1251
G3 Y15.1408 I-0.1 J0.0004
G3 X14.4116 Y16.2328 I-1.0966 J-0.0046
G3 X14.4108 I-0.0004 J-0.1
G3 X13.3194 Y15.1408 I0.0047 J-1.096
G3 Y15.14 I0.1 J-0.0004
G3 X14.4108 Y14.0486 I1.0956 J0.0042
G3 X14.4116 I0.0004 J0.1
G3 X15.4964 Y15.0197 I-0.0042 J1.0962
G0 Z3.0
G0 X13.332 Y22.1341
G0 Z1.25
G1 F300.0 Z-0.15
G3 F800.0 X13.4029 Y22.2298 I-0.0291 J0.0957
G1 Y23.4794
G3 X13.3029 Y23.5794 I-0.1 J0.0
G1 X8.2904
G3 X8.1904 Y23.4794 I0.0 J-0.1
G1 Y22.2298
G3 X8.2904 Y22.1298 I0.1 J0.0
G1 X13.3029
G3 X13.332 Y22.1341 I0.0 J0.1
G0 Z3.0
G0 X13.3043 Y24.0842
G0 Z1.25
G1 F300.0 Z-0.15
G3 F800.0 X13.4029 Y24.1842 I-0.0014 J0.1
G1 Y25.4337
G3 X13.3029 Y25.5337 I-0.1 J0.0
G1 X8.2904
G3 X8.1904 Y25.4337 I0.0 J-0.1
G1 Y24.1842
G3 X8.2904 Y24.0842 I0.1 J0.0
G1 X13.3029
G3 X13.3043 I0.0 J0.1
G0 Z3.0
G0 X13.2504 Y26.0783
G0 Z1.25
G1 F300.0 Z-0.15
G3 F800.0 X13.3477 Y26.1782 I-0.0027 J0.1
G1 Y27.4278
G3 X13.2477 Y27.5278 I-0.1 J0.0
G1 X8.2357
G3 X8.1357 Y27.4278 I0.0 J-0.1
G1 Y26.1782
G3 X8.2357 Y26.0782 I0.1 J0.0
G1 X13.2477
G3 X13.2504 Y26.0783 I0.0 J0.1
G0 Z3.0
G0 X13.2479 Y28.1192
G0 Z1.25
G1 F300.0 Z-0.15
G3 F800.0 X13.3477 Y28.2192 I-0.0001 J0.1
G1 Y29.4682
G3 X13.2477 Y29.5682 I-0.1 J0.0
G1 X8.2357
G3 X8.1357 Y29.4682 I0.0 J-0.1
G1 Y28.2192
G3 X8.2357 Y28.1192 I0.1 J0.0
G1 X13.2477
G3 X13.2479 I0.0 J0.1
G0 Z3.0
G0 Y30.0946
G0 Z1.25
G1 F300.0 Z-0.15
G1 F800.0 X13.2952
G3 X13.3952 Y30.1946 I0.0 J0.1
G1 Y31.4441
G3 X13.2952 Y31.5441 I-0.1 J0.0
G1 X8.2827
G3 X8.1827 Y31.4441 I0.0 J-0.1
G1 Y31.1764
G1 X6.1194 Y31.1386
G3 X5.1595 Y31.7688 I-0.967 J-0.4268
G3 X5.1584 I-0.0007 J-0.1
G3 X4.1056 Y30.7154 I0.0043 J-1.0571
G3 Y30.7147 I0.1 J-0.0003
G3 X5.1584 Y29.6619 I1.0567 J0.0039
G3 X5.1594 I0.0004 J0.1
G3 X6.1337 Y30.3277 I-0.0065 J1.0552
G1 X8.1827 Y30.3654
G1 Y30.1946
G3 X8.2827 Y30.0946 I0.1 J0.0
G1 X13.2479
G0 Z3.0
G0 X13.233 Y32.0909
G0 Z1.25
G1 F300.0 Z-0.15
G3 F800.0 X13.3323 Y32.1909 I-0.0007 J0.1
G1 Y33.4404
G3 X13.2323 Y33.5404 I-0.1 J0.0
G1 X8.2197
G3 X8.1197 Y33.4404 I0.0 J-0.1
G1 Y32.1909
G3 X8.2197 Y32.0909 I0.1 J0.0
G1 X13.2323
G3 X13.233 I0.0 J0.1
G0 Z3.0
G0 Y34.091
G0 Z1.25
G1 F300.0 Z-0.15
G1 F800.0 X13.2869
G3 X13.3869 Y34.191 I0.0 J0.1
G1 Y35.44
G3 X13.2869 Y35.54 I-0.1 J0.0
G1 X8.2749
G3 X8.1749 Y35.44 I0.0 J-0.1
G1 Y34.191
G3 X8.2749 Y34.091 I0.1 J0.0
G1 X13.233
G0 Z3.0
G0 X26.708 Y31.477
G0 Z1.25
G1 F300.0 Z-0.15
G3 F800.0 X26.7061 Y31.4579 I0.0982 J-0.019
G1 Y30.2084
G3 X26.8061 Y30.1084 I0.1 J0.0
G1 X31.8181
G3 X31.9181 Y30.2084 I0.0 J0.1
G1 Y30.4555
G1 X34.1566 Y30.4793
G3 X34.158 I-0.0011 J0.1
G3 X34.183 Y30.4806 I-0.0109 J0.4471
G3 X34.2065 Y30.4828 I-0.0235 J0.3783
G3 X34.2078 Y30.483 I-0.0124 J0.0992
G3 X34.218 Y30.4845 I-0.0459 J0.3333
G1 X34.2181 Y30.4846
G3 X34.2868 Y30.5026 I-0.0678 J0.399
G3 X34.3127 Y30.5124 I-0.1378 J0.4022
G3 X34.318 Y30.5148 I-0.0385 J0.0923
G1 X34.3188 Y30.5152
G3 X34.3845 Y30.5525 I-0.166 J0.3686
G3 X34.3903 Y30.5569 I-0.0573 J0.0819
G3 X34.4159 Y30.5767 I-0.235 J0.3297
G3 X34.4177 Y30.5783 I-0.0644 J0.0765
G3 X34.4259 Y30.5857 I-0.2545 J0.2884
G3 X34.4284 Y30.5881 I-0.0683 J0.073
G1 X34.4305 Y30.5902
G3 X34.5011 Y30.6783 I-0.2781 J0.2956
G3 X34.505 Y30.6849 I-0.1643 J0.1003
G3 X34.5355 Y30.7526 I-0.3521 J0.1994
G3 X34.536 Y30.7541 I-0.0946 J0.0325
G3 X34.5439 Y30.7814 I-0.4029 J0.1316
G1 X34.5445 Y30.7835
G3 X34.5449 Y30.7853 I-0.0969 J0.0249
G3 X34.5489 Y30.8037 I-0.4513 J0.1069
G3 X34.5537 Y30.8297 I-0.406 J0.0878
G3 X34.5559 Y30.8462 I-0.409 J0.0629
G3 X34.5561 Y30.8484 I-0.0994 J0.0112
G1 X34.9175 Y34.8289
G1 X36.3688 Y34.8197
G1 Y34.4184
G3 X36.4688 Y34.3184 I0.1 J0.0
G1 X38.071
G3 X38.171 Y34.4184 I0.0 J0.1
G1 Y34.6188
G1 Y36.0207
G3 X38.071 Y36.1207 I-0.1 J0.0
G1 X36.4688
G3 X36.4641 Y36.1205 I0.0 J-0.1
G1 X36.464
G3 X36.3687 Y36.0206 I0.0047 J-0.0999
G1 Y35.6306
G1 X34.6079 Y35.641
G3 X34.5388 Y35.646 I-0.0636 J-0.3989
G3 X34.5374 I0.0014 J-0.1
G3 X34.1572 Y35.3459 I0.0112 J-0.4051
G3 X34.1485 Y35.3066 I0.3888 J-0.1067
G3 X34.1442 Y35.2737 I0.4331 J-0.0731
G3 X34.144 Y35.2707 I0.0996 J-0.0092
G3 X34.1437 Y35.2675 I0.0992 J-0.0123
G1 X33.781 Y31.286
G1 X31.9181 Y31.2665
G1 Y31.4579
G3 X31.8181 Y31.5579 I-0.1 J0.0
G1 X26.8061
G3 X26.708 Y31.477 I0.0 J-0.1
G0 Z3.0
G0 X26.8013 Y29.5538
G0 Z1.25
G1 F300.0 Z-0.15
G3 F800.0 X26.7062 Y29.4539 I0.0048 J-0.0999
G1 Y28.2049
G3 X26.8062 Y28.1049 I0.1 J0.0
G1 X31.8182
G3 X31.9182 Y28.2049 I0.0 J0.1
G1 Y29.4539
G3 X31.8182 Y29.5539 I-0.1 J0.0
G1 X26.8062
G3 X26.8013 Y29.5538 I0.0 J-0.1
G0 Z3.0
G0 X26.8301 Y27.5504
G0 Z1.25
G1 F300.0 Z-0.15
G3 F800.0 X26.7316 Y27.4504 I0.0014 J-0.1
G1 Y26.2009
G3 X26.8316 Y26.1009 I0.1 J0.0
G1 X31.8441
G3 X31.9441 Y26.2009 I0.0 J0.1
G1 Y26.3228
G1 X40.6865 Y25.9954
G3 X41.6688 Y25.31 I0.9883 J0.3699
G3 X41.6698 I0.0006 J0.1
G3 X42.7226 Y26.3628 I-0.0038 J1.0566
G3 Y26.3635 I-0.1 J0.0004
G3 X41.6698 Y27.4169 I-1.0572 J-0.0038
G3 X41.6689 I-0.0004 J-0.1
G3 X40.7162 Y26.8051 I0.0053 J-1.056
G1 X31.9441 Y27.1334
G1 Y27.4504
G3 X31.8441 Y27.5504 I-0.1 J0.0
G1 X26.8316
G3 X26.8301 I0.0 J-0.1
G0 Z3.0
G0 X26.8315 Y25.5464
G0 Z1.25
G1 F300.0 Z-0.15
G3 F800.0 X26.7316 Y25.4464 I0.0001 J-0.1
G1 Y24.1974
G3 X26.8316 Y24.0974 I0.1 J0.0
G1 X31.8441
G3 X31.9441 Y24.1974 I0.0 J0.1
G1 Y25.4464
G3 X31.8441 Y25.5464 I-0.1 J0.0
G1 X26.8316
G1 X26.8315
G0 Z3.0
G0 X26.8316 Y23.5943
G0 Z1.25
G1 F300.0 Z-0.15
G3 F800.0 X26.7316 Y23.4943 I0.0 J-0.1
G1 Y22.2447
G3 X26.8316 Y22.1447 I0.1 J0.0
G1 X31.8441
G3 X31.9441 Y22.2447 I0.0 J0.1
G1 Y22.427
G1 X33.0663 Y22.4112
G3 X34.0384 Y21.749 I0.9796 J0.3934
G3 X34.0395 I0.0007 J0.1
G3 X35.0928 Y22.8023 I-0.0043 J1.0576
G3 Y22.8031 I-0.1 J0.0004
G3 X34.0396 Y23.857 I-1.0581 J-0.0043
G3 X34.0385 I-0.0005 J-0.1
G3 X33.0768 Y23.2216 I0.0068 J-1.0557
G1 X31.9441 Y23.2379
G1 Y23.4943
G3 X31.8441 Y23.5943 I-0.1 J0.0
G1 X26.8316
G0 Z3.0
G0 X24.8621 Y16.1959
G0 Z1.25
G1 F300.0 Z-0.15
G3 F800.0 X24.5852 Y16.2328 I-0.2819 J-1.0589
G3 X24.5843 I-0.0005 J-0.1
G3 X23.4924 Y15.1408 I0.0046 J-1.0966
G3 Y15.14 I0.1 J-0.0004
G3 X24.5843 Y14.0486 I1.096 J0.0047
G3 X24.5851 I0.0004 J0.1
G3 X25.676 Y15.1401 I-0.0042 J1.0951
G3 Y15.1408 I-0.1 J0.0003
G3 X24.8621 Y16.1959 I-1.0958 J-0.0038
G0 Z3.0
G0 X36.2099 Y28.2629
G0 Z1.25
G1 F300.0 Z-0.15
G3 F800.0 X36.9308 Y27.9758 I0.7245 J0.7704
G3 X36.9315 I0.0003 J0.1
G3 X37.9843 Y29.0286 I-0.0038 J1.0566
G3 Y29.0293 I-0.1 J0.0004
G3 X37.4234 Y29.9578 I-1.0561 J-0.0044
G1 X37.6 Y31.8828
G3 X38.1709 Y32.7156 I-0.3307 J0.8388
G3 Y32.7167 I-0.1 J0.0007
G3 X37.2699 Y33.6177 I-0.9047 J-0.0037
G3 X37.2691 I-0.0004 J-0.1
G3 X36.3687 Y32.7167 I0.0038 J-0.9043
G3 Y32.7157 I0.1 J-0.0004
G3 X36.7931 Y31.9567 I0.9008 J0.0056
G1 X36.6166 Y30.0313
G3 X35.8769 Y29.0295 I0.3166 J-1.0077
G3 Y29.0285 I0.1 J-0.0006
G3 X36.2099 Y28.2629 I1.0575 J0.0048
G0 Z3.0
G0 X2.5875 Y6.0143
G0 Z1.25
G1 F300.0 Z-0.15
G3 F800.0 X2.5041 Y6.0591 I-0.0834 J-0.0552
G1 X2.4985
G1 X1.8241
G3 X1.7241 Y5.9591 I0.0 J-0.1
G1 Y5.745
G3 X1.8241 Y5.645 I0.1 J0.0
G1 X2.5041
G3 X2.6041 Y5.745 I0.0 J0.1
G1 Y5.9591
G3 X2.5875 Y6.0143 I-0.1 J0.0
G0 Z3.0
M5
M30
