( Made using CamBam - http://www.cambam.co.uk )
( ESP8266GAZ_etch_copper_bottom 8/24/2016 6:24:19 PM )
( T0 : 0.5 )
G21 G90 G64 G40
G0 Z3.0
( T0 : 0.5 )
T0 M6
( Poche1 )
G17
M3 S1000
G0 X3.9632 Y35.5985
G0 Z1.25
G1 F300.0 Z-0.15
G1 F800.0 X4.3283
G3 X4.3266 Y35.5468 I3.9466 J-0.1585
G3 X3.9632 Y35.4697 I0.8361 J-4.8351
G1 Y35.5985
G1 F300.0 X3.8632
G1 F800.0 Y35.6985
G1 X4.4338
G3 X4.4252 Y35.4617 I3.8411 J-0.2585
G3 X3.8632 Y35.3396 I0.7375 J-4.75
G1 Y35.5985
G1 F300.0 X3.7632
G1 F800.0 Y35.7985
G1 X4.5423
G3 X4.5251 Y35.44 I3.7326 J-0.3585
G1 Y35.3752
G3 X3.7632 Y35.2057 I0.6376 J-4.6635
G1 Y35.5985
G1 F300.0 X3.6632
G1 F800.0 Y35.8985
G1 X4.654
G3 X4.6251 Y35.44 I3.6209 J-0.4585
G1 Y35.2871
G3 X3.6632 Y35.0677 I0.5376 J-4.5754
G1 Y35.5985
G1 F300.0 X3.5632
G1 F800.0 Y35.9985
G1 X4.7693
G3 X4.7251 Y35.44 I3.5056 J-0.5585
G1 Y35.1973
G3 X3.5632 Y34.9252 I0.4376 J-4.4856
G1 Y35.5985
G1 F300.0 X3.4632
G1 F800.0 Y36.0985
G1 X4.8886
G3 X4.8251 Y35.44 I3.3864 J-0.6585
G1 Y35.1056
G3 X3.4632 Y34.7777 I0.3376 J-4.3939
G1 Y35.5985
G1 F300.0 X3.3632
G1 F800.0 Y36.1985
G1 X5.0121
G3 X4.9251 Y35.44 I3.2628 J-0.7585
G1 Y35.012
G3 X3.3632 Y34.6246 I0.2376 J-4.3003
G1 Y35.5985
G1 F300.0 X3.2632
G1 F800.0 Y36.2985
G1 X5.1406
G3 X5.0251 Y35.44 I3.1344 J-0.8585
G1 Y34.9163
G3 X3.2632 Y34.4653 I0.1376 J-4.2046
G1 Y35.5985
G1 F300.0 X3.1632
G1 F800.0 Y36.3985
G1 X5.2745
G3 X5.1251 Y35.44 I3.0004 J-0.9585
G1 Y34.8184
G3 X3.1632 Y34.299 I0.0376 J-4.1067
G1 Y35.5985
G1 F300.0 X3.0632
G1 F800.0 Y36.4985
G1 X5.4147
G3 X5.2251 Y35.44 I2.8602 J-1.0585
G1 Y34.7179
G3 X5.179 Y34.7185 I-0.0727 J-4.0061
G3 X5.1464 I-0.0202 J-3.0497
G3 X3.0632 Y34.1245 I0.0163 J-4.0068
G1 Y35.5985
G1 F300.0 X2.9632
G1 F800.0 Y36.5985
G1 X5.5621
G3 X5.3251 Y35.44 I2.7128 J-1.1585
G1 Y34.6148
G3 X5.1783 Y34.6185 I-0.1727 J-3.903
G3 X5.1468 I-0.0195 J-2.9497
G3 X2.9632 Y33.9406 I0.0159 J-3.9068
G1 Y35.5985
G1 F300.0 X2.8632
G1 F800.0 Y36.6985
G1 X5.7181
G3 X5.4251 Y35.44 I2.5569 J-1.2585
G1 Y34.5088
G3 X5.1777 Y34.5185 I-0.2727 J-3.797
G3 X5.1472 I-0.0189 J-2.8497
G3 X2.8632 Y33.7456 I0.0155 J-3.8068
G1 Y35.5985
G1 F300.0 X2.7632
G1 F800.0 Y36.7985
G1 X5.8841
G3 X5.5251 Y35.44 I2.3908 J-1.3585
G1 Y34.3998
G3 X5.177 Y34.4185 I-0.3727 J-3.688
G3 X5.1476 I-0.0182 J-2.7497
G3 X2.7632 Y33.5372 I0.0151 J-3.7068
G1 Y35.5985
G1 F300.0 X2.6632
G1 F800.0 Y36.8985
G1 X6.0626
G3 X5.6251 Y35.44 I2.2123 J-1.4585
G1 Y34.2875
G3 X5.1764 Y34.3185 I-0.4727 J-3.5757
G3 X5.148 I-0.0176 J-2.6497
G3 X2.6632 Y33.3121 I0.0147 J-3.6068
G1 Y35.5985
G1 F300.0 X2.5632
G1 F800.0 Y36.9985
G1 X6.2569
G3 X5.7251 Y35.44 I2.0181 J-1.5585
G1 Y34.191
G3 X5.7252 Y34.1715 I2.5498 J0.0
G3 X5.1757 Y34.2185 I-0.5728 J-3.4597
G3 X5.1484 I-0.0169 J-2.5497
G3 X2.5632 Y33.0656 I0.0143 J-3.5068
G1 Y35.5985
G1 F300.0 X2.4632
G1 F800.0 Y37.0985
G1 X6.4719
G3 X5.8251 Y35.44 I1.803 J-1.6585
G1 Y34.191
G3 X5.8292 Y34.0507 I2.4498 J0.0
G3 X5.175 Y34.1185 I-0.6767 J-3.3389
G3 X5.1488 I-0.0162 J-2.4497
G3 X2.4632 Y32.7901 I0.0139 J-3.4068
G1 Y35.5985
G1 F300.0 X2.3632
G1 F800.0 Y37.1985
G1 X6.7163
G3 X5.9251 Y35.44 I1.5586 J-1.7585
G1 Y34.191
G3 X5.9341 Y33.9858 I2.3498 J0.0
G3 X5.9211 Y33.928 I2.2856 J-0.5454
G3 X5.1744 Y34.0185 I-0.7686 J-3.2162
G3 X5.1492 I-0.0156 J-2.3497
G3 X2.3632 Y32.4719 I0.0135 J-3.3068
G1 Y35.5985
G1 F300.0 X2.2632
G1 F800.0 Y37.2985
G1 X7.007
G3 X6.0251 Y35.44 I1.2679 J-1.8585
G1 Y34.191
G3 X6.0352 Y33.9784 I2.2498 J0.0
G3 X5.9996 Y33.8047 I2.1845 J-0.538
G3 X5.1737 Y33.9185 I-0.8472 J-3.0929
G3 X5.1496 I-0.0149 J-2.2498
G3 X2.2632 Y32.0818 I0.0131 J-3.2068
G1 Y35.5985
G1 F300.0 X2.1632
G1 F800.0 Y37.3985
G1 X7.3884
G3 X6.1251 Y35.44 I0.8865 J-1.9585
G1 Y34.191
G3 X6.1364 Y33.9709 I2.1498 J0.0
G3 X6.0829 Y33.676 I2.0833 J-0.5305
G3 X5.173 Y33.8185 I-0.9304 J-2.9642
G3 X5.15 I-0.0142 J-2.1498
G3 X2.1632 Y31.5216 I0.0127 J-3.1068
G1 Y35.5985
G0 Z3.0
G0 X4.0632 Y25.8342
G0 Z1.25
G1 F300.0 Z-0.15
G3 F800.0 X4.2032 Y25.8048 I1.099 J4.8843
G3 X4.2413 Y25.5108 I4.0325 J0.3735
G3 X4.2407 Y25.46 I4.0491 J-0.0771
G3 X4.0632 Y25.4234 I0.922 J-4.9212
G1 Y25.8342
G1 F300.0 X3.9632
G1 F800.0 Y25.9608
G3 X4.2965 Y25.8891 I1.199 J4.7577
G3 X4.3415 Y25.5182 I3.9392 J0.2892
G3 X4.3406 Y25.4337 I3.9489 J-0.0845
G1 Y25.3762
G3 X3.9632 Y25.2967 I0.8221 J-4.8375
G1 Y25.8342
G1 F300.0 X3.8632
G1 F800.0 Y26.0909
G3 X4.3914 Y25.9743 I1.299 J4.6276
G3 X4.4417 Y25.5255 I3.8444 J0.2039
G3 X4.4406 Y25.4337 I3.8487 J-0.0918
G1 Y25.291
G3 X3.8632 Y25.1666 I0.7221 J-4.7523
G1 Y25.8342
G1 F300.0 X3.7632
G1 F800.0 Y26.2248
G3 X4.4878 Y26.0607 I1.399 J4.4937
G3 X4.5419 Y25.5329 I3.748 J0.1176
G3 X4.5406 Y25.4337 I3.7485 J-0.0992
G1 Y25.2043
G3 X3.7632 Y25.0327 I0.6221 J-4.6656
G1 Y25.8342
G1 F300.0 X3.6632
G1 F800.0 Y26.3628
G3 X4.5861 Y26.1483 I1.499 J4.3557
G3 X4.6421 Y25.5402 I3.6497 J0.03
G3 X4.6406 Y25.4337 I3.6482 J-0.1065
G1 Y25.1159
G3 X3.6632 Y24.8947 I0.5221 J-4.5772
G1 Y25.8342
G1 F300.0 X3.5632
G1 F800.0 Y26.5053
G3 X4.6859 Y26.2373 I1.599 J4.2132
G1 Y26.1782
G3 X4.7424 Y25.5476 I3.5498 J0.0
G3 X4.7406 Y25.4337 I3.548 J-0.1139
G1 Y25.0258
G3 X3.5632 Y24.7522 I0.4221 J-4.4871
G1 Y25.8342
G1 F300.0 X3.4632
G1 F800.0 Y26.6528
G3 X4.7859 Y26.3282 I1.699 J4.0657
G1 Y26.1782
G3 X4.8427 Y25.555 I3.4498 J0.0
G3 X4.8406 Y25.4337 I3.4477 J-0.1213
G1 Y24.9338
G3 X3.4632 Y24.6047 I0.3221 J-4.3951
G1 Y25.8342
G1 F300.0 X3.3632
G1 F800.0 Y26.8058
G3 X4.8859 Y26.4209 I1.799 J3.9127
G1 Y26.1782
G3 X4.9431 Y25.5623 I3.3498 J0.0
G3 X4.9406 Y25.4337 I3.3473 J-0.1286
G1 Y24.8399
G3 X3.3632 Y24.4517 I0.2221 J-4.3011
G1 Y25.8342
G1 F300.0 X3.2632
G1 F800.0 Y26.9651
G3 X4.9859 Y26.5158 I1.899 J3.7534
G1 Y26.1782
G3 X5.0434 Y25.5697 I3.2498 J0.0
G3 X5.0406 Y25.4337 I3.247 J-0.136
G1 Y24.7438
G3 X3.2632 Y24.2924 I0.1221 J-4.2051
G1 Y25.8342
G1 F300.0 X3.1632
G1 F800.0 Y27.1315
G3 X5.0859 Y26.6128 I1.999 J3.587
G1 Y26.1782
G3 X5.1438 Y25.5771 I3.1498 J0.0
G3 X5.1406 Y25.4337 I3.1465 J-0.1434
G1 Y24.6455
G3 X3.1632 Y24.126 I0.0221 J-4.1068
G1 Y25.8342
G1 F300.0 X3.0632
G1 F800.0 Y27.3059
G3 X5.1477 Y26.7121 I2.099 J3.4126
G3 X5.1776 I0.0111 J3.0498
G3 X5.1859 Y26.7122 I-0.0248 J4.005
G1 Y26.1782
G3 X5.2443 Y25.5844 I3.0498 J0.0
G3 X5.2406 Y25.4337 I3.0461 J-0.1507
G1 Y24.5447
G3 X5.1722 Y24.5455 I-0.086 J-4.005
G3 X5.1464 Y24.5456 I-0.0134 J-3.0498
G3 X3.0632 Y23.9515 I0.0163 J-4.0068
G1 Y25.8342
G1 F300.0 X2.9632
G1 F800.0 Y27.4898
G3 X5.148 Y26.8121 I2.199 J3.2287
G3 X5.177 I0.0107 J2.9498
G3 X5.2859 Y26.8143 I-0.0241 J3.905
G1 Y26.1782
G3 X5.3448 Y25.5918 I2.9498 J0.0
G3 X5.3406 Y25.4337 I2.9456 J-0.1581
G1 Y24.4412
G3 X5.1717 Y24.4455 I-0.186 J-3.9015
G3 X5.1468 Y24.4456 I-0.013 J-2.9498
G3 X2.9632 Y23.7677 I0.0159 J-3.9068
G1 Y25.8342
G1 F300.0 X2.8632
G1 F800.0 Y27.6848
G3 X5.1484 Y26.9121 I2.299 J3.0337
G3 X5.1764 I0.0104 J2.8498
G3 X5.3859 Y26.9192 I-0.0235 J3.805
G1 Y26.1782
G3 X5.4454 Y25.5992 I2.8498 J0.0
G3 X5.4406 Y25.4337 I2.845 J-0.1655
G1 Y24.3348
G3 X5.1713 Y24.3455 I-0.286 J-3.7952
G3 X5.1472 Y24.3456 I-0.0125 J-2.8498
G3 X2.8632 Y23.5727 I0.0155 J-3.8068
G1 Y25.8342
G1 F300.0 X2.7632
G1 F800.0 Y27.8932
G3 X5.1488 Y27.0121 I2.399 J2.8253
G3 X5.1758 I0.01 J2.7498
G3 X5.4859 Y27.0271 I-0.0229 J3.705
G1 Y26.1782
G3 X5.546 Y25.6066 I2.7498 J0.0
G3 X5.5406 Y25.4337 I2.7444 J-0.1729
G1 Y24.2254
G3 X5.1709 Y24.2455 I-0.386 J-3.6858
G3 X5.1476 Y24.2456 I-0.0121 J-2.7498
G3 X2.7632 Y23.3642 I0.0151 J-3.7068
G1 Y25.8342
G1 F300.0 X2.6632
G1 F800.0 Y28.1183
G3 X5.1491 Y27.1121 I2.499 J2.6003
G3 X5.1752 I0.0097 J2.6498
G3 X5.5859 Y27.1382 I-0.0223 J3.605
G1 Y26.1782
G3 X5.6467 Y25.614 I2.6498 J0.0
G3 X5.6406 Y25.4337 I2.6437 J-0.1803
G1 Y24.1842
G3 X5.6416 Y24.1126 I2.6498 J0.0
G3 X5.1704 Y24.1456 I-0.487 J-3.5729
G3 X5.148 I-0.0116 J-2.6498
G3 X2.6632 Y23.1392 I0.0147 J-3.6068
G1 Y25.8342
G1 F300.0 X2.5632
G1 F800.0 Y28.3648
G3 X5.1495 Y27.2121 I2.599 J2.3538
G3 X5.1746 I0.0093 J2.5498
G3 X5.6859 Y27.2528 I-0.0217 J3.505
G1 Y26.1782
G3 X5.7475 Y25.6214 I2.5498 J0.0
G3 X5.7406 Y25.4337 I2.5429 J-0.1877
G1 Y24.1842
G3 X5.7476 Y23.9951 I2.5498 J0.0
G3 X5.17 Y24.0456 I-0.593 J-3.4554
G3 X5.1484 I-0.0112 J-2.5498
G3 X2.5632 Y22.8927 I0.0143 J-3.5068
G1 Y25.8342
G1 F300.0 X2.4632
G1 F800.0 Y28.6403
G3 X5.1499 Y27.3121 I2.699 J2.0783
G3 X5.1739 I0.0089 J2.4498
G3 X5.7859 Y27.3714 I-0.021 J3.405
G1 Y26.1782
G3 X5.8484 Y25.6288 I2.4498 J0.0
G3 X5.8406 Y25.4337 I2.442 J-0.1951
G1 Y24.1842
G3 X5.8606 Y23.8716 I2.4498 J0.0
G3 X5.1695 Y23.9456 I-0.706 J-3.3319
G3 X5.1488 I-0.0108 J-2.4498
G3 X2.4632 Y22.6171 I0.0139 J-3.4068
G1 Y25.8342
G1 F300.0 X2.3632
G1 F800.0 Y28.9584
G3 X5.1502 Y27.4121 I2.799 J1.7601
G3 X5.1733 I0.0086 J2.3498
G3 X5.8869 Y27.4946 I-0.0204 J3.305
G3 X5.8859 Y27.4278 I2.3489 J-0.0668
G1 Y26.1782
G3 X5.9493 Y25.6362 I2.3498 J0.0
G3 X5.9406 Y25.4337 I2.3411 J-0.2025
G1 Y24.1842
G3 X5.9672 Y23.8318 I2.3498 J0.0
G3 X5.9559 Y23.747 I2.3232 J-0.3524
G3 X5.1691 Y23.8456 I-0.8013 J-3.2073
G3 X5.1492 I-0.0103 J-2.3498
G3 X2.3632 Y22.299 I0.0135 J-3.3068
G1 Y25.8342
G1 F300.0 X2.2632
G1 F800.0 Y29.3485
G3 X5.1506 Y27.5121 I2.899 J1.37
G3 X5.1727 I0.0082 J2.2498
G3 X5.9946 Y27.6245 I-0.0198 J3.205
G3 X5.9859 Y27.4278 I2.2412 J-0.1968
G1 Y26.1782
G3 X6.0504 Y25.6436 I2.2498 J0.0
G3 X6.0406 Y25.4337 I2.24 J-0.2099
G1 Y24.1842
G3 X6.0684 Y23.8318 I2.2498 J0.0
G3 X6.045 Y23.6195 I2.222 J-0.3524
G3 X5.1687 Y23.7456 I-0.8904 J-3.0798
G3 X5.1496 I-0.0099 J-2.2498
G3 X2.2632 Y21.9089 I0.0131 J-3.2068
G1 Y25.8342
G1 F300.0 X2.1632
G1 F800.0 Y29.9087
G3 X5.151 Y27.6121 I2.999 J0.8099
G3 X5.1721 I0.0078 J2.1498
G3 X6.1124 Y27.764 I-0.0192 J3.105
G3 X6.0859 Y27.4278 I2.1233 J-0.3362
G1 Y26.1782
G3 X6.1516 Y25.651 I2.1498 J0.0
G3 X6.1406 Y25.4337 I2.1388 J-0.2173
G1 Y24.1842
G3 X6.1697 Y23.8318 I2.1498 J0.0
G3 X6.1406 Y23.4849 I2.1207 J-0.3524
G3 X5.1682 Y23.6456 I-0.986 J-2.9453
G3 X5.15 I-0.0094 J-2.1498
G3 X2.1632 Y21.3487 I0.0127 J-3.1068
G1 Y25.8342
G0 Z3.0
G0 X2.4632 Y18.4671
G0 Z1.25
G1 F300.0 Z-0.15
G3 F800.0 X2.614 Y18.2847 I2.6995 J2.0785
G3 X2.4632 Y18.157 I1.5066 J-1.9317
G1 Y18.4671
G1 F300.0 X2.5425 Y18.5281
G3 F800.0 X2.7626 Y18.2706 I2.6203 J2.0175
G3 X2.3632 Y17.9128 I1.358 J-1.9176
G1 Y18.7852
G3 X2.5425 Y18.5281 I2.7995 J1.7603
G1 F300.0 X2.6217 Y18.5891
G3 F800.0 X2.9185 Y18.2547 I2.5411 J1.9564
G3 X2.2632 Y17.6225 I1.2021 J-1.9017
G1 Y19.1753
G3 X2.6217 Y18.5891 I2.8995 J1.3702
G1 F300.0 X2.701 Y18.6501
G3 F800.0 X3.0841 Y18.2364 I2.4618 J1.8954
G3 X2.1632 Y17.2419 I1.0366 J-1.8834
G1 Y19.7355
G3 X2.701 Y18.6501 I2.9995 J0.81
G0 Z3.0
G0 X6.5686 Y18.122
G0 Z1.25
G1 F300.0 Z-0.15
G3 F800.0 X6.8653 Y18.3219 I-1.4158 J2.4217
G1 X6.7168 Y18.0698
G3 X6.5686 Y18.122 I-0.6888 J-1.7168
G1 F300.0 X6.5181 Y18.2084
G3 F800.0 X7.0019 Y18.5691 I-1.3654 J2.3354
G1 X7.1303 Y18.575
G1 X6.7718 Y17.966
G3 X6.7351 Y17.9536 I0.8496 J-2.5706
G3 X6.28 Y18.0845 I-0.707 J-1.6006
G3 X6.5181 Y18.2084 I-1.1272 J2.4592
G1 F300.0 X6.4677 Y18.2947
G3 F800.0 X6.9601 Y18.6673 I-1.3149 J2.249
G1 X7.3101 Y18.6833
G1 X6.8387 Y17.8825
G3 X6.7304 Y17.8458 I0.7828 J-2.4871
G3 X6.0281 Y18.0028 I-0.7023 J-1.4928
G1 X5.7278
G3 X6.4677 Y18.2947 I-0.575 J2.541
G0 Z3.0
G0 X6.6341 Y13.7136
G0 Z1.25
G1 F300.0 Z-0.15
G1 F800.0 X6.9191 Y11.8531
G1 X6.9057
G1 X6.614 Y13.6974
G3 X6.6341 Y13.7136 I-0.5859 J0.7476
G1 F300.0 X6.5703 Y13.7906
G3 F800.0 X6.6593 Y13.876 I-0.5422 J0.6544
G3 X6.7156 Y13.8421 I0.9605 J1.5291
G1 X7.0358 Y11.752
G3 X6.9928 Y11.7531 I-0.043 J-0.8487
G1 X6.8202
G1 X6.5056 Y13.7421
G3 X6.5703 Y13.7906 I-0.4776 J0.7029
G1 F300.0 X6.5065 Y13.8676
G3 F800.0 X6.6387 Y14.0098 I-0.4784 J0.5774
G3 X6.807 Y13.9055 I0.9812 J1.3954
G1 X7.1548 Y11.6354
G3 X6.9928 Y11.6531 I-0.162 J-0.7321
G1 X6.7348
G1 X6.3965 Y13.792
G3 X6.5065 Y13.8676 I-0.3684 J0.653
G1 F300.0 X6.4427 Y13.9446
G3 F800.0 X6.6103 Y14.1564 I-0.4146 J0.5003
G3 X6.8982 Y13.9707 I1.0096 J1.2487
G1 X7.2787 Y11.4868
G3 X6.9928 Y11.5531 I-0.2859 J-0.5835
G1 X6.6494
G1 X6.2863 Y13.8487
G3 X6.4427 Y13.9446 I-0.2582 J0.5963
G1 F300.0 X6.3789 Y14.0216
G3 F800.0 X6.5657 Y14.3299 I-0.3508 J0.4233
G3 X6.9891 Y14.0379 I1.0542 J1.0753
G1 X7.4154 Y11.255
G3 X6.9928 Y11.4531 I-0.4226 J-0.3517
G1 X6.564
G1 X6.1746 Y13.9151
G3 X6.3789 Y14.0216 I-0.1465 J0.5299
G1 F300.0 X6.3151 Y14.0986
G3 F800.0 X6.4779 Y14.445 I-0.287 J0.3463
G1 Y14.5853
G3 X7.0796 Y14.1073 I1.142 J0.8198
G1 X7.5534 Y11.0148
G3 X7.4425 Y10.9151 I0.9418 J-1.1599
G3 X6.9928 Y11.3531 I-0.4496 J-0.0118
G1 X6.4785
G1 X6.0605 Y13.9964
G3 X6.3151 Y14.0986 I-0.0324 J0.4486
G1 F300.0 X6.2513 Y14.1756
G3 F800.0 X6.3779 Y14.445 I-0.2232 J0.2693
G1 Y15.0019
G3 X7.1697 Y14.1794 I1.242 J0.4032
G1 X7.6611 Y10.9719
G3 X7.3426 Y10.6392 I0.834 J-1.1171
G1 Y10.9033
G3 X6.9928 Y11.2531 I-0.3498 J0.0
G1 X6.3931
G1 X5.9436 Y14.0952
G1 X6.0281
G3 X6.2513 Y14.1756 I0.0 J0.3498
G0 Z3.0
G0 X9.7272 Y14.0602
G0 Z1.25
G1 F300.0 Z-0.15
G3 F800.0 X9.8019 Y14.1856 I-2.1153 J1.3454
G1 X9.7897 Y13.652
G1 X9.7272 Y14.0602
G1 F300.0 X9.6429 Y14.1139
G3 F800.0 X9.8211 Y14.4502 I-2.031 J1.2917
G3 X9.9117 Y14.6088 I-1.4766 J0.9487
G1 X9.8658 Y12.6137
G3 X9.8653 Y12.4964 I1.7538 J-0.0665
G1 X9.6226 Y14.0826
G3 X9.6429 Y14.1139 I-2.0107 J1.3229
G1 F300.0 X9.5585 Y14.1675
G3 F800.0 X9.7326 Y14.4975 I-1.9466 J1.238
G3 X9.9996 Y15.3969 I-1.388 J0.9015
G1 Y15.397
G3 X9.8997 Y15.9654 I-1.6551 J0.002
G1 X10.0488 Y16.2188
G1 X9.9658 Y12.6106
G3 X10.0453 Y12.0366 I1.6538 J-0.0634
G3 X9.8498 Y11.9363 I0.9956 J-2.1806
G1 X9.5179 Y14.1059
G3 X9.5585 Y14.1675 I-1.906 J1.2996
G1 F300.0 X9.4741 Y14.2212
G3 F800.0 X9.644 Y14.5448 I-1.8622 J1.1844
G3 X9.8996 Y15.3971 I-1.2995 J0.8542
G3 X9.7891 Y15.9747 I-1.5551 J0.0018
G1 X10.1576 Y16.6009
G1 X10.0657 Y12.6076
G3 X10.1709 Y11.982 I1.5539 J-0.0603
G3 X9.7738 Y11.772 I0.87 J-2.126
G1 X9.413 Y14.1302
G3 X9.4741 Y14.2212 I-1.8011 J1.2753
G1 F300.0 X9.3897 Y14.2749
G3 F800.0 X9.5555 Y14.5922 I-1.7778 J1.1307
G3 X9.7996 Y15.3972 I-1.2109 J0.8068
G3 X9.6776 Y15.9823 I-1.4551 J0.0017
G1 X10.3005 Y17.041
G3 X10.2949 Y17.0168 I1.4151 J-0.3383
G3 X10.2867 Y16.9762 I1.1227 J-0.2482
G3 X10.2768 Y16.9189 I1.4268 J-0.2761
G3 X10.2706 Y16.8746 I1.4465 J-0.2257
G3 X10.2652 Y16.8217 I1.1409 J-0.1425
G3 X10.2627 Y16.7819 I1.3394 J-0.1046
G3 X10.2601 Y16.7105 I1.4433 J-0.0874
G1 X10.1657 Y12.6045
G3 X10.3039 Y11.9258 I1.4539 J-0.0572
G3 X9.7629 Y11.6432 I0.737 J-2.0698
G3 X9.6842 Y11.6967 I-1.2714 J-1.7892
G1 X9.308 Y14.1556
G3 X9.3897 Y14.2749 I-1.6961 J1.25
G0 Z3.0
G0 X12.9064 Y13.9159
G0 Z1.25
G1 F300.0 Z-0.15
G3 F800.0 X13.023 Y13.7852 I1.5086 J1.2284
G1 X12.9035 Y13.7876
G1 X12.9064 Y13.9159
G1 F300.0 X12.8064 Y13.9182
G1 F800.0 X12.8136 Y14.2272
G3 X13.2921 Y13.6798 I1.6014 J0.9171
G1 X12.8012 Y13.6897
G1 X12.8064 Y13.9182
G1 F300.0 X12.7065 Y13.9205
G1 F800.0 X12.7246 Y14.7092
G3 X13.656 Y13.5725 I1.6904 J0.435
G1 X12.6989 Y13.5917
G1 X12.7065 Y13.9205
G0 Z3.0
G0 X15.471 Y13.6361
G0 Z1.25
G1 F300.0 Z-0.15
G3 F800.0 X15.6829 Y13.8104 I-1.0637 J1.5087
G3 X15.9073 Y13.6273 I1.2753 J1.3338
G1 X15.471 Y13.6361
G1 F300.0 X15.469 Y13.5361
G1 F800.0 X15.1031 Y13.5434
G3 X15.6829 Y13.9526 I-0.6958 J1.6014
G3 X16.3218 Y13.519 I1.2753 J1.1917
G1 X15.469 Y13.5361
G0 Z3.0
G0 X17.9401 Y13.5865
G0 Z1.25
G1 F300.0 Z-0.15
G3 F800.0 X18.226 Y13.8105 I-0.9895 J1.5577
G3 X18.5309 Y13.5746 I1.2755 J1.3337
G1 X17.9401 Y13.5865
G1 F300.0 X17.9381 Y13.4865
G1 F800.0 X17.5217 Y13.4949
G3 X18.226 Y13.9527 I-0.5711 J1.6494
G3 X19.0265 Y13.4647 I1.2755 J1.1915
G1 X17.9381 Y13.4865
G0 Z3.0
G0 X20.4761 Y13.5818
G0 Z1.25
G1 F300.0 Z-0.15
G3 F800.0 X20.7714 Y13.8123 I-0.9822 J1.563
G3 X20.9255 Y13.6807 I1.2715 J1.3341
G1 X20.928 Y13.5912
G1 X20.4761 Y13.5818
G1 F300.0 X20.4782 Y13.4819
G1 F800.0 X19.9933 Y13.4718
G3 X20.7711 Y13.9544 I-0.4994 J1.673
G3 X21.0242 Y13.7321 I1.2717 J1.192
G1 X21.0307 Y13.4934
G1 X20.4782 Y13.4819
G0 Z3.0
G0 X20.563 Y11.1733
G0 Z1.25
G1 F300.0 Z-0.15
G1 F800.0 X20.5763 Y11.1735
G3 X20.5629 Y11.168 I0.6877 J-1.6783
G1 X20.563 Y11.1733
G0 Z3.0
G0 X24.2645 Y12.3138
G0 Z1.25
G1 F300.0 Z-0.15
G3 F800.0 X24.2647 Y12.3173 I-2.1507 J0.1366
G3 X24.2895 Y12.3145 I0.3237 J2.8274
G3 X24.2645 Y12.3138 I0.0721 J-2.8036
G0 Z3.0
G0 X25.3057 Y18.403
G0 Z1.25
G1 F300.0 Z-0.15
G3 F800.0 X25.0628 Y18.4476 I-0.7255 J-3.266
G1 X25.1405 Y18.5584
G3 X25.3057 Y18.403 I1.691 J1.6315
G1 F300.0 X25.3706 Y18.479
G3 F800.0 X25.6153 Y18.2972 I1.461 J1.7109
G1 X25.5863 Y18.2227
G3 X24.8849 Y18.3682 I-1.0061 J-3.0857
G1 X25.1303 Y18.7178
G3 X25.3706 Y18.479 I1.7013 J1.4721
G1 F300.0 X25.4356 Y18.5551
G3 F800.0 X25.7388 Y18.3386 I1.396 J1.6349
G1 X25.6447 Y18.097
G3 X24.701 Y18.2803 I-1.0645 J-2.96
G1 X25.1243 Y18.8834
G3 X25.4356 Y18.5551 I1.7073 J1.3065
G1 F300.0 X25.5005 Y18.6311
G3 F800.0 X25.8635 Y18.3832 I1.3311 J1.5588
G1 X25.7019 Y17.9685
G3 X24.594 Y18.1825 I-1.1217 J-2.8315
G3 X24.576 Y18.1826 I-0.0093 J-2.0498
G3 X24.5095 Y18.1815 I0.0129 J-3.0464
G1 X25.1236 Y19.0565
G3 X25.5005 Y18.6311 I1.7079 J1.1334
G1 F300.0 X25.5654 Y18.7072
G3 F800.0 X25.9895 Y18.4313 I1.2662 J1.4828
G1 X25.758 Y17.8369
G3 X24.5936 Y18.0825 I-1.1778 J-2.6999
G3 X24.5765 Y18.0826 I-0.0089 J-1.9498
G3 X24.3085 Y18.0692 I0.0125 J-2.9464
G1 X25.1294 Y19.2389
G3 X25.5654 Y18.7072 I1.7021 J0.951
G1 F300.0 X25.6304 Y18.7832
G3 F800.0 X26.1172 Y18.4836 I1.2012 J1.4067
G1 X25.8127 Y17.7018
G3 X24.5931 Y17.9826 I-1.2325 J-2.5648
G3 X24.5769 I-0.0084 J-1.8498
G3 X24.0953 Y17.9394 I0.0121 J-2.8464
G1 X25.1436 Y19.4332
G3 X25.6304 Y18.7832 I1.6879 J0.7567
G1 F300.0 X25.6953 Y18.8593
G3 F800.0 X26.2468 Y18.5407 I1.1363 J1.3307
G1 X25.871 Y17.5761
G3 X25.8559 Y17.5682 I1.2606 J-2.4393
G3 X24.5927 Y17.8826 I-1.2757 J-2.4312
G3 X24.5773 I-0.008 J-1.7498
G3 X23.865 Y17.7855 I0.0116 J-2.7464
G1 X25.1243 Y19.5797
G3 X25.1707 Y19.6393 I-1.5981 J1.292
G3 X25.6953 Y18.8593 I1.6609 J0.5507
G1 F300.0 X25.7602 Y18.9353
G3 F800.0 X26.3786 Y18.6035 I1.0713 J1.2546
G1 X25.9503 Y17.5042
G3 X25.8559 Y17.4547 I1.1813 J-2.3675
G3 X24.5922 Y17.7826 I-1.2757 J-2.3177
G3 X24.5777 I-0.0075 J-1.6498
G3 X23.6087 Y17.5944 I0.0112 J-2.6464
G1 X25.0444 Y19.6399
G3 X25.2111 Y19.8801 I-1.5182 J1.2317
G3 X25.7602 Y18.9353 I1.6205 J0.3098
G1 F300.0 X25.8252 Y19.0113
G3 F800.0 X26.513 Y18.6732 I1.0064 J1.1786
G1 X26.0293 Y17.4316
G3 X25.8559 Y17.3399 I1.1023 J-2.2948
G3 X24.5918 Y17.6826 I-1.2757 J-2.2029
G3 X24.5782 I-0.0071 J-1.5498
G3 X23.3127 Y17.3397 I0.0108 J-2.5464
G3 X23.3092 Y17.3417 I-1.2761 J-2.2031
G1 X24.9646 Y19.7003
G3 X25.2818 Y20.2724 I-1.4384 J1.1714
G1 Y20.1899
G3 X25.8252 Y19.0113 I1.5498 J0.0
G1 F300.0 X25.8901 Y19.0874
G3 F800.0 X26.6508 Y18.7514 I0.9415 J1.1025
G1 X26.108 Y17.3581
G3 X25.8559 Y17.2235 I1.0236 J-2.2213
G3 X24.5913 Y17.5826 I-1.2757 J-2.0865
G3 X24.5786 I-0.0066 J-1.4498
G3 X23.3127 Y17.2233 I0.0104 J-2.4464
G3 X23.1632 Y17.3076 I-1.2761 J-2.0867
G1 X24.8848 Y19.7607
G3 X25.249 Y20.5366 I-1.3586 J1.111
G3 X25.2512 Y20.5479 I-1.422 J0.2825
G3 X25.2813 Y20.7902 I-1.722 J0.3376
G1 X25.4021 Y22.0028
G3 X25.4389 Y21.8418 I1.4295 J0.2419
G3 X25.3818 Y21.4389 I1.3927 J-0.4029
G1 Y20.1899
G3 X25.8901 Y19.0874 I1.4498 J0.0
G1 F300.0 X25.9551 Y19.1634
G3 F800.0 X26.7929 Y18.8407 I0.8765 J1.0265
G1 X26.1864 Y17.2837
G3 X25.8559 Y17.1053 I0.9453 J-2.147
G3 X24.5909 Y17.4826 I-1.2757 J-1.9683
G3 X24.579 I-0.0061 J-1.3498
G3 X23.3127 Y17.1051 I0.0099 J-2.3464
G3 X23.014 Y17.2692 I-1.2761 J-1.9685
G1 X24.8051 Y19.8212
G3 X25.1508 Y20.5559 I-1.2789 J1.0505
G3 X25.153 Y20.5669 I-1.3239 J0.2632
G3 X25.1816 Y20.7979 I-1.6238 J0.3186
G1 X25.4989 Y23.9833
G3 X25.5284 Y23.8458 I1.3327 J0.2141
G3 X25.4818 Y23.4943 I1.3032 J-0.3516
G1 Y22.2447
G3 X25.5433 Y21.8418 I1.3498 J0.0
G3 X25.4818 Y21.4389 I1.2883 J-0.4029
G1 Y20.1899
G3 X25.9551 Y19.1634 I1.3498 J0.0
G1 F300.0 X26.02 Y19.2395
G3 F800.0 X26.8316 Y18.9401 I0.8116 J0.9504
G1 X26.939
G1 X26.2643 Y17.2083
G3 X25.8559 Y16.985 I0.8673 J-2.0716
G3 X24.5904 Y17.3826 I-1.2757 J-1.848
G3 X24.5794 I-0.0057 J-1.2498
G3 X23.3127 Y16.9848 I0.0095 J-2.2464
G3 X22.8613 Y17.2257 I-1.2761 J-1.8482
G1 X24.7255 Y19.8818
G3 X25.0527 Y20.5752 I-1.1993 J0.9899
G3 X25.0548 Y20.5859 I-1.2258 J0.2439
G3 X25.0819 Y20.8055 I-1.5256 J0.2996
G1 X25.5988 Y25.9954
G3 X25.6401 Y25.8236 I1.2328 J0.2055
G3 X25.5818 Y25.4464 I1.1915 J-0.3772
G1 Y24.1974
G3 X25.6322 Y23.8458 I1.2498 J0.0
G3 X25.5818 Y23.4943 I1.1993 J-0.3516
G1 Y22.2447
G3 X25.6485 Y21.8418 I1.2498 J0.0
G3 X25.5818 Y21.4389 I1.1831 J-0.4029
G1 Y20.1899
G3 X26.02 Y19.2395 I1.2498 J0.0
G1 F300.0 X26.0849 Y19.3155
G3 F800.0 X26.8316 Y19.0401 I0.7467 J0.8744
G1 X27.0853
G1 X26.3419 Y17.132
G3 X25.8559 Y16.8621 I0.7897 J-1.9952
G3 X24.5899 Y17.2826 I-1.2757 J-1.7251
G3 X24.5798 I-0.0052 J-1.1498
G3 X23.3127 Y16.8619 I0.0091 J-2.1464
G3 X22.7043 Y17.176 I-1.2761 J-1.7253
G1 X24.6459 Y19.9425
G3 X24.9546 Y20.5945 I-1.1197 J0.9292
G3 X24.9566 Y20.6048 I-1.1276 J0.2246
G3 X24.9821 Y20.813 I-1.4274 J0.2807
G1 X25.6906 Y27.9264
G3 X25.7334 Y27.7911 I1.1156 J0.2785
G3 X25.6818 Y27.4504 I1.0982 J-0.3407
G1 Y26.2009
G3 X25.7454 Y25.8236 I1.1498 J0.0
G3 X25.6818 Y25.4464 I1.0862 J-0.3772
G1 Y24.1974
G3 X25.7368 Y23.8458 I1.1498 J0.0
G3 X25.6818 Y23.4943 I1.0947 J-0.3516
G1 Y22.2447
G3 X25.7547 Y21.8418 I1.1498 J0.0
G3 X25.6818 Y21.4389 I1.0769 J-0.4029
G1 Y20.1899
G3 X26.0849 Y19.3155 I1.1498 J0.0
G1 F300.0 X26.1499 Y19.3916
G3 F800.0 X26.8316 Y19.1401 I0.6817 J0.7983
G1 X27.2315
G1 X26.419 Y17.0544
G3 X25.8559 Y16.7361 I0.7126 J-1.9177
G3 X24.5895 Y17.1826 I-1.2757 J-1.5991
G3 X24.5803 I-0.0048 J-1.0498
G3 X23.3127 Y16.7358 I0.0087 J-2.0464
G3 X22.5422 Y17.1191 I-1.2761 J-1.5992
G1 X24.5664 Y20.0033
G3 X24.8565 Y20.6138 I-1.0402 J0.8684
G3 X24.8584 Y20.6238 I-1.0295 J0.2053
G3 X24.8824 Y20.8204 I-1.3292 J0.2617
G1 X25.7908 Y29.9415
G3 X25.8265 Y29.8311 I1.0153 J0.2669
G3 X25.7564 Y29.4539 I0.9797 J-0.3772
G1 Y28.2049
G3 X25.8398 Y27.7947 I1.0498 J0.0
G3 X25.7818 Y27.4504 I0.9917 J-0.3443
G1 Y26.2009
G3 X25.8519 Y25.8236 I1.0498 J0.0
G3 X25.7818 Y25.4464 I0.9797 J-0.3772
G1 Y24.1974
G3 X25.8424 Y23.8458 I1.0498 J0.0
G3 X25.7818 Y23.4943 I0.9892 J-0.3516
G1 Y22.2447
G3 X25.8622 Y21.8418 I1.0498 J0.0
G3 X25.7818 Y21.4389 I0.9694 J-0.4029
G1 Y20.1899
G3 X26.1499 Y19.3916 I1.0498 J0.0
G1 F300.0 X26.2148 Y19.4676
G3 F800.0 X26.8316 Y19.2401 I0.6168 J0.7223
G1 X27.3778
G1 X26.4957 Y16.9757
G3 X25.8559 Y16.606 I0.636 J-1.839
G3 X24.589 Y17.0826 I-1.2757 J-1.469
G3 X24.5807 I-0.0043 J-0.9498
G3 X23.3127 Y16.6057 I0.0082 J-1.9464
G3 X22.3737 Y17.0531 I-1.2761 J-1.4691
G1 X24.487 Y20.0642
G3 X24.7583 Y20.6331 I-0.9608 J0.8074
G3 X24.7602 Y20.6428 I-0.9314 J0.186
G3 X24.7826 Y20.8277 I-1.231 J0.2427
G1 X25.8514 Y31.5586
G1 X25.8617 Y31.5587
G3 X25.8563 Y31.4579 I0.9444 J-0.1007
G1 Y30.2084
G3 X25.9345 Y29.8311 I0.9498 J0.0
G3 X25.8564 Y29.4539 I0.8717 J-0.3772
G1 Y28.2049
G3 X25.9478 Y27.7984 I0.9498 J0.0
G3 X25.8818 Y27.4504 I0.8838 J-0.3479
G1 Y26.2009
G3 X25.9599 Y25.8236 I0.9498 J0.0
G3 X25.8818 Y25.4464 I0.8717 J-0.3772
G1 Y24.1974
G3 X25.9492 Y23.8458 I0.9498 J0.0
G3 X25.8818 Y23.4943 I0.8823 J-0.3516
G1 Y22.2447
G3 X25.9715 Y21.8418 I0.9498 J0.0
G3 X25.8818 Y21.4389 I0.8601 J-0.4029
G1 Y20.1899
G3 X26.2148 Y19.4676 I0.9498 J0.0
G1 F300.0 X26.2797 Y19.5437
G3 F800.0 X26.8316 Y19.3401 I0.5518 J0.6462
G1 X27.5241
G1 X26.5718 Y16.8956
G3 X25.8559 Y16.4707 I0.5598 J-1.7589
G3 X24.5886 Y16.9826 I-1.2757 J-1.3337
G3 X24.5811 I-0.0039 J-0.8498
G3 X23.3126 Y16.4704 I0.0078 J-1.8464
G3 X22.1971 Y16.9756 I-1.2761 J-1.3339
G1 X24.4077 Y20.1253
G3 X24.6602 Y20.6524 I-0.8815 J0.7464
G3 X24.662 Y20.6617 I-0.8333 J0.1667
G3 X24.6828 Y20.8349 I-1.1328 J0.2238
G1 X25.7608 Y31.658
G1 X25.9806 Y31.6594
G3 X25.9563 Y31.4579 I0.8256 J-0.2015
G1 Y30.2084
G3 X26.0447 Y29.8311 I0.8498 J0.0
G3 X25.9564 Y29.4539 I0.7615 J-0.3772
G1 Y28.2049
G3 X26.0579 Y27.8021 I0.8498 J0.0
G3 X25.9818 Y27.4504 I0.7736 J-0.3516
G1 Y26.2009
G3 X26.0701 Y25.8236 I0.8498 J0.0
G3 X25.9818 Y25.4464 I0.7615 J-0.3772
G1 Y24.1974
G3 X26.0579 Y23.8458 I0.8498 J0.0
G3 X25.9818 Y23.4943 I0.7737 J-0.3516
G1 Y22.2447
G3 X26.0834 Y21.8418 I0.8498 J0.0
G3 X25.9818 Y21.4389 I0.7482 J-0.4029
G1 Y20.1899
G3 X26.2797 Y19.5437 I0.8498 J0.0
G1 F300.0 X26.3447 Y19.6197
G3 F800.0 X26.8316 Y19.4401 I0.4869 J0.5702
G1 X27.6704
G1 X26.6473 Y16.814
G3 X25.8559 Y16.3285 I0.4843 J-1.6773
G3 X24.5881 Y16.8826 I-1.2757 J-1.1915
G3 X24.5815 I-0.0034 J-0.7498
G3 X23.3126 Y16.3282 I0.0074 J-1.7464
G3 X22.0442 Y16.8826 I-1.2761 J-1.1916
G3 X22.0377 I-0.0033 J-0.7498
G3 X22.0094 Y16.8822 I0.0074 J-1.7453
G1 X24.3285 Y20.1866
G3 X24.5621 Y20.6717 I-0.8023 J0.6851
G3 X24.5638 Y20.6807 I-0.7352 J0.1474
G3 X24.583 Y20.842 I-1.0346 J0.2048
G1 X25.6702 Y31.7574
G1 X26.12 Y31.7604
G3 X26.0563 Y31.4579 I0.6861 J-0.3024
G1 Y30.2084
G3 X26.1582 Y29.8311 I0.7498 J0.0
G3 X26.0564 Y29.4539 I0.648 J-0.3772
G1 Y28.2049
G3 X26.1714 Y27.8059 I0.7498 J0.0
G3 X26.0818 Y27.4504 I0.6602 J-0.3554
G1 Y26.2009
G3 X26.1836 Y25.8236 I0.7498 J0.0
G3 X26.0818 Y25.4464 I0.648 J-0.3772
G1 Y24.1974
G3 X26.1693 Y23.8458 I0.7498 J0.0
G3 X26.0818 Y23.4943 I0.6623 J-0.3516
G1 Y22.2447
G3 X26.1992 Y21.8418 I0.7498 J0.0
G3 X26.0818 Y21.4389 I0.6324 J-0.4029
G1 Y20.1899
G3 X26.3447 Y19.6197 I0.7498 J0.0
G1 F300.0 X26.4096 Y19.6958
G3 F800.0 X26.8316 Y19.5401 I0.422 J0.4942
G1 X27.8167
G1 X26.7222 Y16.7308
G3 X25.8559 Y16.1765 I0.4094 J-1.5941
G3 X24.5877 Y16.7826 I-1.2757 J-1.0395
G3 X24.582 I-0.003 J-0.6498
G3 X23.3126 Y16.1762 I0.007 J-1.6464
G3 X22.0438 Y16.7826 I-1.2761 J-1.0396
G3 X22.0381 I-0.0029 J-0.6498
G3 X21.8049 Y16.7649 I0.007 J-1.6453
G1 X24.2495 Y20.248
G3 X24.464 Y20.691 I-0.7233 J0.6237
G3 X24.4657 Y20.6996 I-0.637 J0.1281
G3 X24.4832 Y20.8489 I-0.9365 J0.1859
G1 X25.5796 Y31.8568
G1 X26.2847 Y31.8615
G3 X26.2902 Y31.853 I0.5469 J0.351
G3 X26.1563 Y31.4579 I0.5159 J-0.3951
G1 Y30.2084
G3 X26.2771 Y29.8311 I0.6498 J0.0
G3 X26.1564 Y29.4539 I0.5291 J-0.3772
G1 Y28.2049
G3 X26.2903 Y27.8099 I0.6498 J0.0
G3 X26.1818 Y27.4504 I0.5413 J-0.3594
G1 Y26.2009
G3 X26.3025 Y25.8236 I0.6498 J0.0
G3 X26.1818 Y25.4464 I0.5291 J-0.3772
G1 Y24.1974
G3 X26.2851 Y23.8458 I0.6498 J0.0
G3 X26.1818 Y23.4943 I0.5465 J-0.3516
G1 Y22.2447
G3 X26.3218 Y21.8418 I0.6498 J0.0
G3 X26.1818 Y21.4389 I0.5098 J-0.4029
G1 Y20.1899
G3 X26.4096 Y19.6958 I0.6498 J0.0
G1 F300.0 X26.4746 Y19.7718
G3 F800.0 X26.8316 Y19.6401 I0.357 J0.4181
G1 X27.9629
G1 X26.7964 Y16.6458
G3 X25.8558 Y16.0096 I0.3352 J-1.5091
G3 X24.5872 Y16.6826 I-1.2757 J-0.8726
G3 X24.5824 I-0.0025 J-0.5498
G3 X23.3126 Y16.0093 I0.0065 J-1.5464
G3 X22.0433 Y16.6826 I-1.2761 J-0.8727
G3 X22.0386 I-0.0024 J-0.5498
G3 X21.5731 Y16.6087 I0.0066 J-1.5453
G1 X24.1705 Y20.3096
G3 X24.3659 Y20.7103 I-0.6444 J0.5621
G3 X24.3675 Y20.7185 I-0.5389 J0.1088
G3 X24.3834 Y20.8557 I-0.8383 J0.167
G1 X25.489 Y31.9562
G1 X26.3422 Y31.9618
G3 X26.4193 Y31.8487 I0.4894 J0.2506
G3 X26.2563 Y31.4579 I0.3868 J-0.3907
G1 Y30.2084
G3 X26.4062 Y29.8311 I0.5498 J0.0
G3 X26.2564 Y29.4539 I0.4 J-0.3772
G1 Y28.2049
G3 X26.4193 Y27.8142 I0.5498 J0.0
G3 X26.2818 Y27.4504 I0.4122 J-0.3638
G1 Y26.2009
G3 X26.4316 Y25.8236 I0.5498 J0.0
G3 X26.2818 Y25.4464 I0.4 J-0.3772
G1 Y24.1974
G3 X26.4089 Y23.8458 I0.5498 J0.0
G3 X26.2818 Y23.4943 I0.4227 J-0.3516
G1 Y22.2447
G3 X26.4575 Y21.8418 I0.5498 J0.0
G3 X26.2818 Y21.4389 I0.3741 J-0.4029
G1 Y20.1899
G3 X26.4746 Y19.7718 I0.5498 J0.0
G1 F300.0 X26.5395 Y19.8479
G3 F800.0 X26.8316 Y19.7401 I0.2921 J0.3421
G1 X28.1092
G1 X26.8698 Y16.5587
G3 X25.8558 Y15.817 I0.2618 J-1.4219
G3 X24.5868 Y16.5826 I-1.2757 J-0.68
G3 X24.5828 I-0.002 J-0.4498
G3 X23.3126 Y15.8167 I0.0061 J-1.4464
G3 X22.0429 Y16.5826 I-1.2761 J-0.6801
G3 X22.039 I-0.002 J-0.4498
G3 X21.2778 Y16.3621 I0.0061 J-1.4453
G1 X24.0918 Y20.3715
G3 X24.2678 Y20.7297 I-0.5656 J0.5002
G3 X24.2693 Y20.7374 I-0.4408 J0.0895
G3 X24.2836 Y20.8623 I-0.7401 J0.1481
G1 X25.3984 Y32.0556
G1 X26.4076 Y32.0623
G3 X26.5744 Y31.8434 I0.424 J0.1502
G3 X26.3563 Y31.4579 I0.2318 J-0.3855
G1 Y30.2084
G3 X26.5612 Y29.8311 I0.4498 J0.0
G3 X26.3564 Y29.4539 I0.245 J-0.3772
G1 Y28.2049
G3 X26.5744 Y27.8194 I0.4498 J0.0
G3 X26.3818 Y27.4504 I0.2572 J-0.369
G1 Y26.2009
G3 X26.5866 Y25.8236 I0.4498 J0.0
G3 X26.3818 Y25.4464 I0.245 J-0.3772
G1 Y24.1974
G3 X26.551 Y23.8458 I0.4498 J0.0
G3 X26.3818 Y23.4943 I0.2806 J-0.3516
G1 Y22.2447
G3 X26.6316 Y21.8418 I0.4498 J0.0
G3 X26.3818 Y21.4389 I0.2 J-0.4029
G1 Y20.1899
G3 X26.5395 Y19.8479 I0.4498 J0.0
G0 Z3.0
G0 X22.1166 Y21.4046
G0 Z1.25
G1 F300.0 Z-0.15
G1 F800.0 X21.8606 Y21.0398
G1 X22.3083 Y23.3307
G1 X22.1166 Y21.4046
G1 F300.0 X22.1984 Y21.3471
G1 F800.0 X21.6722 Y20.5974
G1 X22.6188 Y25.4414
G1 X22.2135 Y21.3686
G1 X22.1984 Y21.3471
G1 F300.0 X22.2803 Y21.2897
G1 F800.0 X21.4839 Y20.1549
G1 X22.9294 Y27.5521
G1 X22.3104 Y21.3326
G1 X22.2803 Y21.2897
G1 F300.0 X22.3621 Y21.2322
G1 F800.0 X21.2745 Y19.6825
G3 X21.3021 Y19.7671 I-1.0837 J0.3998
G3 X21.3355 Y19.9171 I-1.1112 J0.3264
G1 X23.24 Y29.6629
G1 X22.4073 Y21.2966
G1 X22.3621 Y21.2322
G1 F300.0 X22.444 Y21.1748
G1 F800.0 X19.4307 Y16.8811
G3 X19.3505 Y16.876 I0.0712 J-1.7444
G1 X21.0306 Y19.4436
G3 X21.206 Y19.7949 I-0.8398 J0.6387
G3 X21.237 Y19.9342 I-1.0151 J0.2987
G1 X23.5505 Y31.7736
G1 X22.5042 Y21.2606
G1 X22.444 Y21.1748
G0 Z3.0
G0 X16.6734 Y18.0988
G0 Z1.25
G1 F300.0 Z-0.15
G1 F800.0 X16.3532 Y17.6095
G3 X15.6829 Y17.3398 I0.6054 J-2.4728
G3 X15.6706 Y17.3469 I-1.2759 J-2.2037
G1 X16.6734 Y18.0988
G1 F300.0 X16.7571 Y18.0441
G1 F800.0 X16.415 Y17.5214
G3 X15.6829 Y17.2235 I0.5436 J-2.3847
G3 X15.4846 Y17.3324 I-1.2759 J-2.0873
G1 X17.0687 Y18.5202
G1 X16.7571 Y18.0441
G1 F300.0 X16.8408 Y17.9893
G1 F800.0 X16.4763 Y17.4325
G3 X15.6829 Y17.1053 I0.4823 J-2.2957
G3 X15.2887 Y17.3106 I-1.2759 J-1.9691
G1 X17.464 Y18.9415
G1 X16.8408 Y17.9893
G1 F300.0 X16.9244 Y17.9345
G1 F800.0 X16.5371 Y17.3427
G3 X15.6829 Y16.985 I0.4216 J-2.2059
G3 X15.0803 Y17.2793 I-1.2759 J-1.8488
G1 X17.8592 Y19.3629
G1 X16.9244 Y17.9345
G0 Z3.0
G0 X11.7929 Y18.8263
G0 Z1.25
G1 F300.0 Z-0.15
G1 F800.0 X11.4173 Y18.5447
G1 X11.583 Y18.8263
G1 X11.7929
G1 F300.0 Y18.9263
G1 F800.0 X12.0929
G1 X11.078 Y18.1653
G1 X11.5258 Y18.9263
G1 X11.7929
G1 F300.0 Y19.0263
G1 F800.0 X12.3929
G1 X10.9107 Y17.9148
G3 X10.7326 Y17.7755 I0.8049 J-1.2121
G1 X11.4686 Y19.0263
G1 X11.7929
G1 F300.0 Y19.1263
G1 F800.0 X12.6929
G1 X10.9684 Y17.8331
G3 X10.3925 Y16.9952 I0.7472 J-1.1304
G3 X10.3849 Y16.9577 I1.025 J-0.2266
G3 X10.3756 Y16.9036 I1.3286 J-0.2576
G3 X10.3698 Y16.8622 I1.3476 J-0.2104
G3 X10.3649 Y16.8139 I1.0417 J-0.1301
G3 X10.3625 Y16.7765 I1.2397 J-0.0968
G3 X10.3601 Y16.7088 I1.3434 J-0.082
G1 X10.2657 Y12.6013
G3 X10.4474 Y11.8674 I1.3539 J-0.0541
G3 X9.7631 Y11.5189 I0.5935 J-2.0114
G3 X9.5922 Y11.6365 I-1.2716 J-1.6649
G1 X9.2028 Y14.1821
G3 X9.4669 Y14.6397 I-1.5909 J1.2235
G3 X9.6996 Y15.3973 I-1.1224 J0.7593
G3 X9.5649 Y15.988 I-1.3551 J0.0016
G1 X11.4114 Y19.1263
G1 X11.7929
G1 F300.0 Y19.2263
G1 F800.0 X12.993
G1 X11.026 Y17.7513
G3 X10.4902 Y16.9736 I0.6896 J-1.0486
G3 X10.4832 Y16.9391 I0.9274 J-0.205
G3 X10.4744 Y16.8884 I1.2303 J-0.239
G3 X10.469 Y16.8498 I1.2488 J-0.1952
G3 X10.4646 Y16.8061 I0.9425 J-0.1177
G3 X10.4624 Y16.771 I1.14 J-0.089
G3 X10.4601 Y16.7072 I1.2436 J-0.0766
G1 X10.3656 Y12.5982
G3 X10.6072 Y11.8055 I1.254 J-0.0509
G3 X9.7633 Y11.391 I0.4337 J-1.9494
G3 X9.5004 Y11.575 I-1.2718 J-1.537
G1 X9.0974 Y14.2098
G3 X9.3784 Y14.6874 I-1.4855 J1.1957
G3 X9.5996 Y15.3974 I-1.0339 J0.7116
G1 Y15.3975
G3 X9.4509 Y15.9915 I-1.2551 J0.0015
G1 X11.3542 Y19.2263
G1 X11.7929
G1 F300.0 Y19.3263
G1 F800.0 X13.293
G1 X11.0834 Y17.6694
G3 X10.5878 Y16.952 I0.6322 J-0.9667
G3 X10.5815 Y16.9206 I0.8298 J-0.1834
G3 X10.5733 Y16.8732 I1.132 J-0.2205
G3 X10.5682 Y16.8374 I1.15 J-0.18
G3 X10.5643 Y16.7983 I0.8433 J-0.1053
G3 X10.5622 Y16.7656 I1.0403 J-0.0813
G3 X10.5601 Y16.7055 I1.1437 J-0.0711
G1 X10.4656 Y12.595
G3 X10.7961 Y11.7373 I1.154 J-0.0477
G3 X9.7635 Y11.2586 I0.2448 J-1.8812
G3 X9.4089 Y11.5121 I-1.272 J-1.4046
G1 X8.9918 Y14.2389
G3 X9.2899 Y14.7352 I-1.3798 J1.1666
G3 X9.4996 Y15.3975 I-0.9453 J0.6638
G1 Y15.3976
G3 X9.3355 Y15.9925 I-1.1551 J0.0014
G1 X11.2971 Y19.3263
G1 X11.7929
G1 F300.0 Y19.4263
G1 F800.0 X13.3311
G3 X13.9341 Y19.7305 I0.0 J0.7498
G1 X13.9982 Y19.7302
G1 X11.1408 Y17.5874
G3 X10.6855 Y16.9304 I0.5748 J-0.8847
G3 X10.6798 Y16.9021 I0.7321 J-0.1619
G3 X10.6721 Y16.8579 I1.0337 J-0.202
G3 X10.6675 Y16.825 I1.0511 J-0.1647
G3 X10.664 Y16.7905 I0.744 J-0.0929
G3 X10.6621 Y16.7602 I0.9406 J-0.0735
G3 X10.6601 Y16.7039 I1.0439 J-0.0657
G1 X10.5655 Y12.5917
G3 X10.946 Y11.7352 I1.0541 J-0.0445
G1 X10.9461
G3 X11.0599 Y11.6529 I0.6735 J0.812
G3 X11.0398 Y11.6531 I-0.0275 J-1.7965
G3 X11.0338 I-0.0031 J-0.7498
G3 X9.7637 Y11.1203 I0.0071 J-1.7971
G3 X9.3176 Y11.4476 I-1.2722 J-1.2662
G1 X8.8859 Y14.2696
G3 X9.2013 Y14.7832 I-1.274 J1.136
G3 X9.3996 Y15.3977 I-0.8568 J0.6157
G3 X9.2182 Y15.9905 I-1.0551 J0.0013
G1 X11.2399 Y19.4263
G1 X11.7929
G0 Z3.0
G0 X15.1321 Y9.3322
G0 Z1.25
G1 F300.0 Z-0.15
G1 F800.0 X15.5528 Y9.3238
G3 X15.5653 Y9.1496 I3.7084 J0.1796
G1 X15.2499
G1 X15.1321 Y9.3322
G1 F300.0 X15.0481 Y9.278
G1 F800.0 X14.9462 Y9.4359
G1 X15.6493 Y9.4219
G3 X15.6772 Y9.0481 I3.6118 J0.0815
G3 X15.5862 Y9.0496 I-0.091 J-2.7483
G1 X15.1954
G1 X15.0481 Y9.278
G1 F300.0 X14.964 Y9.2238
G1 F800.0 X14.7603 Y9.5396
G1 X15.7485 Y9.5199
G3 Y9.5186 I3.5116 J-0.0263
G3 Y9.4888 I2.6497 J-0.0188
G3 X15.7937 Y8.9414 I3.5127 J0.0146
G3 X15.5862 Y8.9496 I-0.2074 J-2.6417
G1 X15.1409
G1 X14.964 Y9.2238
G1 F300.0 X14.88 Y9.1696
G1 F800.0 X14.6174 Y9.5767
G3 X14.6221 Y9.6424 I-3.5715 J0.2895
G1 X15.8507 Y9.6179
G3 X15.8485 Y9.5179 I3.4094 J-0.1243
G3 Y9.4892 I2.5497 J-0.0181
G3 X15.9159 Y8.8282 I3.4127 J0.0141
G3 X15.5862 Y8.8496 I-0.3297 J-2.5284
G1 X15.0864
G1 X14.88 Y9.1696
G1 F300.0 X14.796 Y9.1154
G1 F800.0 X14.5149 Y9.5512
G3 X14.527 Y9.7443 I-3.469 J0.315
G1 X15.9559 Y9.7158
G3 X15.9485 Y9.5171 I3.3042 J-0.2222
G3 Y9.4896 I2.4497 J-0.0174
G3 X16.0458 Y8.7061 I3.3127 J0.0137
G3 X15.5862 Y8.7496 I-0.4596 J-2.4063
G1 X15.0319
G1 X14.796 Y9.1154
G1 F300.0 X14.7119 Y9.0612
G1 F800.0 X14.412 Y9.5262
G3 X14.4291 Y9.8463 I-3.3661 J0.34
G1 X16.0644 Y9.8137
G3 X16.0485 Y9.5164 I3.1957 J-0.32
G3 Y9.49 I2.3497 J-0.0167
G3 X16.1865 Y8.5716 I3.2127 J0.0133
G3 X15.5862 Y8.6496 I-0.6003 J-2.2718
G1 X14.9774
G1 X14.7119 Y9.0612
G1 F300.0 X14.6279 Y9.007
G1 F800.0 X14.3088 Y9.5016
G3 X14.3291 Y9.8471 I-3.2629 J0.3646
G3 Y9.8683 I-2.2498 J0.0131
G3 X14.3278 Y9.9483 I-3.2967 J-0.0119
G1 X16.1766 Y9.9115
G3 X16.1485 Y9.5157 I3.0835 J-0.4178
G3 Y9.4904 I2.2497 J-0.016
G3 X16.3437 Y8.4182 I3.1127 J0.0129
G3 X15.5862 Y8.5496 I-0.7575 J-2.1184
G1 X14.9229
G1 X14.6279 Y9.007
G1 F300.0 X14.5439 Y8.9528
G1 F800.0 X14.2053 Y9.4776
G3 X14.2291 Y9.8477 I-3.1594 J0.3886
G3 Y9.868 I-2.1498 J0.0125
G3 X14.2232 Y10.0504 I-3.1967 J-0.0116
G1 X16.2929 Y10.0092
G3 X16.2485 Y9.515 I2.9673 J-0.5155
G3 Y9.4909 I2.1497 J-0.0152
G3 X16.5302 Y8.2312 I3.0127 J0.0125
G3 X15.5862 Y8.4496 I-0.944 J-1.9315
G1 X14.8684
G1 X14.5439 Y8.9528
G1 F300.0 X14.4598 Y8.8985
G1 F800.0 X14.1015 Y9.4541
G3 X14.1291 Y9.8483 I-3.0556 J0.4121
G3 Y9.8676 I-2.0498 J0.0119
G3 X14.1149 Y10.1526 I-3.0967 J-0.0112
G1 X16.4137 Y10.1068
G3 X16.3485 Y9.5143 I2.8464 J-0.6131
G3 Y9.4913 I2.0497 J-0.0145
G3 X16.793 Y7.9567 I2.9127 J0.0121
G3 X15.5862 Y8.3496 I-1.2068 J-1.6569
G1 X14.8139
G1 X14.4598 Y8.8985
G0 Z3.0
G0 X17.3923 Y7.2693
G0 Z1.25
G1 F300.0 Z-0.15
G3 F800.0 X17.7752 Y6.9982 I1.8689 J2.2341
G3 X17.4838 Y7.0748 I-0.6657 J-1.9387
G3 X17.3923 Y7.2693 I-1.8976 J-0.775
G0 Z3.0
G0 X20.7298 Y5.5263
G0 Z1.25
G1 F300.0 Z-0.15
G3 F800.0 X21.2455 Y5.4907 I0.5341 J3.978
G3 X21.2818 I0.0145 J3.1498
G3 X21.3357 Y5.4915 I-0.0279 J4.0123
G1 X20.7664 Y5.4292
G3 X20.7298 Y5.5263 I-2.9658 J-1.0607
G0 Z3.0
G0 X22.0419 Y5.5687
G0 Z1.25
G1 F300.0 Z-0.15
G3 F800.0 X22.699 Y5.7599 I-0.7879 J3.9343
G3 X22.9299 Y5.6659 I1.6617 J3.7521
G1 X22.0419 Y5.5687
G1 F300.0 X22.0222 Y5.6668
G3 F800.0 X22.7017 Y5.8683 I-0.7683 J3.8362
G3 X23.4243 Y5.6195 I1.6591 J3.6437
G1 X20.6977 Y5.321
G3 X20.5665 Y5.6533 I-2.8972 J-0.9526
G3 X21.2459 Y5.5907 I0.6974 J3.851
G3 X21.2811 I0.014 J3.0498
G3 X22.0222 Y5.6668 I-0.0272 J3.9123
G1 F300.0 X22.0026 Y5.7649
G3 F800.0 X22.7043 Y5.9773 I-0.7486 J3.7382
G3 X24.2554 Y5.6098 I1.6565 J3.5347
G1 X20.6269 Y5.2127
G3 X20.3831 Y5.7937 I-2.8264 J-0.8442
G3 X21.2464 Y5.6907 I0.8808 J3.7106
G3 X21.2804 I0.0135 J2.9498
G3 X22.0026 Y5.7649 I-0.0265 J3.8123
G0 Z3.0
G0 X16.5917 Y2.6585
G0 Z1.25
G1 F300.0 Z-0.15
G1 F800.0 X16.3912 Y2.6366
G3 X16.4203 Y2.7459 I-0.805 J0.2722
G3 X16.5917 Y2.6585 I0.469 J0.7086
G0 Z3.0
G0 X12.0195 Y3.1855
G0 Z1.25
G1 F300.0 Z-0.15
G1 F800.0 X11.0032 Y3.233
G3 X11.2174 Y3.3861 I-1.1728 J1.8672
G1 X12.0195 Y3.2997
G1 Y3.1855
G1 F300.0 X12.1195
G1 F800.0 Y3.0807
G1 X10.6241 Y3.1506
G3 X11.1862 Y3.4901 I-0.7937 J1.9496
G1 X12.1195 Y3.3895
G1 Y3.1855
G1 F300.0 X12.2195
G1 F800.0 Y2.9759
G1 X8.5706 Y3.1466
G3 X8.9041 Y3.3269 I-0.3243 J0.9984
G3 X9.8308 Y3.0953 I0.9362 J1.7758
G3 X9.8417 I0.005 J1.0498
G3 X11.1539 Y3.5941 I-0.0113 J2.005
G1 X12.2195 Y3.4794
G1 Y3.1855
G0 Z3.0
G0 X7.9553 Y0.7634
G0 Z1.25
G1 F300.0 Z-0.15
G1 F800.0 X4.3554
G3 X4.4692 Y0.9265 I-0.5527 J0.5067
G1 X7.9553 Y0.7634
G1 F300.0 Y0.6634
G1 F800.0 X4.0354
G3 X4.4064 Y1.0296 I-0.2327 J0.6067
G1 X12.2319 Y0.6634
G1 X7.9553
G0 Z3.0
G0 X5.2675 Y3.5014
G0 Z1.25
G1 F300.0 Z-0.15
G1 F800.0 X5.0525 Y3.5114
G1 Y4.3919
G1 X5.089 Y4.468
G1 Y4.1451
G3 X5.2675 Y3.5014 I1.2498 J0.0
G1 F300.0 X5.3532 Y3.5529
G3 F800.0 X5.4701 Y3.3918 I0.9856 J0.5922
G1 X4.9525 Y3.416
G1 Y4.4147
G1 X5.189 Y4.9078
G1 Y4.1451
G3 X5.3532 Y3.5529 I1.1498 J0.0
G1 F300.0 X5.4389 Y3.6044
G3 F800.0 X5.7458 Y3.2788 I0.8999 J0.5407
G1 X4.8525 Y3.3206
G1 Y4.4374
G1 X5.289 Y5.3477
G1 Y4.1451
G3 X5.4389 Y3.6044 I1.0498 J0.0
G1 F300.0 X5.5246 Y3.6559
G3 F800.0 X6.3388 Y3.1953 I0.8141 J0.4892
G1 X8.2462
G3 X8.8914 Y3.448 I0.0 J0.9498
G3 X9.8313 Y3.1953 I0.9489 J1.6548
G3 X9.8411 I0.0045 J0.9498
G3 X11.1202 Y3.6983 I-0.0107 J1.905
G1 X12.3195 Y3.5692
G1 Y2.9088
G3 X12.3202 Y2.8711 I0.9498 J0.0
G1 X4.7525 Y3.2252
G1 Y4.4601
G1 X5.389 Y5.7875
G1 Y4.1451
G3 X5.5246 Y3.6559 I0.9498 J0.0
G1 F300.0 X5.6104 Y3.7074
G3 F800.0 X6.3388 Y3.2953 I0.7284 J0.4377
G1 X8.2462
G3 X8.8757 Y3.5742 I0.0 J0.8498
G3 X9.8317 Y3.2953 I0.9646 J1.5286
G3 X9.8406 I0.004 J0.8498
G3 X11.0851 Y3.8027 I-0.0102 J1.805
G1 X12.4195 Y3.659
G1 Y2.9088
G3 X12.4316 Y2.7657 I0.8498 J0.0
G1 X4.6525 Y3.1297
G1 Y4.4829
G1 X5.5296 Y6.3121
G3 X5.489 Y6.0525 I0.8092 J-0.2596
G1 Y5.7981
G1 Y4.1451
G3 X5.6104 Y3.7074 I0.8498 J0.0
G0 Z3.0
G0 X5.6297 Y6.5208
G0 Z1.25
G1 F300.0 Z-0.15
G1 F800.0 X5.6689 Y6.6025
G1 X5.6745 Y6.5825
G3 X5.6297 Y6.5208 I0.6643 J-0.53
G1 F300.0 X5.7131 Y6.4657
G3 F800.0 X5.589 Y6.0525 I0.6257 J-0.4132
G1 Y5.7981
G1 Y4.1451
G3 X6.3388 Y3.3953 I0.7498 J0.0
G1 X8.2462
G3 X8.8554 Y3.7079 I0.0 J0.7498
G3 X9.8322 Y3.3953 I0.9849 J1.3949
G3 X9.84 I0.0036 J0.7498
G3 X11.0485 Y3.9072 I-0.0096 J1.705
G1 X12.5195 Y3.7488
G1 Y2.9088
G3 X12.5621 Y2.6595 I0.7498 J0.0
G1 X4.5525 Y3.0343
G1 Y4.5056
G1 X5.6932 Y6.8846
G1 X5.7852 Y6.5582
G3 X5.7131 Y6.4657 I0.5536 J-0.5057
G1 F300.0 X5.7966 Y6.4106
G3 F800.0 X5.689 Y6.0525 I0.5422 J-0.3581
G1 Y5.7981
G1 Y4.1451
G3 X6.3388 Y3.4953 I0.6498 J0.0
G1 X8.2462
G3 X8.8274 Y3.8545 I0.0 J0.6498
G3 X9.8327 Y3.4953 I1.0129 J1.2483
G3 X9.8394 I0.0031 J0.6498
G3 X11.01 Y4.012 I-0.009 J1.605
G1 X12.6195 Y3.8386
G1 Y2.9088
G3 X12.7263 Y2.5517 I0.6498 J0.0
G1 X4.4525 Y2.9389
G1 Y4.5283
G1 X5.7176 Y7.1666
G1 X5.8973 Y6.5293
G3 X5.7966 Y6.4106 I0.4415 J-0.4768
G1 F300.0 X5.88 Y6.3555
G3 F800.0 X5.789 Y6.0525 I0.4588 J-0.303
G1 Y5.7981
G1 Y4.1451
G3 X6.3388 Y3.5953 I0.5498 J0.0
G1 X8.2462
G3 X8.7834 Y4.0278 I0.0 J0.5498
G3 X9.8332 Y3.5953 I1.0569 J1.075
G3 X9.8389 I0.0026 J0.5498
G3 X10.9697 Y4.1169 I-0.0085 J1.505
G1 X12.7195 Y3.9284
G1 Y2.9088
G3 X12.9826 Y2.4396 I0.5498 J0.0
G1 X4.3525 Y2.8434
G1 Y4.5511
G1 X5.7419 Y7.4487
G1 X6.0112 Y6.494
G3 X5.88 Y6.3555 I0.3276 J-0.4415
G0 Z3.0
G0 X2.8097 Y5.2879
G0 Z1.25
G1 F300.0 Z-0.15
G1 F800.0 X2.7727 Y5.2109
G1 X2.6347
G3 X2.8097 Y5.2879 I-0.1306 J0.5341
G0 Z3.0
G0 X0.7632 Y1.0697
G0 Z1.25
G1 F300.0 Z-0.15
G3 F800.0 X0.9331 Y0.7634 I0.7225 J0.2004
G1 X0.7632
G1 Y1.0697
G0 Z3.0
G0 X2.5632 Y11.9072
G0 Z1.25
G1 F300.0 Z-0.15
G1 F800.0 Y12.4261
G3 X2.6663 Y12.3506 I1.5574 J2.0189
G1 X2.6947 Y12.1709
G3 X2.5632 Y11.9072 I2.2124 J-1.2676
G1 F300.0 X2.6552 Y11.8678
G3 F800.0 X2.4632 Y11.0736 I2.2519 J-0.9645
G1 Y12.6409
G3 X2.7583 Y12.4089 I1.6574 J1.804
G1 X2.799 Y12.1513
G3 X2.6552 Y11.8678 I2.1081 J-1.248
G1 F300.0 X2.7471 Y11.8284
G3 F800.0 X2.5573 Y10.9033 I2.16 J-0.9251
G1 Y10.6489
G1 Y8.9257
G1 X2.3632 Y8.5208
G1 Y12.8851
G3 X2.8502 Y12.4683 I1.7574 J1.5599
G1 X2.9035 Y12.131
G3 X2.7471 Y11.8284 I2.0036 J-1.2276
G1 F300.0 X2.839 Y11.7891
G3 F800.0 X2.6573 Y10.9033 I2.0681 J-0.8858
G1 Y10.6489
G1 Y8.903
G1 X2.3246 Y8.2089
G1 X2.2632
G1 Y13.1755
G3 X2.9418 Y12.5287 I1.8574 J1.2695
G1 X3.0081 Y12.1097
G3 X2.839 Y11.7891 I1.899 J-1.2064
G1 F300.0 X2.9309 Y11.7497
G3 F800.0 X2.7573 Y10.9033 I1.9762 J-0.8464
G1 Y10.6489
G1 Y8.8802
G1 X2.3876 Y8.1089
G1 X2.1632
G1 Y13.556
G3 X3.0333 Y12.5904 I1.9574 J0.889
G1 X3.1129 Y12.0875
G3 X2.9309 Y11.7497 I1.7943 J-1.1842
G0 Z3.0
G0 X9.7625 Y7.6011
G0 Z1.25
G1 F300.0 Z-0.15
G3 F800.0 X9.765 Y7.6026 I-1.2728 J2.2634
G3 X9.7673 Y7.6013 I1.2753 J2.2618
G3 X9.7625 Y7.6011 I0.0719 J-2.5054
G1 F300.0 X9.7655 Y7.5012
G3 F800.0 X8.9374 Y7.3269 I0.0737 J-2.4053
G3 X8.8095 Y7.3884 I-0.6912 J-1.2744
G3 X9.765 Y7.7181 I-0.3198 J2.4762
G3 X10.5213 Y7.4224 I1.2753 J2.1462
G1 X10.5382 Y7.3961
G3 X9.8426 Y7.5023 I-0.7069 J-2.3003
G3 X9.8305 I-0.0068 J-1.4498
G3 X9.7655 Y7.5012 I0.0088 J-2.4064
G1 F300.0 X9.7686 Y7.4012
G3 F800.0 X8.9307 Y7.2159 I0.0706 J-2.3054
G3 X8.3639 Y7.3972 I-0.6845 J-1.1634
G1 X8.3426 Y7.4728
G3 X8.4886 Y7.4678 I0.1546 J2.3912
G3 X8.4984 I0.0049 J1.3498
G3 X9.765 Y7.8353 I-0.0087 J2.3967
G3 X10.5825 Y7.512 I1.2753 J2.029
G1 X10.787 Y7.195
G3 X9.8421 Y7.4023 I-0.9558 J-2.0992
G3 X9.8308 I-0.0064 J-1.3498
G3 X9.7686 Y7.4012 I0.0084 J-2.3064
G1 F300.0 X9.7717 Y7.3013
G3 F800.0 X8.9231 Y7.1031 I0.0676 J-2.2054
G3 X8.287 Y7.3016 I-0.6769 J-1.0506
G1 X8.2067 Y7.5863
G3 X8.489 Y7.5678 I0.2905 J2.2777
G3 X8.498 I0.0045 J1.2498
G3 X9.765 Y7.9545 I-0.0083 J2.2967
G3 X10.6431 Y7.6024 I1.2753 J1.9099
G1 X11.0921 Y6.9066
G3 X9.8416 Y7.3023 I-1.2609 J-1.8108
G3 X9.8312 I-0.0059 J-1.2498
G3 X9.7717 Y7.3013 I0.008 J-2.2064
G1 F300.0 X9.7747 Y7.2013
G3 F800.0 X8.9142 Y6.9883 I0.0645 J-2.1055
G3 X8.2462 Y7.2023 I-0.668 J-0.9359
G1 X8.2111
G1 X8.0679 Y7.7102
G3 X8.4893 Y7.6678 I0.4293 J2.1538
G3 X8.4976 I0.0041 J1.1498
G3 X9.765 Y8.0759 I-0.008 J2.1967
G3 X10.7031 Y7.6939 I1.2753 J1.7884
G1 X11.5527 Y6.3773
G1 X11.4987 Y6.3831
G3 X9.8412 Y7.2023 I-1.6674 J-1.2873
G3 X9.8316 I-0.0054 J-1.1498
G3 X9.7747 Y7.2013 I0.0077 J-2.1064
G1 F300.0 X9.7778 Y7.1014
G3 F800.0 X8.9037 Y6.8709 I0.0615 J-2.0055
G3 X8.2462 Y7.1023 I-0.6575 J-0.8184
G1 X8.1354
G1 X7.9254 Y7.8473
G3 X8.4897 Y7.7678 I0.5719 J2.0166
G3 X8.4973 I0.0038 J1.0498
G3 X9.765 Y8.2003 I-0.0076 J2.0967
G3 X10.7625 Y7.7863 I1.2753 J1.664
G1 X11.7504 Y6.2554
G1 X11.4449 Y6.2883
G3 X9.8407 Y7.1023 I-1.6137 J-1.1925
G3 X9.8319 I-0.0049 J-1.0498
G3 X9.7778 Y7.1014 I0.0073 J-2.0064
G1 F300.0 X9.7809 Y7.0014
G3 F800.0 X8.8911 Y6.7498 I0.0584 J-1.9056
G3 X8.2462 Y7.0023 I-0.6449 J-0.6973
G1 X8.0596
G1 X7.7779 Y8.0019
G3 X8.4901 Y7.8678 I0.7193 J1.862
G3 X8.4969 I0.0034 J0.9498
G3 X9.765 Y8.3282 I-0.0072 J1.9967
G3 X10.8211 Y7.8799 I1.2753 J1.5362
G1 X11.948 Y6.1335
G1 X11.3899 Y6.1937
G3 X9.8402 Y7.0023 I-1.5587 J-1.0979
G3 X9.8323 I-0.0045 J-0.9498
G3 X9.7809 Y7.0014 I0.007 J-1.9064
G1 F300.0 X9.7839 Y6.9015
G3 F800.0 X8.8754 Y6.6237 I0.0553 J-1.8056
G3 X8.2462 Y6.9023 I-0.6292 J-0.5712
G1 X7.9839
G1 X7.6235 Y8.1811
G3 X8.4904 Y7.9678 I0.8737 J1.6828
G3 X8.4966 I0.0031 J0.8498
G3 X9.765 Y8.4606 I-0.0069 J1.8967
G3 X10.8789 Y7.9747 I1.2753 J1.4037
G1 X12.1457 Y6.0117
G1 X11.3335 Y6.0992
G3 X9.8398 Y6.9023 I-1.5022 J-1.0034
G3 X9.8327 I-0.004 J-0.8498
G3 X9.7839 Y6.9015 I0.0066 J-1.8064
G1 F300.0 X9.787 Y6.8015
G3 F800.0 X8.8552 Y6.49 I0.0523 J-1.7057
G3 X8.2462 Y6.8023 I-0.6089 J-0.4375
G1 X7.9082
G1 X7.4967 Y8.2624
G3 X7.5626 Y8.3302 I-0.5039 J0.5552
G3 X8.4908 Y8.0678 I0.9347 J1.5338
G3 X8.4962 I0.0027 J0.7498
G3 X9.765 Y8.599 I-0.0065 J1.7967
G3 X10.9359 Y8.0709 I1.2753 J1.2654
G1 X12.3433 Y5.8898
G1 X11.2755 Y6.0049
G3 X9.8393 Y6.8023 I-1.4442 J-0.909
G3 X9.833 I-0.0035 J-0.7498
G3 X9.787 Y6.8015 I0.0062 J-1.7064
G1 F300.0 X9.79 Y6.7016
G3 F800.0 X8.8272 Y6.3435 I0.0492 J-1.6057
G3 X8.2462 Y6.7023 I-0.581 J-0.291
G1 X7.8325
G1 X7.3828 Y8.2979
G3 X7.5385 Y8.4648 I-0.39 J0.5198
G3 X8.4911 Y8.1678 I0.9588 J1.3992
G3 X8.4958 I0.0023 J0.6498
G3 X9.7651 Y8.7455 I-0.0061 J1.6967
G3 X10.9919 Y8.1685 I1.2753 J1.1189
G1 X12.541 Y5.7679
G1 X11.2157 Y5.9107
G3 X9.8388 Y6.7023 I-1.3845 J-0.8149
G3 X9.8334 I-0.0031 J-0.6498
G3 X9.79 Y6.7016 I0.0059 J-1.6064
G1 F300.0 X9.7931 Y6.6016
G3 F800.0 X8.7833 Y6.1703 I0.0461 J-1.5058
G3 X8.2462 Y6.6023 I-0.537 J-0.1178
G1 X7.7568
G1 X7.2668 Y8.3409
G3 X7.5038 Y8.6147 I-0.274 J0.4767
G3 X8.4915 Y8.2678 I0.9935 J1.2493
G3 X8.4955 I0.002 J0.5498
G3 X9.7651 Y8.9038 I-0.0058 J1.5967
G3 X11.0349 Y8.2678 I1.2753 J0.9605
G3 X11.0387 I0.0019 J0.5498
G3 X11.0468 Y8.2679 I-0.0054 J1.5023
G1 X12.7021 Y5.7027
G3 X12.7195 Y5.6754 I0.73 J0.4451
G1 Y5.6481
G1 X11.154 Y5.8168
G3 X9.8384 Y6.6023 I-1.3228 J-0.721
G3 X9.8338 I-0.0026 J-0.5498
G3 X9.7931 Y6.6016 I0.0055 J-1.5064
G1 F300.0 X9.7962 Y6.5017
G3 F800.0 X8.696 Y5.9151 I0.0431 J-1.4058
G1 Y6.0525
G3 X8.2462 Y6.5023 I-0.4498 J0.0
G1 X7.6811
G1 X7.1476 Y8.3953
G3 X7.4424 Y8.803 I-0.1548 J0.4223
G3 X8.4919 Y8.3678 I1.0549 J1.061
G3 X8.4951 I0.0016 J0.4498
G3 X9.7651 Y9.0812 I-0.0054 J1.4967
G3 X11.0352 Y8.3678 I1.2753 J0.7831
G3 X11.0384 I0.0015 J0.4498
G3 X11.1003 Y8.3694 I-0.005 J1.4023
G1 X12.7868 Y5.7558
G3 X12.8195 Y5.7066 I0.6453 J0.392
G1 Y5.5367
G1 X11.0901 Y5.7231
G3 X9.8379 Y6.5023 I-1.2589 J-0.6273
G3 X9.8341 I-0.0021 J-0.4498
G3 X9.7962 Y6.5017 I0.0051 J-1.4064
G1 F300.0 X9.7992 Y6.4017
G3 F800.0 X8.596 Y5.4974 I0.04 J-1.3058
G1 Y6.0525
G3 X8.2462 Y6.4023 I-0.3498 J0.0
G1 X7.6054
G1 X7.0229 Y8.4691
G3 X7.3426 Y8.8176 I-0.03 J0.3485
G1 Y9.0791
G3 X8.4922 Y8.4678 I1.1546 J0.7849
G3 X8.4947 I0.0013 J0.3498
G3 X9.7651 Y9.2951 I-0.0051 J1.3967
G3 X11.0355 Y8.4678 I1.2753 J0.5692
G3 X11.038 I0.0012 J0.3498
G3 X11.1523 Y8.4733 I-0.0047 J1.3023
G1 X12.8716 Y5.8089
G3 X12.9195 Y5.7401 I0.5605 J0.339
G1 Y5.4254
G1 X11.0237 Y5.6297
G3 X9.8374 Y6.4023 I-1.1925 J-0.5339
G3 X9.8345 I-0.0016 J-0.3498
G3 X9.7992 Y6.4017 I0.0048 J-1.3065
G0 Z3.0
G0 X29.2893 Y7.5691
G0 Z1.25
G1 F300.0 Z-0.15
G3 F800.0 X29.313 Y7.6303 I-4.9375 J1.9467
G1 X29.3804 Y7.5791
G1 X29.2893 Y7.5691
G1 F300.0 X29.3002 Y7.4697
G1 F800.0 X29.1325 Y7.4514
G3 X29.2656 Y7.792 I-4.7807 J2.0645
G1 X29.6404 Y7.5069
G1 X29.3002 Y7.4697
G1 F300.0 X29.311 Y7.3703
G1 F800.0 X28.9692 Y7.3329
G3 X29.2152 Y7.956 I-4.6174 J2.1829
G1 X29.8546 Y7.4697
G3 X29.8715 Y7.4316 I4.6756 J2.0483
G1 X29.311 Y7.3703
G1 F300.0 X29.3219 Y7.2709
G1 F800.0 X28.7986 Y7.2136
G3 X29.1614 Y8.1225 I-4.4468 J2.3022
G1 X29.9359 Y7.5335
G3 X30.0209 Y7.3474 I4.5943 J1.9845
G1 X29.3219 Y7.2709
G1 F300.0 X29.3328 Y7.1715
G1 F800.0 X28.6197 Y7.0934
G3 X29.1041 Y8.2918 I-4.2679 J2.4224
G1 X30.0175 Y7.5971
G3 X30.1745 Y7.2636 I4.5127 J1.9208
G1 X29.3328 Y7.1715
G1 F300.0 X29.3437 Y7.0721
G1 F800.0 X28.4312 Y6.9722
G3 X29.0427 Y8.464 I-4.0794 J2.5436
G1 X30.0992 Y7.6606
G3 X30.3327 Y7.1803 I4.431 J1.8574
G1 X29.3437 Y7.0721
G1 F300.0 X29.3546 Y6.9727
G1 F800.0 X28.2315 Y6.8498
G3 X28.977 Y8.6397 I-3.8797 J2.6661
G1 X30.1812 Y7.7239
G3 X30.496 Y7.0976 I4.349 J1.7941
G1 X29.3546 Y6.9727
G1 F300.0 X29.3654 Y6.8733
G1 F800.0 X28.0184 Y6.7258
G3 X28.9062 Y8.8191 I-3.6666 J2.79
G1 X30.2634 Y7.7869
G3 X30.626 Y7.0768 I4.2668 J1.731
G1 X30.6274 Y7.0114
G1 X29.3654 Y6.8733
G1 F300.0 X29.3763 Y6.7739
G1 F800.0 X27.7892 Y6.6002
G3 X28.8299 Y9.0028 I-3.4374 J2.9157
G1 X30.3459 Y7.8498
G3 X30.7254 Y7.1067 I4.1843 J1.6681
G1 X30.7294 Y6.9219
G1 X29.3763 Y6.7739
G1 F300.0 X29.3872 Y6.6745
G1 F800.0 X27.5396 Y6.4722
G3 X28.7472 Y9.1913 I-3.1878 J3.0436
G1 X30.4287 Y7.9125
G3 X30.8248 Y7.1369 I4.1015 J1.6054
G1 X30.8314 Y6.8325
G1 X29.3872 Y6.6745
G1 F300.0 X29.3981 Y6.575
G1 F800.0 X27.2633 Y6.3414
G3 X28.6572 Y9.3854 I-2.9115 J3.1744
G1 X30.5117 Y7.975
G3 X30.9241 Y7.1674 I4.0185 J1.5429
G1 X30.9334 Y6.7431
G1 X29.3981 Y6.575
G1 F300.0 X29.409 Y6.4756
G1 F800.0 X26.95 Y6.2065
G3 X28.5592 Y9.4988 I-2.5982 J3.3093
G3 Y9.5251 I-3.2498 J0.0132
G3 X28.5585 Y9.5862 I-4.2074 J-0.017
G1 X30.595 Y8.0373
G3 X31.0235 Y7.1983 I3.9352 J1.4806
G1 X31.0353 Y6.6536
G1 X29.409 Y6.4756
G1 F300.0 X29.4198 Y6.3762
G1 F800.0 X26.5802 Y6.0654
G3 X28.4592 Y9.4992 I-2.2284 J3.4504
G3 Y9.5247 I-3.1498 J0.0128
G3 X28.4492 Y9.7949 I-4.1074 J-0.0166
G1 X30.6786 Y8.0994
G3 X31.1228 Y7.2295 I3.8516 J1.4186
G1 X31.1373 Y6.5642
G1 X29.4198 Y6.3762
G1 F300.0 X29.4307 Y6.2768
G1 F800.0 X26.1065 Y5.913
G3 X28.3592 Y9.4996 I-1.7548 J3.6028
G3 Y9.5243 I-3.0498 J0.0124
G3 X28.3272 Y10.0133 I-4.0074 J-0.0162
G1 X30.7625 Y8.1612
G3 X31.2221 Y7.2612 I3.7677 J1.3568
G1 X31.2393 Y6.4748
G1 X29.4307 Y6.2768
G1 F300.0 X29.4416 Y6.1774
G1 F800.0 X25.2924 Y5.7233
G3 X28.2592 Y9.5 I-0.9406 J3.7925
G3 Y9.5239 I-2.9498 J0.0119
G3 X28.1893 Y10.2438 I-3.9074 J-0.0158
G1 X30.8467 Y8.2228
G3 X31.3215 Y7.2932 I3.6835 J1.2952
G1 X31.3413 Y6.3853
G1 X29.4416 Y6.1774
G1 F300.0 X29.4525 Y6.078
G1 F800.0 X20.5537 Y5.1041
G3 X20.1959 Y5.9124 I-2.7532 J-0.7356
G3 X20.2584 Y5.9294 I-0.943 J3.591
G3 X21.2469 Y5.7907 I1.0055 J3.5749
G3 X21.2797 I0.0131 J2.8498
G3 X22.7069 Y6.0868 I-0.0258 J3.7123
G3 X24.3405 Y5.7085 I1.6538 J3.4252
G3 X24.3672 Y5.7084 I0.0152 J2.8498
G3 X28.1592 Y9.5004 I-0.0154 J3.8074
G3 Y9.5234 I-2.8498 J0.0115
G3 X28.0303 Y10.4904 I-3.8074 J-0.0154
G1 X30.9313 Y8.2841
G3 X31.4208 Y7.3257 I3.5989 J1.2339
G1 X31.4432 Y6.2959
G1 X29.4525 Y6.078
G1 F300.0 X29.4634 Y5.9786
G1 F800.0 X20.4779 Y4.9952
G3 X20.0318 Y5.9756 I-2.6774 J-0.6267
G3 X20.2584 Y6.0334 I-0.7789 J3.5278
G3 X21.2473 Y5.8907 I1.0055 J3.4709
G3 X21.279 I0.0126 J2.7498
G3 X22.7095 Y6.1969 I-0.0251 J3.6123
G3 X24.341 Y5.8084 I1.6512 J3.3151
G3 X24.3668 I0.0146 J2.7498
G3 X28.0592 Y9.5008 I-0.015 J3.7074
G3 Y9.523 I-2.7498 J0.0111
G3 X27.8416 Y10.7595 I-3.7074 J-0.015
G1 X31.0162 Y8.3451
G3 X31.5201 Y7.3586 I3.514 J1.1728
G1 X31.5452 Y6.2065
G1 X29.4634 Y5.9786
G1 F300.0 X29.4742 Y5.8792
G1 F800.0 X20.3993 Y4.886
G3 X19.8545 Y6.0425 I-2.5988 J-0.5175
G3 X20.2584 Y6.1376 I-0.6016 J3.4608
G3 X21.2478 Y5.9907 I1.0056 J3.3667
G3 X21.2783 I0.0122 J2.6498
G3 X22.7121 Y6.3076 I-0.0244 J3.5123
G3 X24.3416 Y5.9084 I1.6486 J3.2044
G3 X24.3664 I0.0141 J2.6498
G3 X27.9592 Y9.5012 I-0.0146 J3.6074
G3 Y9.5226 I-2.6498 J0.0107
G3 X27.6064 Y11.0641 I-3.6074 J-0.0146
G1 X31.1015 Y8.4059
G3 X31.6194 Y7.392 I3.4287 J1.112
G1 X31.6472 Y6.117
G1 X29.4742 Y5.8792
G1 F300.0 X29.4851 Y5.7798
G1 F800.0 X20.3175 Y4.7764
G3 X19.6584 Y6.1148 I-2.5169 J-0.408
G3 X20.2584 Y6.2421 I-0.4055 J3.3885
G3 X21.2482 Y6.0907 I1.0056 J3.2622
G3 X21.2777 I0.0117 J2.5498
G3 X22.7148 Y6.4191 I-0.0237 J3.4123
G3 X24.3421 Y6.0084 I1.646 J3.0929
G3 X24.366 I0.0136 J2.5498
G3 X27.8592 Y9.5016 I-0.0142 J3.5074
G3 Y9.5222 I-2.5498 J0.0103
G3 X27.2811 Y11.4371 I-3.5074 J-0.0142
G1 X31.1871 Y8.4664
G3 X31.7187 Y7.4258 I3.3431 J1.0515
G1 X31.7492 Y6.0276
G1 X29.4851 Y5.7798
G1 F300.0 X29.496 Y5.6804
G1 F800.0 X20.2321 Y4.6665
G3 X19.4325 Y6.1955 I-2.4316 J-0.298
G3 X20.2584 Y6.3469 I-0.1796 J3.3079
G3 X21.2487 Y6.1907 I1.0056 J3.1574
G3 X21.277 I0.0113 J2.4498
G3 X22.7174 Y6.5314 I-0.023 J3.3123
G3 X24.3426 Y6.1084 I1.6434 J2.9806
G3 X24.3656 I0.013 J2.4498
G3 X27.7592 Y9.502 I-0.0138 J3.4074
G3 Y9.5218 I-2.4498 J0.0099
G3 X26.9579 Y11.7032 I-3.4074 J-0.0138
G3 X27.102 Y11.6989 I0.1733 J3.4411
G1 X31.2732 Y8.5266
G3 X31.8179 Y7.4602 I3.257 J0.9913
G1 X31.8511 Y5.9381
G1 X29.496 Y5.6804
G1 F300.0 X29.5069 Y5.581
G1 F800.0 X20.1428 Y4.5561
G3 X19.1494 Y6.2926 I-2.3423 J-0.1877
G3 X19.2458 Y6.2907 I0.1118 J3.2108
G3 X19.2683 I0.0113 J2.3498
G3 X20.2584 Y6.452 I-0.0154 J3.2127
G3 X21.2492 Y6.2907 I1.0056 J3.0523
G3 X21.2763 I0.0108 J2.3498
G3 X22.72 Y6.6447 I-0.0223 J3.2123
G3 X24.3432 Y6.2084 I1.6408 J2.8673
G3 X24.3652 I0.0125 J2.3498
G3 X27.6592 Y9.5024 I-0.0134 J3.3074
G3 Y9.5214 I-2.3498 J0.0095
G3 X26.7118 Y11.8252 I-3.3074 J-0.0134
G3 X27.1184 Y11.7988 I0.4194 J3.319
G3 X27.1335 I0.009 J2.3498
G3 X27.1358 I-0.0087 J3.3362
G1 X31.3597 Y8.5865
G3 X31.9172 Y7.495 I3.1705 J0.9315
G1 X31.9531 Y5.8487
G1 X29.5069 Y5.581
G1 F300.0 X29.5178 Y5.4816
G1 F800.0 X20.049 Y4.4453
G3 X19.0079 Y6.2668 I-2.2485 J-0.0768
G3 X18.9084 Y6.4107 I-1.8984 J-1.2074
G3 X19.2462 Y6.3907 I0.3528 J3.0927
G3 X19.2678 I0.0108 J2.2498
G3 X20.2584 Y6.5575 I-0.0149 J3.1127
G3 X21.2496 Y6.3907 I1.0056 J2.9468
G3 X21.2756 I0.0103 J2.2498
G3 X22.7226 Y6.7589 I-0.0216 J3.1123
G3 X24.3437 Y6.3084 I1.6382 J2.7531
G3 X24.3648 I0.012 J2.2498
G3 X27.5592 Y9.5028 I-0.013 J3.2074
G3 Y9.521 I-2.2498 J0.0091
G3 X26.39 Y11.9846 I-3.2074 J-0.013
G3 X27.1188 Y11.8988 I0.7412 J3.1597
G3 X27.1333 I0.0087 J2.2498
G3 X27.1692 Y11.8991 I-0.0084 J3.2362
G1 X31.4466 Y8.646
G3 X32.0165 Y7.5305 I3.0836 J0.8719
G1 X32.0551 Y5.7593
G1 X29.5178 Y5.4816
G1 F300.0 X29.5286 Y5.3822
G1 F800.0 X19.9503 Y4.3339
G1 Y4.3685
G3 X18.9354 Y6.1943 I-2.1498 J0.0
G3 X18.6569 Y6.5518 I-1.8259 J-1.1349
G3 X19.2467 Y6.4907 I0.6042 J2.9515
G3 X19.2673 I0.0103 J2.1498
G3 X20.2584 Y6.6634 I-0.0144 J3.0127
G3 X21.2501 Y6.4907 I1.0056 J2.841
G3 X21.2749 I0.0099 J2.1498
G3 X22.7252 Y6.8743 I-0.0209 J3.0123
G3 X24.3442 Y6.4084 I1.6356 J2.6377
G3 X24.3644 I0.0114 J2.1498
G3 X27.4592 Y9.5032 I-0.0126 J3.1074
G3 Y9.5206 I-2.1498 J0.0087
G3 X25.8133 Y12.2503 I-3.1074 J-0.0126
G3 X25.856 Y12.2689 I-1.2324 J2.8934
G3 X27.1191 Y11.9988 I1.2753 J2.8753
G3 X27.133 I0.0083 J2.1498
G3 X27.202 Y11.9997 I-0.0082 J3.1362
G1 X31.5339 Y8.7052
G3 X32.1157 Y7.5665 I2.9963 J0.8127
G1 X32.157 Y5.6698
G1 X29.5286 Y5.3822
G1 F300.0 X29.5395 Y5.2828
G1 F800.0 X19.8503 Y4.2223
G1 Y4.3685
G3 X18.8627 Y6.1216 I-2.0498 J0.0
G3 X18.2175 Y6.784 I-1.7531 J-1.0621
G3 X19.2472 Y6.5907 I1.0437 J2.7193
G3 X19.2668 I0.0098 J2.0498
G3 X20.2583 Y6.7697 I-0.0139 J2.9127
G3 X21.2505 Y6.5907 I1.0056 J2.7346
G3 X21.2742 I0.0094 J2.0498
G3 X22.7278 Y6.9911 I-0.0202 J2.9123
G3 X24.3448 Y6.5084 I1.633 J2.5209
G3 X24.364 I0.0109 J2.0498
G3 X27.3592 Y9.5036 I-0.0122 J3.0074
G3 Y9.5202 I-2.0498 J0.0083
G3 X25.562 Y12.2612 I-3.0074 J-0.0122
G3 X25.856 Y12.3787 I-0.9811 J2.8825
G3 X27.1195 Y12.0988 I1.2753 J2.7656
G3 X27.1327 I0.0079 J2.0498
G3 X27.2344 Y12.1008 I-0.0079 J3.0362
G1 X31.6218 Y8.764
G3 X32.2149 Y7.6031 I2.9084 J0.7539
G1 X32.259 Y5.5804
G1 X29.5395 Y5.2828
G1 F300.0 X29.5504 Y5.1834
G1 F800.0 X19.75 Y4.1108
G3 X19.7503 Y4.1455 I-1.9495 J0.0347
G1 Y4.3685
G3 X18.7897 Y6.0487 I-1.9498 J0.0
G3 X17.4114 Y6.9858 I-1.6802 J-0.9892
G3 X15.5862 Y8.2496 I-1.8251 J-0.686
G1 X14.7594
G1 X13.9973 Y9.4312
G3 X14.0291 Y9.8489 I-2.9514 J0.435
G3 Y9.8673 I-1.9498 J0.0113
G3 X14.0025 Y10.2549 I-2.9967 J-0.0109
G1 X16.5397 Y10.2043
G3 X16.4485 Y9.5136 I2.7204 J-0.7106
G3 Y9.4917 I1.9498 J-0.0138
G3 X19.2477 Y6.6907 I2.8127 J0.0117
G3 X19.2664 I0.0093 J1.9498
G3 X20.2583 Y6.8765 I-0.0135 J2.8127
G3 X21.251 Y6.6907 I1.0056 J2.6278
G3 X21.2735 I0.009 J1.9498
G3 X22.7304 Y7.1093 I-0.0195 J2.8123
G3 X24.3453 Y6.6084 I1.6304 J2.4027
G3 X24.3636 I0.0104 J1.9498
G3 X27.2592 Y9.504 I-0.0118 J2.9074
G3 Y9.5198 I-1.9498 J0.0079
G3 X25.2453 Y12.2748 I-2.9074 J-0.0118
G3 X25.856 Y12.4892 I-0.6645 J2.8689
G3 X27.1199 Y12.1988 I1.2753 J2.6551
G3 X27.1325 I0.0075 J1.9498
G3 X27.2662 Y12.2022 I-0.0076 J2.9362
G1 X31.7102 Y8.8224
G3 X32.3141 Y7.6404 I2.82 J0.6955
G1 X32.361 Y5.491
G1 X29.5504 Y5.1834
G1 F300.0 X29.5613 Y5.0839
G1 F800.0 X19.6445 Y3.9986
G3 X19.6503 Y4.1455 I-1.844 J0.1469
G1 Y4.3685
G3 X18.7166 Y5.9755 I-1.8498 J0.0
G3 X17.3376 Y6.8952 I-1.6071 J-0.916
G3 X15.5862 Y8.1496 I-1.7514 J-0.5954
G1 X14.7049
G1 X13.8926 Y9.4089
G3 X13.9291 Y9.8495 I-2.8468 J0.4573
G3 Y9.8669 I-1.8498 J0.0107
G3 X13.8855 Y10.3572 I-2.8967 J-0.0105
G1 X16.6716 Y10.3017
G3 X16.5485 Y9.5129 I2.5885 J-0.808
G3 Y9.4921 I1.8498 J-0.0131
G3 X19.2482 Y6.7907 I2.7127 J0.0112
G3 X19.2659 I0.0089 J1.8498
G3 X20.2583 Y6.9838 I-0.013 J2.7127
G3 X21.2515 Y6.7907 I1.0056 J2.5205
G3 X21.2728 I0.0085 J1.8498
G3 X22.733 Y7.2293 I-0.0188 J2.7123
G3 X24.3458 Y6.7084 I1.6278 J2.2827
G3 X24.3632 I0.0098 J1.8498
G3 X27.1592 Y9.5044 I-0.0114 J2.8074
G3 Y9.5194 I-1.8498 J0.0075
G3 X24.6495 Y12.2996 I-2.8074 J-0.0113
G3 X25.856 Y12.6006 I-0.0686 J2.8441
G3 X27.1203 Y12.2988 I1.2753 J2.5437
G3 X27.1322 I0.0071 J1.8498
G3 X27.2975 Y12.3041 I-0.0074 J2.8362
G1 X31.7991 Y8.8805
G3 X32.4133 Y7.6783 I2.7311 J0.6375
G1 X32.463 Y5.4015
G1 X29.5613 Y5.0839
G1 F300.0 X29.5722 Y4.9845
G1 F800.0 X19.5309 Y3.8856
G3 X19.5503 Y4.1455 I-1.7304 J0.2599
G1 Y4.3685
G3 X18.6431 Y5.902 I-1.7498 J0.0
G3 X17.2622 Y6.8026 I-1.5336 J-0.8426
G3 X15.5862 Y8.0496 I-1.676 J-0.5028
G1 X14.6504
G1 X13.7876 Y9.3873
G3 X13.8291 Y9.85 I-2.7417 J0.4789
G3 Y9.8665 I-1.7498 J0.0102
G3 X13.7633 Y10.4597 I-2.7967 J-0.0101
G1 X16.8103 Y10.3989
G3 X16.6485 Y9.5122 I2.4498 J-0.9053
G3 Y9.4925 I1.7498 J-0.0124
G3 X19.2486 Y6.8907 I2.6127 J0.0108
G3 X19.2654 I0.0084 J1.7498
G3 X20.2583 Y7.0918 I-0.0125 J2.6127
G3 X21.2519 Y6.8907 I1.0056 J2.4125
G3 X21.2721 I0.008 J1.7498
G3 X22.7355 Y7.3514 I-0.0181 J2.6123
G3 X24.3464 Y6.8084 I1.6252 J2.1606
G3 X24.3628 I0.0093 J1.7498
G3 X27.0592 Y9.5048 I-0.011 J2.7074
G3 Y9.519 I-1.7498 J0.0071
G3 X24.3628 Y12.2154 I-2.7074 J-0.0109
G3 X24.3447 I-0.0071 J-1.7498
G3 X24.1544 Y12.2075 I0.0169 J-2.7045
G3 X24.1682 Y12.3987 I-2.0406 J0.2429
G3 X24.1688 Y12.4311 I-2.0542 J0.0566
G3 X24.5783 Y12.3988 I0.4196 J2.7136
G3 X24.5915 I0.0065 J1.7498
G3 X25.856 Y12.713 I-0.0106 J2.7449
G3 X27.1207 Y12.3988 I1.2753 J2.4313
G3 X27.132 I0.0067 J1.7498
G3 X27.3281 Y12.4064 I-0.0071 J2.7362
G1 X31.8886 Y8.938
G3 X32.5125 Y7.717 I2.6416 J0.5799
G1 X32.5649 Y5.3121
G1 X29.5722 Y4.9845
G1 F300.0 X29.583 Y4.8851
G1 F800.0 X19.4074 Y3.7715
G3 X19.4503 Y4.1455 I-1.6068 J0.374
G1 Y4.3685
G3 X18.5693 Y5.8282 I-1.6498 J0.0
G3 X17.1848 Y6.7076 I-1.4598 J-0.7687
G3 X15.5862 Y7.9496 I-1.5986 J-0.4078
G1 X14.5959
G1 X13.6822 Y9.3663
G3 X13.7291 Y9.8506 I-2.6363 J0.4999
G3 Y9.8662 I-1.6498 J0.0096
G3 X13.6351 Y10.5623 I-2.6967 J-0.0098
G1 X16.9571 Y10.496
G3 X16.7485 Y9.5115 I2.303 J-1.0024
G3 X16.7484 Y9.4929 I1.6498 J-0.0117
G3 X19.2491 Y6.9907 I2.5127 J0.0104
G3 X19.2649 I0.0079 J1.6498
G3 X20.2583 Y7.2005 I-0.012 J2.5127
G3 X21.2524 Y6.9907 I1.0056 J2.3038
G3 X21.2714 I0.0076 J1.6498
G3 X22.7381 Y7.4759 I-0.0174 J2.5123
G3 X24.3469 Y6.9084 I1.6226 J2.0361
G3 X24.3623 I0.0088 J1.6498
G3 X26.9592 Y9.5052 I-0.0106 J2.6074
G3 Y9.5186 I-1.6498 J0.0067
G3 X24.3624 Y12.1154 I-2.6074 J-0.0105
G3 X24.3454 I-0.0067 J-1.6498
G3 X24.0363 Y12.0951 I0.0163 J-2.6045
G3 X24.0682 Y12.4013 I-1.9225 J0.3553
G3 X24.0688 Y12.4822 I-1.9542 J0.054
G3 Y12.4847 I-1.99 J-0.0057
G3 X24.0682 Y12.5231 I-1.6498 J-0.0067
G1 X24.0674 Y12.5506
G3 X24.5786 Y12.4988 I0.521 J2.594
G3 X24.5911 I0.0061 J1.6498
G3 X25.856 Y12.8265 I-0.0102 J2.6449
G3 X27.1211 Y12.4988 I1.2753 J2.3178
G3 X27.1317 I0.0063 J1.6498
G3 X27.3582 Y12.5091 I-0.0069 J2.6362
G1 X31.9787 Y8.9951
G3 X32.6117 Y7.7565 I2.5515 J0.5228
G1 X32.6669 Y5.2227
G1 X29.583 Y4.8851
G1 F300.0 X29.5939 Y4.7857
G1 F800.0 X19.271 Y3.6559
G3 X19.3503 Y4.1455 I-1.4704 J0.4896
G1 Y4.3685
G3 X18.495 Y5.754 I-1.5498 J0.0
G3 X17.1095 Y6.6093 I-1.3855 J-0.6945
G1 X17.1048
G3 X15.5862 Y7.8496 I-1.5186 J-0.3095
G1 X14.5414
G1 X13.5762 Y9.346
G3 X13.6291 Y9.8512 I-2.5303 J0.5202
G3 Y9.8658 I-1.5498 J0.009
G3 X13.5 Y10.665 I-2.5967 J-0.0094
G1 X17.1135 Y10.5929
G3 X16.8485 Y9.5108 I2.1466 J-1.0993
G3 X16.8484 Y9.4933 I1.5498 J-0.011
G3 X19.2496 Y7.0907 I2.4127 J0.01
G3 X19.2644 I0.0074 J1.5498
G3 X20.2583 Y7.3101 I-0.0116 J2.4127
G3 X21.2528 Y7.0907 I1.0056 J2.1942
G3 X21.2707 I0.0071 J1.5498
G3 X22.7407 Y7.6032 I-0.0167 J2.4123
G3 X24.3474 Y7.0084 I1.6201 J1.9088
G3 X24.3619 I0.0083 J1.5498
G3 X26.8592 Y9.5057 I-0.0102 J2.5074
G3 Y9.5182 I-1.5498 J0.0063
G3 X24.362 Y12.0154 I-2.5074 J-0.0101
G3 X24.346 I-0.0063 J-1.5498
G3 X23.9065 Y11.9738 I0.0157 J-2.5045
G3 X23.9682 Y12.404 I-1.7927 J0.4766
G3 X23.9688 Y12.4814 I-1.8543 J0.0513
G3 Y12.4843 I-1.89 J-0.0048
G3 X23.9682 Y12.5204 I-1.5498 J-0.0063
G1 X23.9639 Y12.6766
G3 X24.579 Y12.5988 I0.6245 J2.4681
G3 X24.5907 I0.0057 J1.5498
G3 X25.856 Y12.9413 I-0.0098 J2.5449
G3 X27.1214 Y12.5988 I1.2753 J2.2029
G3 X27.1314 I0.006 J1.5498
G3 X27.3876 Y12.6124 I-0.0066 J2.5362
G1 X32.0694 Y9.0517
G3 X32.7108 Y7.7967 I2.4608 J0.4662
G1 X32.7689 Y5.1332
G1 X29.5939 Y4.7857
G1 F300.0 X29.6048 Y4.6863
G1 F800.0 X19.1171 Y3.5385
G3 X19.2503 Y4.1455 I-1.3166 J0.607
G1 Y4.3685
G3 X18.4202 Y5.6792 I-1.4498 J0.0
G3 X17.1095 Y6.5093 I-1.3107 J-0.6197
G1 X17.0208
G3 X15.5862 Y7.7496 I-1.4346 J-0.2095
G1 X14.4869
G1 X13.4698 Y9.3266
G3 X13.5291 Y9.8518 I-2.4239 J0.5396
G3 Y9.8655 I-1.4498 J0.0084
G3 X13.3568 Y10.7678 I-2.4967 J-0.009
G1 X17.2818 Y10.6896
G3 X16.9485 Y9.5101 I1.9783 J-1.1959
G3 X16.9484 Y9.4938 I1.4498 J-0.0103
G3 X19.2501 Y7.1907 I2.3127 J0.0096
G3 X19.264 I0.0069 J1.4498
G3 X20.2583 Y7.4206 I-0.0111 J2.3127
G3 X21.2533 Y7.1907 I1.0056 J2.0837
G3 X21.27 I0.0067 J1.4498
G3 X22.7433 Y7.7341 I-0.0161 J2.3123
G3 X24.3479 Y7.1084 I1.6175 J1.7779
G3 X24.3615 I0.0077 J1.4498
G3 X26.7592 Y9.5061 I-0.0097 J2.4074
G3 Y9.5178 I-1.4498 J0.0059
G3 X24.3615 Y11.9154 I-2.4074 J-0.0097
G3 X24.3466 I-0.0059 J-1.4498
G3 X23.7588 Y11.8387 I0.015 J-2.4045
G3 X23.8683 Y12.4066 I-1.645 J0.6117
G3 X23.8688 Y12.4806 I-1.7543 J0.0487
G3 Y12.4838 I-1.79 J-0.004
G3 X23.8682 Y12.5177 I-1.4498 J-0.0059
G1 X23.8602 Y12.8097
G3 X24.5794 Y12.6988 I0.7282 J2.3349
G3 X24.5903 I0.0053 J1.4498
G3 X25.856 Y13.0576 I-0.0094 J2.4449
G3 X27.1218 Y12.6988 I1.2753 J2.0866
G3 X27.1312 I0.0056 J1.4498
G3 X27.4162 Y12.7163 I-0.0063 J2.4362
G1 X32.1609 Y9.1078
G3 X32.8099 Y7.8379 I2.3693 J0.4101
G1 X32.8709 Y5.0438
G1 X29.6048 Y4.6863
G1 F300.0 X29.6157 Y4.5869
G1 F800.0 X18.9377 Y3.4183
G3 X19.1503 Y4.1455 I-1.1371 J0.7272
G1 Y4.3685
G3 X18.3447 Y5.6037 I-1.3498 J0.0
G3 X17.1095 Y6.4093 I-1.2352 J-0.5442
G1 X16.9316
G3 X15.5862 Y7.6496 I-1.3454 J-0.1095
G1 X14.4324
G1 X13.3628 Y9.3079
G3 X13.4291 Y9.8524 I-2.3169 J0.5583
G3 Y9.8651 I-1.3498 J0.0078
G3 X13.2038 Y10.8709 I-2.3967 J-0.0087
G1 X17.4652 Y10.786
G3 X17.0485 Y9.5093 I1.7949 J-1.2923
G3 X17.0484 Y9.4942 I1.3498 J-0.0096
G3 X19.2506 Y7.2906 I2.2127 J0.0092
G3 X19.2635 I0.0065 J1.3498
G3 X20.2583 Y7.5322 I-0.0106 J2.2127
G3 X21.2537 Y7.2907 I1.0056 J1.9721
G3 X21.2693 I0.0062 J1.3498
G3 X22.7252 Y7.8507 I-0.0154 J2.2123
G1 X22.7648 Y7.8509
G3 X24.3485 Y7.2084 I1.596 J1.6611
G3 X24.3611 I0.0072 J1.3498
G3 X26.6592 Y9.5065 I-0.0093 J2.3074
G3 Y9.5174 I-1.3498 J0.0055
G3 X24.3611 Y11.8154 I-2.3074 J-0.0093
G3 X24.3472 I-0.0055 J-1.3498
G3 X23.5775 Y11.678 I0.0144 J-2.3045
G3 X23.7683 Y12.4092 I-1.4637 J0.7724
G3 X23.7688 Y12.4797 I-1.6543 J0.0461
G3 Y12.4834 I-1.69 J-0.0032
G3 X23.7683 Y12.5149 I-1.3498 J-0.0055
G1 X23.7563 Y12.9513
G3 X24.5797 Y12.7988 I0.8321 J2.1933
G3 X24.5899 I0.005 J1.3498
G3 X25.856 Y13.1758 I-0.009 J2.3449
G3 X27.1222 Y12.7988 I1.2753 J1.9684
G3 X27.1309 I0.0052 J1.3498
G3 X27.4441 Y12.8207 I-0.0061 J2.3362
G1 X32.2531 Y9.1633
G3 X32.909 Y7.88 I2.2771 J0.3546
G1 X32.9728 Y4.9543
G1 X29.6157 Y4.5869
G1 F300.0 X29.6266 Y4.4875
G1 F800.0 X18.7147 Y3.2933
G3 X19.0503 Y4.1455 I-0.9142 J0.8522
G1 Y4.3685
G3 X18.2684 Y5.5274 I-1.2498 J0.0
G3 X17.1095 Y6.3093 I-1.1589 J-0.4679
G1 X16.8893
G3 X16.836 Y6.3081 I0.0 J-1.2498
G3 X15.5862 Y7.5496 I-1.2498 J-0.0084
G1 X14.378
G1 X13.2553 Y9.2902
G3 X13.3291 Y9.8529 I-2.2094 J0.5761
G3 Y9.8647 I-1.2498 J0.0073
G3 X13.0387 Y10.9742 I-2.2967 J-0.0083
G1 X17.6689 Y10.8819
G3 X17.1485 Y9.5086 I1.5912 J-1.3883
G3 X17.1484 Y9.4946 I1.2498 J-0.0089
G3 X19.251 Y7.3906 I2.1127 J0.0088
G3 X19.263 I0.006 J1.2498
G3 X20.2583 Y7.6452 I-0.0101 J2.1127
G3 X21.2542 Y7.3907 I1.0056 J1.8591
G3 X21.2686 I0.0057 J1.2498
G3 X22.6865 Y7.9506 I-0.0147 J2.1123
G1 X22.8054 Y7.951
G3 X24.349 Y7.3084 I1.5554 J1.561
G3 X24.3607 I0.0067 J1.2498
G3 X26.5592 Y9.5069 I-0.0089 J2.2074
G3 Y9.517 I-1.2498 J0.0051
G3 X24.3607 Y11.7154 I-2.2074 J-0.0089
G3 X24.3479 I-0.0051 J-1.2498
G3 X23.297 Y11.4413 I0.0138 J-2.2045
G3 X23.6683 Y12.4119 I-1.1832 J1.0091
G3 X23.6688 Y12.4789 I-1.5544 J0.0434
G3 Y12.483 I-1.59 J-0.0023
G3 X23.6683 Y12.5122 I-1.2498 J-0.0051
G1 X23.6521 Y13.1033
G3 X24.5801 Y12.8988 I0.9363 J2.0414
G3 X24.5895 I0.0046 J1.2498
G3 X25.856 Y13.2961 I-0.0087 J2.2449
G3 X27.1226 Y12.8988 I1.2753 J1.8482
G3 X27.1307 I0.0048 J1.2498
G3 X27.4711 Y12.9258 I-0.0058 J2.2362
G1 X32.3461 Y9.2182
G3 X33.0081 Y7.9232 I2.1841 J0.2997
G1 X33.0748 Y4.8649
G1 X29.6266 Y4.4875
G1 F300.0 X29.6374 Y4.3881
G1 F800.0 X18.3876 Y3.1569
G3 X18.9503 Y4.1455 I-0.5871 J0.9886
G1 Y4.3685
G3 X18.191 Y5.4499 I-1.1498 J0.0
G3 X17.1095 Y6.2093 I-1.0815 J-0.3905
G1 X16.8893
G3 X16.736 Y6.199 I0.0 J-1.1498
G1 Y6.2998
G3 X15.5862 Y7.4496 I-1.1498 J0.0
G1 X14.3235
G1 X13.1471 Y9.2734
G3 X13.2291 Y9.8535 I-2.1012 J0.5928
G3 Y9.8644 I-1.1498 J0.0067
G3 X12.8582 Y11.0778 I-2.1967 J-0.008
G1 X17.8456 Y10.9784
G1 X17.8439 Y10.9224
G3 X17.2485 Y9.5079 I1.4162 J-1.4287
G3 X17.2484 Y9.495 I1.1498 J-0.0082
G3 X19.2515 Y7.4906 I2.0127 J0.0083
G3 X19.2625 I0.0055 J1.1498
G3 X20.2583 Y7.7597 I-0.0096 J2.0127
G3 X21.2547 Y7.4907 I1.0056 J1.7446
G3 X21.2679 I0.0053 J1.1498
G3 X22.6467 Y8.0504 I-0.014 J2.0123
G1 X22.8471 Y8.0512
G3 X24.3495 Y7.4084 I1.5137 J1.4608
G3 X24.3603 I0.0061 J1.1498
G3 X26.4592 Y9.5073 I-0.0085 J2.1074
G3 Y9.5166 I-1.1498 J0.0047
G3 X24.3603 Y11.6154 I-2.1074 J-0.0085
G3 X24.3485 I-0.0047 J-1.1498
G3 X22.8363 Y10.9609 I0.0132 J-2.1045
G1 X22.6357 Y10.9602
G3 X22.5273 Y11.0554 I-1.3808 J-1.4628
G3 X23.0105 Y11.3046 I-0.4135 J1.395
G1 Y11.3045
G1 Y11.3046
G3 X23.5684 Y12.4145 I-0.8967 J1.1459
G3 X23.5688 Y12.4781 I-1.4544 J0.0408
G3 Y12.4826 I-1.49 J-0.0015
G3 X23.5683 Y12.5094 I-1.1498 J-0.0047
G1 X23.5476 Y13.2681
G3 X24.5805 Y12.9988 I1.0408 J1.8765
G3 X24.5891 I0.0042 J1.1498
G3 X25.856 Y13.419 I-0.0083 J2.1449
G3 X27.123 Y12.9988 I1.2753 J1.7253
G3 X27.1304 I0.0044 J1.1498
G3 X27.4973 Y13.0315 I-0.0056 J2.1362
G1 X32.44 Y9.2724
G3 X33.1072 Y7.9674 I2.0902 J0.2455
G1 X33.1768 Y4.7755
G1 X29.6374 Y4.3881
G1 F300.0 X29.6483 Y4.2887
G1 F800.0 X18.0657 Y3.021
G3 X18.112 Y3.143 I-0.9561 J0.4335
G3 X18.8503 Y4.1455 I-0.3115 J1.0025
G1 Y4.3685
G3 X18.112 Y5.371 I-1.0498 J0.0
G3 X17.1095 Y6.1093 I-1.0025 J-0.3115
G1 X16.8893
G3 X16.636 Y6.0783 I0.0 J-1.0498
G1 Y6.2998
G3 X15.5862 Y7.3496 I-1.0498 J0.0
G1 X14.269
G1 X13.0383 Y9.2576
G3 X13.1291 Y9.8541 I-1.9924 J0.6086
G3 Y9.864 I-1.0498 J0.0061
G3 X12.657 Y11.1819 I-2.0967 J-0.0076
G1 X17.9486 Y11.0764
G1 X17.9426 Y10.8789
G3 X17.3485 Y9.5072 I1.3175 J-1.3852
G3 X17.3484 Y9.4954 I1.0498 J-0.0074
G3 X19.252 Y7.5906 I1.9127 J0.0079
G3 X19.262 I0.005 J1.0498
G3 X20.2583 Y7.8762 I-0.0092 J1.9127
G3 X21.2551 Y7.5907 I1.0056 J1.6281
G3 X21.2672 I0.0048 J1.0498
G3 X22.6057 Y8.1502 I-0.0133 J1.9123
G1 X22.89 Y8.1514
G3 X24.3501 Y7.5084 I1.4707 J1.3606
G3 X24.3599 I0.0056 J1.0498
G3 X26.3592 Y9.5077 I-0.0081 J2.0074
G3 Y9.5162 I-1.0498 J0.0043
G3 X24.3599 Y11.5154 I-2.0074 J-0.0081
G3 X24.3491 I-0.0043 J-1.0498
G3 X22.88 Y10.861 I0.0125 J-2.0045
G1 X22.5955 Y10.86
G3 X22.2868 Y11.1065 I-1.3406 J-1.3627
G3 X22.9489 Y11.3833 I-0.173 J1.3439
G3 X23.4684 Y12.4171 I-0.8351 J1.0671
G3 X23.4688 Y12.4772 I-1.3544 J0.0382
G3 Y12.4822 I-1.39 J-0.0007
G3 X23.4684 Y12.5067 I-1.0498 J-0.0043
G1 X23.4425 Y13.4498
G3 X24.5808 Y13.0988 I1.1458 J1.6948
G3 X24.5888 I0.0039 J1.0498
G3 X25.856 Y13.545 I-0.0079 J2.0449
G3 X27.1234 Y13.0988 I1.2753 J1.5992
G3 X27.1301 I0.004 J1.0498
G3 X27.5225 Y13.138 I-0.0053 J2.0362
G1 X32.5349 Y9.3259
G3 X33.2062 Y8.0129 I1.9953 J0.192
G1 X33.2788 Y4.686
G1 X29.6483 Y4.2887
G1 F300.0 X29.6592 Y4.1893
G1 F800.0 X17.8808 Y2.9002
G3 X18.0309 Y3.2241 I-0.7713 J0.5543
G3 X18.7503 Y4.1455 I-0.2304 J0.9214
G1 Y4.3685
G3 X18.0309 Y5.2899 I-0.9498 J0.0
G3 X17.1095 Y6.0093 I-0.9214 J-0.2304
G1 X16.8893
G3 X16.536 Y5.9411 I0.0 J-0.9498
G1 Y6.2998
G3 X15.5862 Y7.2496 I-0.9498 J0.0
G1 X14.2145
G1 X12.9287 Y9.243
G3 X13.0291 Y9.8547 I-1.8828 J0.6232
G3 Y9.8636 I-0.9498 J0.0055
G3 X12.4259 Y11.2865 I-1.9967 J-0.0072
G1 X18.0517 Y11.1744
G1 X18.0413 Y10.8341
G3 X17.4485 Y9.5065 I1.2188 J-1.3404
G3 X17.4484 Y9.4958 I0.9498 J-0.0067
G3 X19.2525 Y7.6906 I1.8127 J0.0075
G3 X19.2616 I0.0045 J0.9498
G3 X20.2583 Y7.995 I-0.0087 J1.8127
G3 X21.2556 Y7.6907 I1.0056 J1.5093
G3 X21.2665 I0.0044 J0.9498
G3 X22.5635 Y8.2501 I-0.0126 J1.8124
G1 X22.9342 Y8.2515
G3 X24.3506 Y7.6084 I1.4265 J1.2605
G3 X24.3595 I0.0051 J0.9498
G3 X26.2592 Y9.5081 I-0.0077 J1.9074
G3 Y9.5158 I-0.9498 J0.0038
G3 X24.3595 Y11.4155 I-1.9074 J-0.0077
G3 X24.3497 Y11.4154 I-0.0039 J-0.9498
G3 X22.9249 Y10.7612 I0.0119 J-1.9045
G1 X22.554 Y10.7599
G3 X21.8751 Y11.1995 I-1.2992 J-1.2625
G1 X21.9881 Y11.2017
G3 X22.8873 Y11.4621 I0.1257 J1.2487
G1 X22.8872
G1 X22.8873
G3 X23.3684 Y12.4198 I-0.7735 J0.9884
G3 X23.3688 Y12.4764 I-1.2545 J0.0355
G3 Y12.4818 I-1.29 J0.0002
G3 X23.3684 Y12.504 I-0.9498 J-0.0039
G1 X23.3369 Y13.6547
G3 X24.5812 Y13.1988 I1.2515 J1.49
G3 X24.5884 I0.0035 J0.9498
G3 X25.8559 Y13.6751 I-0.0075 J1.9449
G3 X27.1238 Y13.1988 I1.2753 J1.4691
G3 X27.1299 I0.0037 J0.9498
G3 X27.5466 Y13.2453 I-0.005 J1.9362
G1 X32.6308 Y9.3786
G3 X33.3052 Y8.0596 I1.8994 J0.1393
G1 X33.3807 Y4.5966
G1 X29.6592 Y4.1893
G1 F300.0 X29.6701 Y4.0899
G1 F800.0 X17.6136 Y2.7704
G3 X17.9467 Y3.3084 I-0.5041 J0.6841
G3 X18.6503 Y4.1455 I-0.1461 J0.8371
G1 Y4.3685
G3 X17.9467 Y5.2056 I-0.8498 J0.0
G3 X17.1095 Y5.9093 I-0.8371 J-0.1461
G1 X16.8893
G3 X16.436 Y5.7783 I0.0 J-0.8498
G1 Y6.2998
G3 X15.5862 Y7.1496 I-0.8498 J0.0
G1 X14.16
G1 X12.8183 Y9.2297
G3 X12.9291 Y9.8553 I-1.7724 J0.6365
G3 Y9.8633 I-0.8498 J0.0049
G3 X12.1456 Y11.3921 I-1.8967 J-0.0069
G1 X18.1547 Y11.2723
G1 X18.14 Y10.7879
G3 X17.5485 Y9.5058 I1.1202 J-1.2943
G3 X17.5484 Y9.4963 I0.8498 J-0.006
G3 X19.253 Y7.7906 I1.7127 J0.0071
G3 X19.2611 I0.0041 J0.8498
G3 X20.2583 Y8.1168 I-0.0082 J1.7127
G3 X21.256 Y7.7907 I1.0057 J1.3876
G3 X21.2658 I0.0039 J0.8498
G3 X22.5199 Y8.3499 I-0.0119 J1.7124
G1 X22.9799 Y8.3517
G3 X24.3511 Y7.7084 I1.3808 J1.1603
G3 X24.3591 I0.0045 J0.8498
G3 X26.1592 Y9.5085 I-0.0073 J1.8074
G3 Y9.5154 I-0.8498 J0.0034
G3 X24.3591 Y11.3155 I-1.8074 J-0.0073
G3 X24.3504 Y11.3154 I-0.0034 J-0.8498
G3 X22.9714 Y10.6614 I0.0113 J-1.8045
G1 X22.5112 Y10.6597
G3 X21.265 Y11.2089 I-1.2564 J-1.1624
G3 X21.256 I-0.005 J-0.8498
G3 X20.458 Y11.0076 I0.0079 J-1.7137
G1 X20.4659 Y11.2713
G1 X21.9922 Y11.3018
G3 X22.8256 Y11.5408 I0.1216 J1.1486
G3 X23.2685 Y12.4224 I-0.7118 J0.9096
G3 X23.2688 Y12.4756 I-1.1545 J0.0329
G3 Y12.4814 I-1.19 J0.001
G3 X23.2685 Y12.5012 I-0.8498 J-0.0035
G1 X23.2344 Y13.7434
G3 X23.3109 Y13.8123 I-1.1951 J1.4032
G3 X24.5816 Y13.2988 I1.2775 J1.3324
G3 X24.588 I0.0031 J0.8498
G3 X25.8559 Y13.8103 I-0.0071 J1.8449
G3 X27.1241 Y13.2988 I1.2753 J1.3339
G3 X27.1296 I0.0033 J0.8498
G3 X27.5696 Y13.3535 I-0.0048 J1.8362
G1 X32.7278 Y9.4305
G3 X33.4042 Y8.1078 I1.8024 J0.0874
G1 X33.4827 Y4.5072
G1 X29.6701 Y4.0899
G1 F300.0 X29.681 Y3.9905
G1 F800.0 X16.2261 Y2.5179
G3 X16.336 Y2.9088 I-0.6399 J0.3909
G1 Y2.9484
G3 X16.8893 Y2.7047 I0.5533 J0.506
G1 X17.1095
G3 X17.8572 Y3.3978 I0.0 J0.7498
G3 X18.5503 Y4.1455 I-0.0567 J0.7477
G1 Y4.3685
G3 X17.8572 Y5.1161 I-0.7498 J0.0
G3 X17.1095 Y5.8093 I-0.7477 J-0.0567
G1 X16.8893
G3 X16.336 Y5.5655 I0.0 J-0.7498
G1 Y6.2998
G3 X15.5862 Y7.0496 I-0.7498 J0.0
G1 X14.1055
G1 X12.707 Y9.2177
G3 X12.8291 Y9.8558 I-1.6611 J0.6485
G3 Y9.8629 I-0.7498 J0.0044
G3 X11.7586 Y11.4998 I-1.7967 J-0.0065
G1 X18.2577 Y11.3703
G1 X18.2386 Y10.7403
G3 X17.6485 Y9.5051 I1.0216 J-1.2466
G3 X17.6484 Y9.4967 I0.7498 J-0.0053
G3 X19.2534 Y7.8906 I1.6127 J0.0067
G3 X19.2606 I0.0036 J0.7498
G3 X20.2583 Y8.2423 I-0.0077 J1.6127
G3 X21.2565 Y7.8907 I1.0057 J1.262
G3 X21.2652 I0.0034 J0.7498
G3 X22.4748 Y8.4497 I-0.0112 J1.6124
G1 X23.0272 Y8.4519
G3 X24.3517 Y7.8084 I1.3336 J1.0601
G3 X24.3587 I0.004 J0.7498
G3 X26.0592 Y9.5089 I-0.0069 J1.7074
G3 Y9.515 I-0.7498 J0.003
G3 X24.3587 Y11.2155 I-1.7074 J-0.0069
G3 X24.351 Y11.2154 I-0.003 J-0.7498
G3 X23.0194 Y10.5615 I0.0107 J-1.7045
G1 X22.4668 Y10.5596
G3 X21.2644 Y11.1089 I-1.212 J-1.0622
G3 X21.2565 I-0.0044 J-0.7498
G3 X20.3526 Y10.827 I0.0074 J-1.6137
G1 X20.3688 Y11.3694
G1 X21.9967 Y11.4019
G3 X22.764 Y11.6196 I0.1171 J1.0485
G3 X23.1685 Y12.4251 I-0.6502 J0.8309
G3 X23.1688 Y12.4747 I-1.0545 J0.0303
G3 Y12.481 I-1.09 J0.0018
G3 X23.1685 Y12.4985 I-0.7498 J-0.0031
G1 X23.1331 Y13.7893
G3 X23.3111 Y13.9545 I-1.0938 J1.3573
G3 X24.582 Y13.3988 I1.2773 J1.1902
G3 X24.5876 I0.0028 J0.7498
G3 X25.8559 Y13.9525 I-0.0067 J1.7449
G3 X27.1245 Y13.3988 I1.2753 J1.1917
G3 X27.1294 I0.0029 J0.7498
G3 X27.5912 Y13.4626 I-0.0045 J1.7362
G1 X32.8261 Y9.4814
G3 X33.5031 Y8.1576 I1.7041 J0.0366
G1 X33.5847 Y4.4177
G1 X29.681 Y3.9905
G1 F300.0 X29.6918 Y3.8911
G1 F800.0 X16.0384 Y2.3968
G1 X15.9893 Y2.3991
G3 X16.236 Y2.9088 I-0.403 J0.5097
G1 Y3.4957
G1 X16.2395
G1 Y3.4545
G3 X16.8893 Y2.8047 I0.6498 J0.0
G1 X17.1095
G3 X17.7593 Y3.4545 I0.0 J0.6498
G1 Y3.4957
G1 X17.8005
G3 X18.4503 Y4.1455 I0.0 J0.6498
G1 Y4.3685
G3 X17.8005 Y5.0183 I-0.6498 J0.0
G1 X17.7593
G1 Y5.0595
G3 X17.1095 Y5.7093 I-0.6498 J0.0
G1 X16.8893
G3 X16.2395 Y5.0595 I0.0 J-0.6498
G1 Y5.054
G1 Y5.0183
G1 X16.236
G1 Y6.2998
G3 X15.5862 Y6.9496 I-0.6498 J0.0
G1 X14.051
G1 X12.5948 Y9.2072
G3 X12.7291 Y9.8564 I-1.5489 J0.659
G3 Y9.8626 I-0.6498 J0.0038
G3 X11.0394 Y11.5531 I-1.6967 J-0.0061
G3 X11.0342 I-0.0027 J-0.6498
G3 X9.7639 Y10.9738 I0.0067 J-1.6971
G3 X9.2266 Y11.3813 I-1.2724 J-1.1198
G1 X8.7798 Y14.3018
G3 X9.1128 Y14.8315 I-1.1679 J1.1037
G3 X9.2996 Y15.3978 I-0.7683 J0.5674
G3 X9.1145 Y15.964 I-0.9551 J0.0011
G3 X9.1034 Y15.9925 I-1.4776 J-0.5604
G1 X11.1827 Y19.5263
G1 X13.3311
G3 X13.8815 Y19.8308 I0.0 J0.6498
G1 X14.2961 Y19.8286
G1 X11.198 Y17.5053
G3 X10.7831 Y16.9089 I0.5176 J-0.8026
G3 X10.778 Y16.8836 I0.6345 J-0.1403
G3 X10.7709 Y16.8427 I0.9355 J-0.1835
G3 X10.7667 Y16.8126 I0.9523 J-0.1495
G3 X10.7637 Y16.7827 I0.6448 J-0.0805
G3 X10.7619 Y16.7547 I0.8409 J-0.0657
G3 X10.7601 Y16.7023 I0.944 J-0.0603
G1 X10.6655 Y12.5885
G3 X11.0099 Y11.8122 I0.9541 J-0.0412
G3 X11.7428 Y11.6002 I0.6097 J0.7351
G1 X18.3607 Y11.4682
G1 X18.3371 Y10.6909
G3 X17.7485 Y9.5044 I0.923 J-1.1972
G3 X17.7484 Y9.4971 I0.6498 J-0.0046
G3 X19.2539 Y7.9906 I1.5127 J0.0063
G3 X19.2601 I0.0031 J0.6498
G3 X20.2582 Y8.373 I-0.0072 J1.5127
G3 X21.257 Y7.9907 I1.0057 J1.1313
G3 X21.2645 I0.003 J0.6498
G3 X22.4279 Y8.5495 I-0.0105 J1.5124
G1 X23.0762 Y8.5521
G3 X24.3522 Y7.9084 I1.2846 J0.9599
G3 X24.3583 I0.0035 J0.6498
G3 X25.9592 Y9.5093 I-0.0065 J1.6074
G3 Y9.5146 I-0.6498 J0.0026
G3 X24.3583 Y11.1155 I-1.6074 J-0.0065
G3 X24.3516 Y11.1154 I-0.0026 J-0.6498
G3 X23.0691 Y10.4617 I0.01 J-1.6045
G1 X22.4208 Y10.4594
G3 X21.2638 Y11.0089 I-1.1659 J-0.9621
G3 X21.257 I-0.0039 J-0.6498
G3 X20.2583 Y10.6266 I0.007 J-1.5137
G3 X20.2469 Y10.6367 I-1.006 J-1.1305
G1 X20.2717 Y11.4675
G1 X22.0014 Y11.502
G3 X22.7024 Y11.6983 I0.1124 J0.9484
G3 X23.0686 Y12.4277 I-0.5886 J0.7521
G3 X23.0688 Y12.4739 I-0.9546 J0.0276
G1 Y12.4742
G3 Y12.4806 I-0.99 J0.0024
G3 X23.0685 Y12.4957 I-0.6498 J-0.0026
G1 X23.0318 Y13.837
G3 X23.3113 Y14.1064 I-0.9924 J1.3096
G3 X24.5823 Y13.4988 I1.277 J1.0382
G3 X24.5872 I0.0024 J0.6498
G3 X25.8559 Y14.1045 I-0.0063 J1.6449
G3 X27.1249 Y13.4988 I1.2753 J1.0397
G3 X27.1291 I0.0025 J0.6498
G3 X27.6115 Y13.5728 I-0.0043 J1.6362
G1 X32.9259 Y9.5311
G3 X32.9257 Y9.5187 I1.5755 J-0.0288
G3 Y9.5078 I0.6498 J-0.0068
G3 X33.602 Y8.2091 I1.6045 J0.0101
G1 X33.6867 Y4.3283
G1 X29.6918 Y3.8911
G1 F300.0 X29.7027 Y3.7917
G1 F800.0 X16.0415 Y2.2965
G1 X14.7066 Y2.359
G1 X15.5862
G3 X16.136 Y2.9088 I0.0 J0.5498
G1 Y3.5991
G3 X16.1972 Y3.5957 I0.0612 J0.5464
G1 X16.3395
G1 Y3.4545
G3 X16.8893 Y2.9047 I0.5498 J0.0
G1 X17.1095
G3 X17.6593 Y3.4545 I0.0 J0.5498
G1 Y3.5957
G1 X17.8005
G3 X18.3503 Y4.1455 I0.0 J0.5498
G1 Y4.3685
G3 X17.8005 Y4.9183 I-0.5498 J0.0
G1 X17.6593
G1 Y5.0595
G3 X17.1095 Y5.6093 I-0.5498 J0.0
G1 X16.8893
G3 X16.3395 Y5.0595 I0.0 J-0.5498
G1 Y5.054
G1 Y4.9183
G1 X16.1972
G3 X16.136 Y4.9149 I0.0 J-0.5498
G1 Y6.2998
G3 X15.5862 Y6.8496 I-0.5498 J0.0
G1 X13.9965
G1 X12.4814 Y9.1985
G3 X12.6291 Y9.857 I-1.4355 J0.6677
G3 Y9.8622 I-0.5498 J0.0032
G3 X11.039 Y11.4531 I-1.5967 J-0.0058
G3 X11.0346 I-0.0023 J-0.5498
G3 X9.7641 Y10.8154 I0.0063 J-1.5971
G3 X9.1359 Y11.313 I-1.2726 J-0.9614
G1 X8.6734 Y14.336
G3 X9.0243 Y14.8801 I-1.0615 J1.0696
G3 X9.1996 Y15.3979 I-0.6797 J0.5188
G3 X9.0258 Y15.9157 I-0.8551 J0.001
G3 X8.9918 Y16.0 I-1.3889 J-0.512
G1 X11.1255 Y19.6263
G1 X13.3311
G3 X13.8233 Y19.9311 I0.0 J0.5498
G1 X14.594 Y19.927
G1 X11.2551 Y17.4231
G3 X10.8807 Y16.8873 I0.4605 J-0.7204
G3 X10.8763 Y16.8652 I0.5368 J-0.1187
G3 X10.8698 Y16.8275 I0.8372 J-0.1651
G3 X10.8659 Y16.8002 I0.8535 J-0.1343
G3 X10.8634 Y16.7749 I0.5456 J-0.0681
G3 X10.8618 Y16.7493 I0.7412 J-0.0579
G3 X10.86 Y16.7008 I0.8442 J-0.0549
G1 X10.7654 Y12.5851
G3 X11.0737 Y11.8891 I0.8542 J-0.0379
G3 X11.7371 Y11.7003 I0.5459 J0.6581
G1 X18.4638 Y11.5662
G1 X18.4356 Y10.6396
G3 X17.8484 Y9.5037 I0.8245 J-1.1459
G3 Y9.4975 I0.5498 J-0.0039
G3 X19.2544 Y8.0906 I1.4127 J0.0059
G3 X19.2597 I0.0026 J0.5498
G3 X20.2582 Y8.5108 I-0.0068 J1.4127
G3 X21.2574 Y8.0907 I1.0057 J0.9935
G3 X21.2638 I0.0025 J0.5498
G3 X22.3792 Y8.6493 I-0.0098 J1.4124
G1 X23.1272 Y8.6523
G3 X24.3527 Y8.0084 I1.2336 J0.8597
G3 X24.3579 I0.0029 J0.5498
G3 X25.8592 Y9.5097 I-0.0061 J1.5074
G3 Y9.5142 I-0.5498 J0.0022
G3 X24.3579 Y11.0155 I-1.5074 J-0.0061
G3 X24.3522 Y11.0154 I-0.0022 J-0.5498
G3 X23.1209 Y10.3619 I0.0094 J-1.5045
G1 X22.3728 Y10.3592
G3 X21.2632 Y10.9089 I-1.1179 J-0.8619
G3 X21.2574 I-0.0033 J-0.5498
G3 X20.2583 Y10.4888 I0.0065 J-1.4137
G3 X20.1455 Y10.5914 I-1.006 J-0.9927
G1 X20.1746 Y11.5656
G1 X22.0065 Y11.6022
G3 X22.6407 Y11.7771 I0.1073 J0.8482
G3 X22.9686 Y12.4303 I-0.5269 J0.6734
G3 X22.9688 Y12.4729 I-0.8546 J0.025
G1 Y12.4743
G3 Y12.4802 I-0.89 J0.0022
G3 X22.9686 Y12.493 I-0.5498 J-0.0022
G1 X22.9304 Y13.8867
G3 X23.3116 Y14.2732 I-0.891 J1.2599
G3 X24.5827 Y13.5988 I1.2768 J0.8714
G3 X24.5868 I0.002 J0.5498
G3 X25.8559 Y14.2714 I-0.006 J1.5449
G3 X27.1253 Y13.5988 I1.2753 J0.8729
G3 X27.1288 I0.0021 J0.5498
G3 X27.6302 Y13.6843 I-0.004 J1.5362
G1 X33.0277 Y9.5793
G3 X33.0257 Y9.5176 I1.4737 J-0.077
G3 Y9.5085 I0.5498 J-0.0057
G3 X33.7009 Y8.2626 I1.5045 J0.0095
G1 X33.7886 Y4.2388
G1 X29.7027 Y3.7917
G1 F300.0 X29.7136 Y3.6923
G1 F800.0 X16.0446 Y2.1963
G1 X4.2525 Y2.748
G1 Y4.5738
G1 X5.7662 Y7.7308
G1 X6.1276 Y6.4496
G3 X5.889 Y6.0525 I0.2112 J-0.3971
G1 Y5.7981
G1 Y4.1451
G3 X6.3388 Y3.6953 I0.4498 J0.0
G1 X8.2462
G3 X8.696 Y4.1451 I0.0 J0.4498
G1 Y4.2832
G3 X9.8336 Y3.6953 I1.1443 J0.8196
G3 X9.8383 I0.0021 J0.4498
G3 X10.9271 Y4.222 I-0.0079 J1.405
G1 X12.8195 Y4.0182
G1 Y2.9088
G3 X13.2693 Y2.459 I0.4498 J0.0
G1 X15.5862
G3 X16.036 Y2.9088 I0.0 J0.4498
G1 Y3.7256
G3 X16.1972 Y3.6957 I0.1612 J0.4199
G1 X16.4395
G1 Y3.4545
G3 X16.8893 Y3.0047 I0.4498 J0.0
G1 X17.1095
G3 X17.5593 Y3.4545 I0.0 J0.4498
G1 Y3.6957
G1 X17.8005
G3 X18.2503 Y4.1455 I0.0 J0.4498
G1 Y4.3685
G3 X17.8005 Y4.8183 I-0.4498 J0.0
G1 X17.5593
G1 Y5.0595
G3 X17.1095 Y5.5093 I-0.4498 J0.0
G1 X16.8893
G3 X16.4395 Y5.0595 I0.0 J-0.4498
G1 Y5.054
G1 Y4.8183
G1 X16.1972
G3 X16.036 Y4.7884 I0.0 J-0.4498
G1 Y6.2998
G3 X15.5862 Y6.7496 I-0.4498 J0.0
G1 X13.942
G1 X12.3669 Y9.1916
G3 X12.5291 Y9.8576 I-1.321 J0.6746
G3 Y9.8618 I-0.4498 J0.0026
G3 X11.0386 Y11.3531 I-1.4967 J-0.0054
G3 X11.035 I-0.0019 J-0.4498
G3 X9.7643 Y10.6381 I0.0059 J-1.4971
G3 X9.0455 Y11.2425 I-1.2728 J-0.7841
G1 X8.5667 Y14.3722
G3 X8.9357 Y14.9292 I-0.9548 J1.0333
G3 X9.0996 Y15.398 I-0.5912 J0.4697
G3 X8.9372 Y15.8669 I-0.7551 J0.0009
G3 X8.8791 Y16.0056 I-1.3002 J-0.4632
G1 X11.0683 Y19.7263
G1 X13.3311
G3 X13.757 Y20.0315 I0.0 J0.4498
G1 X14.892 Y20.0254
G1 X11.312 Y17.3408
G3 X10.9784 Y16.8657 I0.4036 J-0.6381
G3 X10.9746 Y16.8467 I0.4392 J-0.0971
G3 X10.9686 Y16.8122 I0.7389 J-0.1466
G3 X10.9652 Y16.7879 I0.7546 J-0.119
G3 X10.9631 Y16.7672 I0.4463 J-0.0557
G3 X10.9617 Y16.7439 I0.6415 J-0.0501
G3 X10.96 Y16.6993 I0.7443 J-0.0495
G1 X10.8654 Y12.5817
G3 X11.1376 Y11.9661 I0.7542 J-0.0345
G3 X11.7309 Y11.8005 I0.482 J0.5811
G1 X18.5668 Y11.6642
G1 X18.534 Y10.5861
G3 X17.9484 Y9.503 I0.7261 J-1.0924
G3 Y9.4979 I0.4498 J-0.0032
G3 X19.2549 Y8.1906 I1.3127 J0.0054
G3 X19.2592 I0.0022 J0.4498
G3 X20.2582 Y8.6592 I-0.0063 J1.3127
G3 X21.2579 Y8.1907 I1.0057 J0.8451
G3 X21.2631 I0.0021 J0.4498
G3 X22.3282 Y8.7491 I-0.0091 J1.3124
G1 X23.1804 Y8.7525
G3 X24.3533 Y8.1084 I1.1804 J0.7595
G3 X24.3575 I0.0024 J0.4498
G3 X25.7592 Y9.5101 I-0.0057 J1.4074
G3 Y9.5137 I-0.4498 J0.0018
G3 X24.3575 Y10.9155 I-1.4074 J-0.0057
G3 X24.3529 Y10.9154 I-0.0018 J-0.4498
G3 X23.1748 Y10.2621 I0.0088 J-1.4045
G1 X22.3226 Y10.2591
G3 X21.2626 Y10.8089 I-1.0677 J-0.7617
G3 X21.2579 I-0.0027 J-0.4498
G3 X20.2582 Y10.3404 I0.006 J-1.3137
G3 X20.044 Y10.544 I-1.0059 J-0.8443
G1 X20.0774 Y11.6637
G1 X22.012 Y11.7023
G3 X22.5791 Y11.8558 I0.1018 J0.7481
G3 X22.8686 Y12.433 I-0.4653 J0.5946
G3 X22.8688 Y12.4718 I-0.7546 J0.0223
G1 Y12.4745
G3 Y12.4798 I-0.79 J0.0021
G3 X22.8686 Y12.4903 I-0.4498 J-0.0018
G1 X22.8289 Y13.9386
G3 X23.3118 Y14.4658 I-0.7896 J1.208
G3 X24.5831 Y13.6988 I1.2766 J0.6789
G3 X24.5864 I0.0017 J0.4498
G3 X25.8559 Y14.464 I-0.0056 J1.4449
G3 X27.1257 Y13.6988 I1.2753 J0.6803
G3 X27.1286 I0.0017 J0.4498
G3 X27.647 Y13.7971 I-0.0037 J1.4362
G1 X33.1312 Y9.6262
G3 X33.1257 Y9.5166 I1.3701 J-0.1239
G3 Y9.5091 I0.4498 J-0.0047
G3 X33.7997 Y8.3183 I1.4045 J0.0088
G1 X33.8906 Y4.1494
G1 X29.7136 Y3.6923
G1 F300.0 X29.7245 Y3.5929
G1 F800.0 X16.0477 Y2.096
G1 X4.1525 Y2.6526
G1 Y4.5965
G1 X5.7906 Y8.0128
G1 X6.2482 Y6.3904
G3 X5.989 Y6.0525 I0.0906 J-0.3379
G1 Y5.7981
G1 Y4.1451
G3 X6.3388 Y3.7953 I0.3498 J0.0
G1 X8.2462
G3 X8.596 Y4.1451 I0.0 J0.3498
G1 Y4.7011
G3 X9.8341 Y3.7953 I1.2443 J0.4017
G3 X9.8377 I0.0017 J0.3498
G3 X10.882 Y4.3275 I-0.0074 J1.305
G1 X12.9195 Y4.108
G1 Y2.9088
G3 X13.2693 Y2.559 I0.3498 J0.0
G1 X15.5862
G3 X15.936 Y2.9088 I0.0 J0.3498
G1 Y3.9128
G3 X16.1972 Y3.7957 I0.2612 J0.2327
G1 X16.5395
G1 Y3.4545
G3 X16.8893 Y3.1047 I0.3498 J0.0
G1 X17.1095
G3 X17.4593 Y3.4545 I0.0 J0.3498
G1 Y3.7957
G1 X17.8005
G3 X18.1503 Y4.1455 I0.0 J0.3498
G1 Y4.3685
G3 X17.8005 Y4.7183 I-0.3498 J0.0
G1 X17.4593
G1 Y5.0595
G3 X17.1095 Y5.4093 I-0.3498 J0.0
G1 X16.8893
G3 X16.5395 Y5.0595 I0.0 J-0.3498
G1 Y5.054
G1 Y4.7183
G1 X16.1972
G3 X15.936 Y4.6012 I0.0 J-0.3498
G1 Y6.2998
G3 X15.5862 Y6.6496 I-0.3498 J0.0
G1 X13.8875
G1 X12.2509 Y9.1869
G3 X12.4291 Y9.8582 I-1.205 J0.6793
G3 Y9.8615 I-0.3498 J0.002
G3 X11.0382 Y11.2531 I-1.3967 J-0.0051
G3 X11.0354 I-0.0015 J-0.3498
G3 X9.7646 Y10.4242 I0.0055 J-1.3971
G3 X8.9555 Y11.1695 I-1.2731 J-0.5702
G1 X8.4596 Y14.4109
G3 X8.8472 Y14.9789 I-0.8477 J0.9947
G3 X8.9996 Y15.3982 I-0.5027 J0.4201
G3 X8.8485 Y15.8175 I-0.6551 J0.0008
G3 X8.765 Y16.009 I-1.2116 J-0.4139
G1 X11.0111 Y19.8263
G1 X13.3311
G3 X13.6781 Y20.1319 I0.0 J0.3498
G1 X15.1899 Y20.1238
G1 X11.3687 Y17.2583
G3 X11.076 Y16.8441 I0.3469 J-0.5556
G3 X11.0729 Y16.8283 I0.3416 J-0.0755
G3 X11.0674 Y16.797 I0.6406 J-0.1282
G3 X11.0644 Y16.7755 I0.6558 J-0.1038
G3 X11.0628 Y16.7594 I0.3471 J-0.0433
G3 X11.0615 Y16.7385 I0.5418 J-0.0423
G3 X11.06 Y16.6978 I0.6444 J-0.0441
G1 X10.9653 Y12.5782
G3 X11.2014 Y12.0431 I0.6543 J-0.031
G3 X11.7242 Y11.9006 I0.4182 J0.5042
G1 X18.6698 Y11.7621
G1 X18.6324 Y10.5301
G3 X18.0484 Y9.5023 I0.6278 J-1.0364
G3 Y9.4983 I0.3498 J-0.0025
G3 X19.2553 Y8.2906 I1.2127 J0.005
G3 X19.2587 I0.0017 J0.3498
G3 X20.2582 Y8.825 I-0.0058 J1.2127
G3 X21.2583 Y8.2907 I1.0058 J0.6793
G3 X21.2624 I0.0016 J0.3498
G3 X22.2748 Y8.8489 I-0.0084 J1.2124
G1 X23.2361 Y8.8527
G3 X24.3538 Y8.2084 I1.1246 J0.6593
G3 X24.3571 I0.0019 J0.3498
G3 X25.6592 Y9.5105 I-0.0053 J1.3074
G3 Y9.5133 I-0.3498 J0.0014
G3 X24.3571 Y10.8155 I-1.3074 J-0.0053
G3 X24.3535 I-0.0014 J-0.3498
G3 X23.2313 Y10.1623 I0.0082 J-1.3045
G1 X22.2699 Y10.1589
G3 X21.262 Y10.7089 I-1.0151 J-0.6615
G3 X21.2583 I-0.0021 J-0.3498
G3 X20.2582 Y10.1746 I0.0056 J-1.2137
G3 X19.9425 Y10.494 I-1.0059 J-0.6785
G1 X19.9803 Y11.7617
G1 X22.0181 Y11.8024
G3 X22.5175 Y11.9346 I0.0957 J0.648
G3 X22.7687 Y12.4356 I-0.4037 J0.5158
G3 X22.7688 Y12.4707 I-0.6547 J0.0197
G1 Y12.4746
G3 Y12.4794 I-0.69 J0.002
G3 X22.7686 Y12.4875 I-0.3498 J-0.0014
G1 X22.7274 Y13.9931
G3 X23.3121 Y14.7175 I-0.688 J1.1536
G3 X24.5834 Y13.7988 I1.2763 J0.4271
G3 X24.5861 I0.0013 J0.3498
G3 X25.8559 Y14.7157 I-0.0052 J1.3449
G3 X27.1261 Y13.7988 I1.2754 J0.4285
G3 X27.1283 I0.0013 J0.3498
G3 X27.6618 Y13.9115 I-0.0035 J1.3362
G1 X33.2369 Y9.6715
G3 X33.2257 Y9.5156 I1.2645 J-0.1692
G3 Y9.5097 I0.3498 J-0.0036
G3 X33.8985 Y8.3766 I1.3045 J0.0082
G1 X33.9926 Y4.06
G1 X29.7245 Y3.5929
G0 Z3.0
G0 X29.8669 Y2.2911
G0 Z1.25
G1 F300.0 Z-0.15
G1 F800.0 X34.7096 Y2.821
G3 X34.7367 Y2.8238 I-0.0586 J0.6927
G3 X34.7527 Y2.8259 I-0.2461 J1.9863
G3 X34.7818 Y2.831 I-0.0458 J0.3468
G3 X34.8169 Y2.8383 I-0.1235 J0.6807
G3 X34.8422 Y2.8452 I-0.0802 J0.3405
G3 X35.0401 Y2.9404 I-0.1808 J0.6296
G3 X35.06 Y2.9546 I-0.1935 J0.2914
G3 X35.1078 Y2.9953 I-0.3932 J0.5106
G3 X35.1149 Y3.0021 I-0.2478 J0.2661
G3 X35.3154 Y3.5084 I-0.4537 J0.4724
G1 X35.2078 Y8.4041
G3 X35.8322 Y9.51 I-0.681 J1.1137
G3 Y9.5139 I-0.3498 J0.0021
G3 X35.001 Y10.7243 I-1.3066 J-0.0067
G1 X34.8603 Y11.6236
G3 X35.3427 Y12.6284 I-0.8209 J1.0123
G3 Y12.6316 I-0.3498 J0.002
G3 X35.1066 Y13.3738 I-1.298 J-0.0042
G1 X37.0501 Y17.5584
G3 X38.2342 Y18.8549 I-0.1228 J1.3011
G3 Y18.8574 I-0.3498 J0.0012
G3 X36.9327 Y20.1596 I-1.307 J-0.0047
G3 X36.9298 I-0.0015 J-0.3498
G3 X35.6271 Y18.8577 I0.0053 J-1.3079
G3 Y18.8551 I0.3498 J-0.0016
G3 X35.8632 Y18.1122 I1.2983 J0.0036
G1 X33.9197 Y13.9276
G3 X32.7356 Y12.6319 I0.1229 J-1.3012
G3 Y12.6285 I0.3498 J-0.0015
G3 X33.5664 Y11.4185 I1.3073 J0.0074
G1 X33.629 Y11.0189
G1 X28.4551 Y14.9535
G3 X28.4696 Y15.1382 I-1.2797 J0.193
G3 Y15.1422 I-0.3498 J0.0023
G3 X28.1611 Y15.9891 I-1.3355 J-0.0069
G1 X29.6614 Y19.8401
G1 X31.8441
G3 X32.1939 Y20.1899 I0.0 J0.3498
G1 Y21.4389
G3 X31.8441 Y21.7887 I-0.3498 J0.0
G1 X26.8316
G3 X26.4818 Y21.4389 I0.0 J-0.3498
G1 Y20.1899
G3 X26.8316 Y19.8401 I0.3498 J0.0
G1 X28.2555
G1 X26.9423 Y16.4692
G3 X25.8558 Y15.5652 I0.1894 J-1.3324
G3 X24.5863 Y16.4826 I-1.2756 J-0.4282
G3 X24.5832 I-0.0016 J-0.3498
G3 X23.3126 Y15.5648 I0.0057 J-1.3464
G3 X22.0424 Y16.4826 I-1.2761 J-0.4282
G3 X22.0394 I-0.0015 J-0.3498
G3 X20.769 Y15.563 I0.0057 J-1.3453
G3 X20.7046 Y15.7194 I-1.2653 J-0.4293
G1 X24.0133 Y20.4337
G3 X24.1696 Y20.749 I-0.4871 J0.438
G1 X24.1697 Y20.7491
G3 X24.1711 Y20.7563 I-0.3427 J0.07
G3 X24.1837 Y20.8687 I-0.6419 J0.1292
G1 X25.3078 Y32.155
G1 X26.4853 Y32.1628
G3 X26.8316 Y31.8626 I0.3463 J0.0496
G1 X31.8441
G3 X32.1939 Y32.2124 I0.0 J0.3498
G1 Y33.462
G3 X31.8441 Y33.8118 I-0.3498 J0.0
G1 X26.8316 Y33.8117
G3 X26.4819 Y33.4727 I0.0 J-0.3498
G1 X24.7909 Y33.4614
G3 X24.7025 Y33.4656 I-0.0751 J-0.6512
G3 X24.4909 Y33.4261 I0.0128 J-0.655
G3 X24.0487 Y32.7405 I0.2096 J-0.6206
G1 X22.8919 Y21.1167
G1 X19.634 Y16.4745
G3 X19.5005 Y16.4826 I-0.144 J-1.2761
G3 X19.4962 I-0.0029 J-0.3498
G3 X18.2254 Y15.5631 I0.0057 J-1.3458
G3 X18.1412 Y15.7585 I-1.263 J-0.4283
G1 X20.7046 Y19.6759
G3 X20.8217 Y19.9058 I-0.5137 J0.4065
G3 X20.8426 Y20.0018 I-0.6308 J0.1877
G1 X23.6144 Y34.1864
G1 X26.3618 Y34.1887
G3 X26.7102 Y33.8705 I0.3484 J0.0316
G1 X31.7227
G3 X32.0725 Y34.2203 I0.0 J0.3498
G1 Y35.4698
G3 X31.7227 Y35.8196 I-0.3498 J0.0
G1 X26.7102
G3 X26.3615 Y35.4981 I0.0 J-0.3498
G1 X23.1542 Y35.4957
G3 X23.0597 Y35.5 I-0.0768 J-0.65
G3 X22.8663 Y35.4659 I0.0154 J-0.6548
G3 X22.4064 Y34.8348 I0.1951 J-0.6253
G1 X19.5748 Y20.3408
G1 X17.047 Y16.4783
G3 X16.9597 Y16.4825 I-0.1073 J-1.3175
G3 X16.9529 Y16.4826 I-0.0053 J-0.3498
G3 X15.683 Y15.5657 I0.0057 J-1.3458
G3 X14.4127 Y16.4826 I-1.276 J-0.4295
G3 X14.4097 I-0.0015 J-0.3498
G3 X13.0696 Y15.1417 I0.0057 J-1.3458
G3 Y15.1391 I0.3498 J-0.0013
G3 X14.4098 Y13.7988 I1.3454 J0.0052
G3 X14.4125 I0.0013 J0.3498
G3 X15.683 Y14.7154 I-0.0052 J1.346
G3 X16.9531 Y13.7988 I1.2753 J0.4289
G3 X16.9558 I0.0013 J0.3498
G3 X18.226 Y14.716 I-0.0052 J1.3454
G3 X19.4963 Y13.7988 I1.2755 J0.4283
G3 X19.499 I0.0013 J0.3498
G3 X20.7702 Y14.7174 I-0.0052 J1.346
G3 X21.4182 Y13.9575 I1.2726 J0.429
G1 X21.4415 Y13.1018
G1 X19.4073 Y13.0595
G3 X19.3624 Y13.0626 I-0.0685 J-0.6518
G3 X19.3491 Y13.0629 I-0.0126 J-0.3496
G3 X19.2833 Y13.0594 I0.0012 J-0.6574
G1 X12.2897 Y13.1998
G1 X12.3627 Y16.3666
G1 X17.4599 Y20.1884
G3 X17.492 Y20.2079 I-0.3247 J0.5717
G3 X17.8031 Y20.8491 I-0.3389 J0.5605
G1 X19.0471 Y37.2395
G1 X33.8052 Y37.294
G1 X33.8131
G3 X33.8192 Y37.2941 I0.0025 J0.6408
G3 X33.8223 I-0.002 J0.3498
G1 X40.6892 Y37.3942
G3 X40.3653 Y36.5382 I0.9842 J-0.8617
G3 Y36.5351 I0.3498 J-0.0015
G3 X41.6678 Y35.2326 I1.3083 J0.0058
G3 X41.671 I0.0016 J0.3498
G3 X42.9723 Y36.5355 I-0.0059 J1.3073
G3 Y36.5387 I-0.3498 J0.0012
G3 X42.2387 Y37.7045 I-1.3053 J-0.0076
G1 X42.2101 Y38.0962
G3 X42.2091 Y38.1116 I-0.5531 J-0.0283
G3 X42.206 Y38.1427 I-0.6377 J-0.0474
G3 X42.2048 Y38.153 I-0.348 J-0.0358
G3 X41.563 Y38.7216 I-0.6493 J-0.0864
G3 X41.5626 I-0.004 J-0.3498
G3 X41.4723 Y38.7163 I-0.0066 J-0.6543
G1 X33.8052 Y38.6041
G1 X18.5117 Y38.5479
G3 X18.416 Y38.5514 I-0.0721 J-0.6517
G3 X18.4143 Y38.5513 I0.0126 J-0.3496
G3 X17.7949 Y38.0041 I0.0267 J-0.6545
G3 X17.7937 Y37.9964 I0.3451 J-0.0573
G3 X17.7927 Y37.9891 I0.4326 J-0.0619
G3 X17.7874 Y37.9434 I0.6449 J-0.0979
G3 X17.7866 Y37.9311 I0.3487 J-0.028
G1 X16.5337 Y21.4257
G1 X13.6805 Y21.4413
G3 X13.3311 Y21.7755 I-0.3495 J-0.0156
G1 X8.3185
G3 X7.9687 Y21.4257 I0.0 J-0.3498
G1 Y21.326
G1 X6.2522 Y21.2472
G3 X5.1603 Y21.8456 I-1.0976 J-0.7076
G3 X5.1574 I-0.0015 J-0.3498
G3 X3.8558 Y20.5433 I0.0053 J-1.3069
G3 Y20.5408 I0.3498 J-0.0012
G3 X5.1573 Y19.2385 I1.307 J0.0047
G3 X5.161 I0.0015 J0.3498
G3 X6.3094 Y19.939 I-0.0082 J1.3052
G1 X8.0073 Y20.0165
G3 X8.3185 Y19.8263 I0.3113 J0.1596
G1 X9.4916
G1 X7.6525 Y16.7025
G3 X7.6156 Y16.7028 I-0.0289 J-1.1653
G3 X6.3779 Y15.7989 I0.0059 J-1.3074
G1 Y16.353
G3 X6.0281 Y16.7028 I-0.3498 J0.0
G1 X4.1206
G3 X3.7708 Y16.353 I0.0 J-0.3498
G1 Y16.098
G1 Y14.445
G3 X4.1206 Y14.0952 I0.3498 J0.0
G1 X4.6177
G1 X5.0672 Y11.2531
G1 X4.9071
G3 X4.5573 Y10.9033 I0.0 J-0.3498
G1 Y10.6489
G1 Y8.8176
G3 X4.6246 Y8.6114 I0.3498 J0.0
G1 X2.8987 Y5.0109
G1 X1.4858
G3 X1.136 Y4.6611 I0.0 J-0.3498
G1 Y1.2701
G3 X1.4858 Y0.9203 I0.3498 J0.0
G1 X3.8027
G3 X4.1525 Y1.2701 I0.0 J0.3498
G1 Y1.3418
G1 X15.9785 Y0.7884
G3 X16.0847 Y0.784 I0.0803 J0.6513
G3 X16.2054 Y0.7963 I-0.0056 J0.6546
G1 X29.8669 Y2.2911
G1 F300.0 X29.8561 Y2.3903
G1 F800.0 X34.7 Y2.9203
G3 X34.7245 Y2.9229 I-0.049 J0.5934
G3 X34.7397 Y2.9248 I-0.2338 J1.8872
G3 X34.7621 Y2.9288 I-0.0327 J0.2478
G3 X34.794 Y2.9354 I-0.1038 J0.5829
G3 X34.8133 Y2.9408 I-0.0573 J0.2433
G3 X34.9837 Y3.0227 I-0.1519 J0.5341
G3 X34.9991 Y3.0337 I-0.1371 J0.209
G3 X35.0397 Y3.0682 I-0.3323 J0.4315
G3 X35.0454 Y3.0737 I-0.1797 J0.1932
G3 X35.2157 Y3.5046 I-0.3841 J0.4009
G1 X35.1068 Y8.4608
G3 X35.7324 Y9.5106 I-0.5799 J1.0569
G3 Y9.5134 I-0.25 J0.0015
G3 X34.9115 Y10.6507 I-1.2068 J-0.0062
G1 X34.7526 Y11.6665
G3 X35.2429 Y12.629 I-0.7131 J0.9694
G3 Y12.6312 I-0.25 J0.0014
G3 X34.9912 Y13.3621 I-1.1982 J-0.0039
G1 X36.9844 Y17.6537
G3 X38.1344 Y18.8552 I-0.0571 J1.2057
G3 Y18.857 I-0.25 J0.0009
G3 X36.9323 Y20.0598 I-1.2072 J-0.0044
G3 X36.9302 I-0.001 J-0.25
G3 X35.7269 Y18.8572 I0.0049 J-1.2081
G3 Y18.8554 I0.25 J-0.0011
G3 X35.9786 Y18.1239 I1.1985 J0.0034
G1 X33.9854 Y13.8323
G3 X32.8354 Y12.6315 I0.0572 J-1.2058
G3 Y12.629 I0.25 J-0.001
G3 X33.6559 Y11.492 I1.2075 J0.0068
G1 X33.7661 Y10.7894
G1 X28.3463 Y14.9108
G3 X28.3698 Y15.1388 I-1.1709 J0.2357
G3 Y15.1417 I-0.25 J0.0016
G3 X28.0462 Y15.9691 I-1.2357 J-0.0064
G1 X29.5932 Y19.9399
G1 X31.8441
G3 X32.0941 Y20.1899 I0.0 J0.25
G1 Y21.4389
G3 X31.8441 Y21.6889 I-0.25 J0.0
G1 X26.8316
G3 X26.5816 Y21.4389 I0.0 J-0.25
G1 Y20.1899
G3 X26.8316 Y19.9399 I0.25 J0.0
G1 X28.4015
G1 X27.0135 Y16.3772
G3 X25.8856 Y15.1413 I0.1181 J-1.2404
G3 Y15.1394 I0.25 J-0.0009
G3 X27.1264 Y13.8986 I1.2456 J0.0048
G3 X27.1281 I0.001 J0.25
G3 X27.6743 Y14.0274 I-0.0032 J1.2364
G1 X33.3448 Y9.7148
G3 X33.3255 Y9.5145 I1.1566 J-0.2125
G3 Y9.5104 I0.25 J-0.0026
G3 X33.997 Y8.4376 I1.2047 J0.0076
G1 X34.0943 Y3.9707
G1 X16.0509 Y1.9959
G1 X4.0527 Y2.5573
G1 Y4.6192
G1 X5.8149 Y8.2943
G1 X6.3767 Y6.3025
G1 X6.3388
G3 X6.0888 Y6.0525 I0.0 J-0.25
G1 Y5.7981
G1 Y4.1451
G3 X6.3388 Y3.8951 I0.25 J0.0
G1 X8.2462
G3 X8.4962 Y4.1451 I0.0 J0.25
G1 Y6.0525
G3 X8.2462 Y6.3025 I-0.25 J0.0
G1 X7.5298
G1 X6.8914 Y8.5676
G1 X6.9928
G3 X7.2428 Y8.8176 I0.0 J0.25
G1 Y9.5369
G3 X8.4926 Y8.5676 I1.2544 J0.327
G3 X8.4944 I0.0009 J0.25
G3 X9.7651 Y9.6292 I-0.0047 J1.2969
G3 X11.0359 Y8.5676 I1.2752 J0.2351
G3 X11.0376 I0.0009 J0.25
G3 X11.2024 Y8.5796 I-0.0043 J1.2025
G1 X12.9563 Y5.8617
G3 X13.0193 Y5.7766 I0.4758 J0.2861
G1 Y5.3143
G1 X10.9545 Y5.5367
G3 X9.8369 Y6.3025 I-1.1233 J-0.4409
G3 X9.8349 I-0.0012 J-0.25
G3 X8.6326 Y5.1003 I0.0044 J-1.2067
G3 Y5.0984 I0.25 J-0.0009
G3 X9.8346 Y3.8951 I1.2077 J0.0043
G3 X9.8372 I0.0012 J0.25
G3 X10.834 Y4.433 I-0.0068 J1.2052
G1 X13.0193 Y4.1976
G1 Y2.9088
G3 X13.2693 Y2.6588 I0.25 J0.0
G1 X15.5862
G3 X15.8362 Y2.9088 I0.0 J0.25
G1 Y6.2998
G3 X15.5862 Y6.5498 I-0.25 J0.0
G1 X13.8331
G1 X12.1335 Y9.1848
G3 X12.3293 Y9.8588 I-1.0876 J0.6814
G3 Y9.8611 I-0.25 J0.0015
G3 X11.0378 Y11.1533 I-1.2969 J-0.0047
G3 X11.0357 I-0.001 J-0.25
G3 X9.7649 Y10.0902 I0.0052 J-1.2973
G3 X8.8661 Y11.0938 I-1.2734 J-0.2362
G1 X8.3523 Y14.4522
G3 X8.7589 Y15.0293 I-0.7404 J0.9534
G3 X8.8998 Y15.3983 I-0.4143 J0.3697
G3 X8.76 Y15.7674 I-0.5553 J0.0007
G3 X8.6498 Y16.01 I-1.1231 J-0.3638
G1 X10.9541 Y19.9261
G1 X13.3311
G3 X13.5811 Y20.1761 I0.0 J0.25
G1 Y20.2322
G1 X15.4872 Y20.2221
G1 X11.4251 Y17.1758
G3 X11.1735 Y16.8225 I0.2905 J-0.4731
G3 X11.171 Y16.8101 I0.2441 J-0.054
G3 X11.1661 Y16.7818 I0.5425 J-0.11
G3 X11.1634 Y16.7631 I0.5572 J-0.0886
G3 X11.1623 Y16.7516 I0.2481 J-0.031
G3 X11.1612 Y16.7332 I0.4423 J-0.0345
G3 X11.1598 Y16.6965 I0.5448 J-0.0387
G1 X11.0651 Y12.5747
G3 X11.2651 Y12.1199 I0.5545 J-0.0275
G3 X11.7168 Y12.0006 I0.3545 J0.4274
G1 X18.7726 Y11.8599
G1 X18.7304 Y10.4713
G3 X18.1482 Y9.5015 I0.5297 J-0.9776
G3 Y9.4987 I0.25 J-0.0018
G3 X19.2558 Y8.3904 I1.1129 J0.0046
G3 X19.2582 I0.0012 J0.25
G3 X20.2581 Y9.0257 I-0.0053 J1.1129
G3 X21.2588 Y8.3905 I1.0058 J0.4786
G3 X21.2617 I0.0011 J0.25
G3 X22.2185 Y8.9485 I-0.0077 J1.1126
G1 X23.2947 Y8.9528
G3 X24.3543 Y8.3082 I1.066 J0.5592
G3 X24.3567 I0.0013 J0.25
G3 X25.5594 Y9.5109 I-0.0049 J1.2076
G3 Y9.5129 I-0.25 J0.001
G3 X24.3567 Y10.7157 I-1.2076 J-0.0049
G3 X24.3541 I-0.001 J-0.25
G3 X23.2907 Y10.0627 I0.0075 J-1.2047
G1 X22.2144 Y10.0589
G3 X21.2614 Y10.6091 I-0.9596 J-0.5615
G3 X21.2588 I-0.0015 J-0.25
G3 X20.2581 Y9.9739 I0.0051 J-1.1139
G3 X19.8411 Y10.4412 I-1.0058 J-0.4778
G1 X19.8834 Y11.8596
G1 X22.0248 Y11.9024
G3 X22.456 Y12.0132 I0.089 J0.548
G3 X22.6689 Y12.4382 I-0.3422 J0.4373
G3 X22.669 Y12.4694 I-0.5549 J0.0171
G1 Y12.4695
G1 Y12.4694
G1 Y12.4747
G3 Y12.479 I-0.5902 J0.0018
G3 X22.6689 Y12.4848 I-0.25 J-0.001
G1 X22.626 Y14.0503
G3 X23.2827 Y15.1389 I-0.5866 J1.0963
G3 Y15.1414 I-0.25 J0.0016
G3 X22.042 Y16.3828 I-1.2462 J-0.0048
G3 X22.0398 I-0.0011 J-0.25
G3 X20.7997 Y15.1412 I0.0053 J-1.2455
G3 Y15.1389 I0.25 J-0.0008
G3 X21.5163 Y14.0202 I1.2431 J0.0075
G1 X21.544 Y13.0041
G1 X19.4028 Y12.9596
G3 X19.3588 Y12.9629 I-0.0641 J-0.5519
G3 X19.3493 Y12.9631 I-0.009 J-0.2498
G3 X19.2877 Y12.9595 I0.0011 J-0.5576
G1 X12.1877 Y13.102
G1 X12.2641 Y16.4173
G1 X17.4054 Y20.2722
G3 X17.4391 Y20.2925 I-0.2701 J0.4879
G3 X17.7028 Y20.8463 I-0.286 J0.4759
G1 X18.9546 Y37.339
G1 X33.805 Y37.3938
G1 X33.8133
G3 X33.8186 I0.0023 J0.541
G3 X33.8209 Y37.3939 I-0.0014 J0.25
G1 X40.9465 Y37.4978
G3 X40.4651 Y36.5378 I0.7269 J-0.9652
G3 Y36.5356 I0.25 J-0.0011
G3 X41.6683 Y35.3324 I1.2085 J0.0054
G3 X41.6705 I0.0011 J0.25
G3 X42.8726 Y36.5359 I-0.0054 J1.2075
G3 X42.8725 Y36.5382 I-0.25 J0.0008
G3 X42.1435 Y37.6384 I-1.2055 J-0.0071
G1 X42.1105 Y38.0901
G3 X42.1096 Y38.104 I-0.4535 J-0.0222
G3 X42.1069 Y38.1315 I-0.5382 J-0.0397
G3 X42.1059 Y38.1399 I-0.2488 J-0.0246
G3 X41.5618 Y38.6218 I-0.5503 J-0.0732
G3 X41.5615 I-0.0028 J-0.25
G3 X41.4797 Y38.6166 I-0.0056 J-0.5545
G1 X33.8061 Y38.5043
G1 X18.5062 Y38.448
G3 X18.4196 Y38.4517 I-0.0666 J-0.5519
G3 X18.4184 Y38.4516 I0.009 J-0.2498
G3 X17.8933 Y37.9878 I0.0226 J-0.5548
G3 X17.8925 Y37.9822 I0.2466 J-0.0409
