(Generated by PartKam Version 0.05)

G21 G90 G40

(pocket 1)
G0 Z15
T0 M6
G17
M3
G0 X34.651269035533 Y2.9911167512690353
G1 Z-0.15 F100
G1 X34.66751269035533 Y2.9923857868020303 F600
G1 X34.69035532994924 Y2.99492385786802
G1 X34.713197969543145 Y3
G1 X34.736040609137056 Y3.00507614213198
G3 X34.8248730964467 Y3.0380710659898473 I-0.11928934010152284 J0.46446700507614214
G3 X34.90862944162436 Y3.0888324873096447 I-0.2081218274111675 J0.4314720812182741
G1 X34.92639593908629 Y3.101522842639594
G1 X34.944162436548226 Y3.1192893401015227
G3 X35.01269035532995 Y3.197969543147208 I-0.32741116751269034 J0.35279187817258884
G3 X35.06345177664975 Y3.2918781725888326 I-0.3959390862944162 J0.2715736040609137
G3 X35.09137055837564 Y3.3959390862944163 I-0.4467005076142132 J0.17766497461928935
G3 X35.09644670050761 Y3.469543147208122 I-0.47461928934010156 J0.07360406091370558
G3 X35.09644670050761 Y3.50253807106599 I-0.47969543147208127 J0
G1 X34.98730964467005 Y8.49492385786802
G3 X35.16497461928934 Y8.606598984771574 I-0.5101522842639594 J1.0203045685279188
G3 X35.401015228426395 Y8.847715736040609 I-0.6903553299492386 J0.9086294416243655
G3 X35.558375634517766 Y9.157360406091371 I-0.9086294416243655 J0.6548223350253807
G3 X35.61167512690355 Y9.5 I-1.0558375634517767 J0.3401015228426396
G3 X35.54314720812182 Y9.888324873096447 I-1.114213197969543 J0
G3 X35.34263959390863 Y10.228426395939085 I-1.0583756345177666 J-0.3934010152284264
G3 X35.04060913705584 Y10.47715736040609 I-0.868020304568528 J-0.7411167512690355
G3 X34.799492385786806 Y10.578680203045685 I-0.5583756345177665 J-0.9771573604060914
G1 X34.62690355329949 Y11.685279187817258
G3 X34.763959390862944 Y11.794416243654823 I-0.6522842639593909 J0.9568527918781726
G3 X34.95431472081218 Y12.025380710659899 I-0.7766497461928934 J0.8350253807106599
G3 X35.08121827411168 Y12.309644670050762 I-0.9441624365482233 J0.5913705583756345
G3 X35.1243654822335 Y12.614213197969544 I-1.0609137055837563 J0.30456852791878175
G3 X35.098984771573605 Y12.845177664974619 I-1.1091370558375635 J0
G3 X35.02791878172589 Y13.063451776649746 I-1.0837563451776648 J-0.23096446700507614
G3 X34.91878172588832 Y13.256345177664974 I-1.0304568527918783 J-0.45685279187817257
G3 X34.857868020304565 Y13.33502538071066 I-0.9467005076142132 J-0.6700507614213198
G1 X36.88832487309645 Y17.705583756345177
G3 X37.31472081218274 Y17.789340101522843 I-0.005076142131979696 J1.116751269035533
G3 X37.68020304568528 Y18.03553299492386 I-0.4365482233502538 J1.0482233502538072
G3 X37.92639593908629 Y18.403553299492387 I-0.8045685279187818 J0.8020304568527918
G3 X38.01015228426396 Y18.83248730964467 I-1.032994923857868 J0.4289340101522843
G3 X37.92639593908629 Y19.261421319796955 I-1.119289340101523 J0
G3 X37.68020304568528 Y19.626903553299492 I-1.0482233502538072 J-0.4365482233502538
G3 X37.31472081218274 Y19.873096446700508 I-0.8020304568527918 J-0.8020304568527918
G3 X36.88324873096447 Y19.95939086294416 I-0.4289340101522843 J-1.0304568527918783
G3 X36.454314720812185 Y19.873096446700508 I0 J-1.116751269035533
G3 X36.088832487309645 Y19.626903553299492 I0.4365482233502538 J-1.050761421319797
G3 X35.84263959390863 Y19.261421319796955 I0.8045685279187818 J-0.8045685279187818
G3 X35.756345177664976 Y18.83248730964467 I1.0304568527918783 J-0.4289340101522843
G3 X35.77918781725889 Y18.601522842639593 I1.1091370558375635 J0
G3 X35.8502538071066 Y18.38071065989848 I1.0862944162436547 J0.23096446700507614
G3 X35.96192893401015 Y18.187817258883246 I1.0304568527918783 J0.45685279187817257
G3 X36.02030456852792 Y18.111675126903553 I0.9441624365482233 J0.6675126903553299
G1 X33.98984771573604 Y13.741116751269036
G3 X33.565989847715734 Y13.654822335025381 I0.005076142131979696 J-1.119289340101523
G3 X33.2005076142132 Y13.411167512690357 I0.4365482233502538 J-1.0482233502538072
G3 X32.954314720812185 Y13.043147208121828 I0.8020304568527918 J-0.8020304568527918
G3 X32.86802030456853 Y12.614213197969544 I1.0304568527918783 J-0.4289340101522843
G3 X32.93654822335026 Y12.225888324873095 I1.114213197969543 J0
G3 X33.13705583756345 Y11.885786802030456 I1.0583756345177666 J0.3934010152284264
G3 X33.43908629441624 Y11.637055837563452 I0.868020304568528 J0.7411167512690355
G3 X33.680203045685275 Y11.535532994923859 I0.5583756345177665 J0.9746192893401016
G1 X33.8248730964467 Y10.604060913705585
G1 X28.215736040609137 Y14.870558375634516
G1 X28.256345177664976 Y15.088832487309645
G3 X28.258883248730964 Y15.121827411167512 I-0.17258883248730966 J0.03299492385786802
G3 X28.228426395939085 Y15.380710659898478 I-1.134517766497462 J0
G3 X28.139593908629443 Y15.626903553299492 I-1.1116751269035532 J-0.2614213197969543
G3 X28.005076142131983 Y15.837563451776651 I-1.050761421319797 J-0.5203045685279188
G3 X27.923857868020306 Y15.931472081218274 I-0.9492385786802031 J-0.7588832487309645
G1 X29.50507614213198 Y19.98984771573604
G1 X31.80456852791878 Y19.98984771573604
G3 X31.97969543147208 Y20.16497461928934 I0 J0.17512690355329952
G1 X31.97969543147208 Y21.411167512690355
G3 X31.80456852791878 Y21.586294416243653 I-0.17512690355329952 J0
G1 X26.796954314720814 Y21.586294416243653
G3 X26.621827411167512 Y21.411167512690355 I0 J-0.17512690355329952
G1 X26.621827411167512 Y20.16497461928934
G1 X26.621827411167512 Y20.16497461928934
G3 X26.796954314720814 Y19.98984771573604 I0.17512690355329952 J0
G1 X28.4746192893401 Y19.98984771573604
G1 X27.03045685279188 Y16.284263959390863
G3 X26.649746192893403 Y16.19796954314721 I0.06091370558375635 J-1.1522842639593909
G3 X26.269035532994923 Y15.944162436548224 I0.45177664974619286 J-1.0837563451776648
G3 X26.015228426395936 Y15.565989847715736 I0.83248730964467 J-0.8299492385786802
G3 X25.926395939086294 Y15.121827411167512 I1.0659898477157361 J-0.44416243654822335
G3 X26.015228426395936 Y14.677664974619288 I1.1548223350253808 J0
G3 X26.269035532994923 Y14.29695431472081 I1.0837563451776648 J0.45177664974619286
G3 X26.649746192893403 Y14.043147208121827 I0.8299492385786802 J0.8299492385786802
G3 X27.09390862944162 Y13.954314720812182 I0.44416243654822335 J1.0659898477157361
G3 X27.27157360406091 Y13.969543147208121 I0 J1.1472081218274113
G3 X27.446700507614214 Y14.012690355329948 I-0.1802030456852792 J1.131979695431472
G3 X27.606598984771576 Y14.076142131979697 I-0.35786802030456855 J1.1015228426395938
G3 X27.64720812182741 Y14.096446700507615 I-0.5304568527918782 J1.0634517766497462
G1 X33.39593908629442 Y9.725888324873097
G1 X33.360406091370564 Y9.530456852791879
G3 X33.357868020304565 Y9.5 I0.17258883248730966 J-0.030456852791878174
G3 X33.41624365482233 Y9.147208121827411 I1.1065989847715736 J0
G3 X33.58121827411168 Y8.829949238578681 I1.0609137055837563 J0.3553299492385787
G3 X33.83248730964467 Y8.586294416243655 I0.9111675126903553 J0.6878172588832487
G3 X34.02791878172589 Y8.474619289340101 I0.6598984771573604 J0.9289340101522843
G1 X34.12690355329949 Y3.8984771573604062
G1 X16.032994923857867 Y1.918781725888325
G1 X3.972081218274112 Y2.482233502538071
G1 X3.972081218274112 Y4.614213197969543
G1 X5.8248730964467015 Y8.48984771573604
G1 X6.467005076142131 Y6.220812182741117
G1 X6.32994923857868 Y6.220812182741117
G3 X6.154822335025381 Y6.045685279187817 I0 J-0.17512690355329952
G1 X6.154822335025381 Y5.789340101522843
G1 X6.154822335025381 Y4.1395939086294415
G3 X6.32994923857868 Y3.964467005076142 I0.17512690355329952 J0
G1 X8.236040609137056 Y3.964467005076142
G3 X8.411167512690355 Y4.1395939086294415 I0 J0.17512690355329952
G1 X8.411167512690355 Y6.045685279187817
G3 X8.236040609137056 Y6.220812182741117 I-0.17512690355329952 J0
G1 X7.464467005076142 Y6.220812182741117
G1 X6.784263959390863 Y8.631979695431472
G1 X6.9847715736040605 Y8.631979695431472
G3 X7.159898477157361 Y8.807106598984772 I0 J0.17512690355329952
G1 X7.159898477157361 Y10.888324873096447
G3 X6.9847715736040605 Y11.063451776649746 I-0.17512690355329952 J0
G1 X6.2360406091370555 Y11.063451776649746
G1 X5.730964467005077 Y14.251269035532994
G1 X6.020304568527919 Y14.251269035532994
G3 X6.195431472081219 Y14.426395939086294 I0 J0.17512690355329952
G1 X6.195431472081219 Y16.33248730964467
G3 X6.020304568527919 Y16.507614213197968 I-0.17512690355329952 J0
G1 X4.114213197969542 Y16.507614213197968
G3 X3.941624365482234 Y16.33248730964467 I0 J-0.17512690355329952
G1 X3.941624365482234 Y16.076142131979697
G1 X3.941624365482234 Y14.426395939086294
G3 X4.114213197969542 Y14.251269035532994 I0.17512690355329952 J0
G1 X4.761421319796954 Y14.251269035532994
G1 X5.2639593908629445 Y11.063451776649746
G1 X4.901015228426396 Y11.063451776649746
G3 X4.725888324873097 Y10.888324873096447 I0 J-0.17512690355329952
G1 X4.725888324873097 Y10.634517766497462
G1 X4.725888324873097 Y8.807106598984772
G3 X4.83248730964467 Y8.644670050761421 I0.17512690355329952 J0
G1 X3.00507614213198 Y4.82994923857868
G1 X1.484771573604061 Y4.82994923857868
G3 X1.3096446700507614 Y4.654822335025381 I0 J-0.17512690355329952
G1 X1.3096446700507614 Y1.2690355329949239
G3 X1.484771573604061 Y1.0939086294416243 I0.17512690355329952 J0
G1 X3.7969543147208125 Y1.0939086294416243
G3 X3.972081218274112 Y1.2690355329949239 I0 J0.17512690355329952
G1 X3.972081218274112 Y1.5228426395939088
G1 X15.974619289340101 Y0.9619289340101522
G3 X16.01522842639594 Y0.9568527918781726 I0.06598984771573604 J0.47461928934010156
G3 X16.065989847715734 Y0.9568527918781726 I0.025380710659898477 J0.47969543147208127
G3 X16.111675126903553 Y0.9593908629441625 I-0.007614213197969543 J0.47969543147208127
G3 X16.15736040609137 Y0.967005076142132 I-0.053299492385786795 J0.47715736040609136
G1 X34.652284263959395 Y2.9923857868020303
G1 X34.658883248730966 Y2.9215736040609137 F600
G1 X34.6751269035533 Y2.923857868020305 F600
G3 X34.703045685279186 Y2.9263959390862944 I-0.06091370558375635 J0.5456852791878173
G1 X34.7258883248731 Y2.931472081218274
G3 X34.753807106598984 Y2.936548223350254 I-0.10913705583756345 J0.5380710659898478
G3 X34.85532994923858 Y2.9746192893401013 I-0.13705583756345177 J0.5329949238578681
G3 X34.9492385786802 Y3.032994923857868 I-0.24111675126903553 J0.49492385786802034
G3 X34.96954314720812 Y3.048223350253807 I-0.33248730964467005 J0.4390862944162437
G3 X34.98984771573604 Y3.065989847715736 I-0.35279187817258884 J0.4213197969543147
G3 X35.07106598984771 Y3.15989847715736 I-0.3730964467005076 J0.4035532994923858
G3 X35.12690355329949 Y3.266497461928934 I-0.45431472081218277 J0.30964467005076146
G3 X35.15989847715736 Y3.383248730964467 I-0.5101522842639594 J0.20304568527918782
G3 X35.16751269035533 Y3.469543147208122 I-0.5431472081218274 J0.08629441624365483
G3 X35.16497461928934 Y3.50507614213198 I-0.5507614213197969 J0
G1 X35.058375634517766 Y8.454314720812183
G3 X35.20812182741117 Y8.550761421319796 I-0.5812182741116751 J1.0609137055837563
G3 X35.45939086294416 Y8.807106598984772 I-0.7335025380710659 J0.9644670050761421
G3 X35.6243654822335 Y9.137055837563452 I-0.967005076142132 J0.6954314720812182
G3 X35.682741116751274 Y9.5 I-1.1218274111675126 J0.3629441624365482
G3 X35.609137055837564 Y9.911167512690355 I-1.182741116751269 J0
G3 X35.39593908629441 Y10.274111675126905 I-1.1243654822335025 J-0.416243654822335
G3 X35.076142131979694 Y10.538071065989847 I-0.9213197969543147 J-0.7868020304568528
G3 X34.86294416243655 Y10.634517766497462 I-0.5913705583756345 J-1.0355329949238579
G1 X34.703045685279186 Y11.654822335025381
G3 X34.81218274111675 Y11.743654822335026 I-0.7258883248730964 J0.9873096446700508
G3 X35.01269035532995 Y11.989847715736042 I-0.8248730964467005 J0.8857868020304569
G3 X35.14720812182741 Y12.289340101522843 I-1.0050761421319796 J0.6294416243654822
G3 X35.19289340101523 Y12.614213197969544 I-1.1294416243654823 J0.32487309644670054
G3 X35.16751269035533 Y12.857868020304569 I-1.1776649746192893 J0
G3 X35.09137055837564 Y13.093908629441625 I-1.1522842639593909 J-0.2436548223350254
G3 X34.9746192893401 Y13.296954314720812 I-1.0939086294416243 J-0.4873096446700508
G3 X34.941624365482234 Y13.345177664974619 I-1.0050761421319796 J-0.7106598984771574
G1 X36.93401015228426 Y17.63451776649746
G3 X37.34010152284264 Y17.725888324873097 I-0.050761421319796954 J1.1852791878172588
G3 X37.72842639593909 Y17.987309644670052 I-0.46446700507614214 J1.1116751269035532
G3 X37.98984771573604 Y18.375634517766496 I-0.8527918781725887 J0.8527918781725887
G3 X38.08121827411168 Y18.83248730964467 I-1.0964467005076142 J0.45685279187817257
G3 X37.98984771573604 Y19.289340101522843 I-1.1878172588832487 J0
G3 X37.72842639593909 Y19.67766497461929 I-1.114213197969543 J-0.46446700507614214
G3 X37.34010152284264 Y19.939086294416242 I-0.8527918781725887 J-0.8527918781725887
G3 X36.88324873096447 Y20.03045685279188 I-0.45685279187817257 J-1.0964467005076142
G3 X36.42639593908629 Y19.939086294416242 I0 J-1.1878172588832487
G3 X36.03807106598985 Y19.67766497461929 I0.46446700507614214 J-1.114213197969543
G3 X35.776649746192895 Y19.289340101522843 I0.8527918781725887 J-0.8527918781725887
G3 X35.68527918781726 Y18.83248730964467 I1.0939086294416243 J-0.45685279187817257
G3 X35.71065989847716 Y18.586294416243653 I1.1802030456852792 J0
G3 X35.786802030456855 Y18.35279187817259 I1.1548223350253808 J0.2436548223350254
G3 X35.90355329949239 Y18.14720812182741 I1.0964467005076142 J0.4873096446700508
G3 X35.93908629441624 Y18.101522842639596 I1.00253807106599 J0.7081218274111676
G1 X33.944162436548226 Y13.809644670050762
G3 X33.53807106598985 Y13.720812182741117 I0.050761421319796954 J-1.1878172588832487
G3 X33.1497461928934 Y13.459390862944163 I0.46446700507614214 J-1.114213197969543
G3 X32.88832487309645 Y13.071065989847718 I0.8527918781725887 J-0.8527918781725887
G3 X32.796954314720814 Y12.614213197969544 I1.0964467005076142 J-0.45685279187817257
G3 X32.87309644670051 Y12.203045685279188 I1.182741116751269 J0
G3 X33.08375634517767 Y11.84010152284264 I1.1243654822335025 J0.416243654822335
G3 X33.40355329949239 Y11.576142131979697 I0.9213197969543147 J0.7868020304568528
G3 X33.61675126903553 Y11.47969543147208 I0.5939086294416244 J1.0355329949238579
G1 X33.72842639593909 Y10.763959390862945
G1 X28.291878172588834 Y14.898477157360405
G1 X28.324873096446698 Y15.076142131979696
G3 X28.32994923857868 Y15.121827411167512 I-0.24111675126903553 J0.045685279187817264
G3 X28.296954314720814 Y15.395939086294417 I-1.2030456852791878 J0
G3 X28.203045685279186 Y15.65736040609137 I-1.1802030456852792 J-0.2766497461928934
G3 X28.060913705583754 Y15.880710659898478 I-1.114213197969543 J-0.5507614213197969
G3 X28.005076142131983 Y15.946700507614214 I-1.0050761421319796 J-0.8020304568527918
G1 X29.553299492385786 Y19.918781725888326
G1 X31.80456852791878 Y19.918781725888326
G3 X32.04822335025381 Y20.16497461928934 I0 J0.24619289340101522
G1 X32.04822335025381 Y21.411167512690355
G3 X31.80456852791878 Y21.65736040609137 I-0.24619289340101522 J0
G1 X26.796954314720814 Y21.65736040609137
G3 X26.55329949238579 Y21.411167512690355 I0 J-0.24619289340101522
G1 X26.55329949238579 Y20.16497461928934
G1 X26.55329949238579 Y20.16497461928934
G3 X26.796954314720814 Y19.918781725888326 I0.24619289340101522 J0
G1 X28.373096446700508 Y19.918781725888326
G1 X26.98223350253807 Y16.35279187817259
G3 X26.621827411167512 Y16.263959390862944 I0.10913705583756345 J-1.218274111675127
G3 X26.220812182741117 Y15.99492385786802 I0.47969543147208127 J-1.1497461928934012
G3 X25.951776649746193 Y15.591370558375635 I0.8807106598984772 J-0.8807106598984772
G3 X25.85786802030457 Y15.121827411167512 I1.131979695431472 J-0.47208121827411165
G3 X25.951776649746193 Y14.6497461928934 I1.2258883248730965 J0
G3 X26.220812182741117 Y14.248730964467004 I1.1497461928934012 J0.47715736040609136
G3 X26.621827411167512 Y13.97969543147208 I0.8807106598984772 J0.8807106598984772
G3 X27.09390862944162 Y13.885786802030458 I0.47208121827411165 J1.131979695431472
G3 X27.284263959390863 Y13.901015228426397 I0 J1.218274111675127
G3 X27.46954314720812 Y13.944162436548224 I-0.1903553299492386 J1.2030456852791878
G3 X27.63959390862944 Y14.015228426395938 I-0.3807106598984772 J1.1700507614213198
G1 X33.31979695431472 Y9.695431472081218
G1 X33.29187817258883 Y9.543147208121827
G3 X33.286802030456855 Y9.5 I0.24111675126903553 J-0.043147208121827416
G3 X33.34771573604061 Y9.124365482233504 I1.1776649746192893 J0
G3 X33.5253807106599 Y8.786802030456853 I1.1269035532994924 J0.3781725888324873
G3 X33.79187817258883 Y8.527918781725889 I0.967005076142132 J0.7284263959390863
G3 X33.95939086294416 Y8.431472081218274 I0.7005076142131981 J0.9873096446700508
G1 X34.055837563451774 Y3.9619289340101522
G1 X16.0253807106599 Y1.987309644670051
G1 X4.043147208121828 Y2.5507614213197973
G1 X4.043147208121828 Y4.598984771573605
G1 X5.807106598984771 Y8.291878172588833
G1 X6.375634517766498 Y6.289340101522843
G1 X6.32994923857868 Y6.289340101522843
G3 X6.086294416243655 Y6.045685279187817 I0 J-0.24619289340101522
G1 X6.086294416243655 Y5.789340101522843
G1 X6.086294416243655 Y4.1395939086294415
G3 X6.32994923857868 Y3.895939086294416 I0.24619289340101522 J0
G1 X8.236040609137056 Y3.895939086294416
G3 X8.47969543147208 Y4.1395939086294415 I0 J0.24619289340101522
G1 X8.47969543147208 Y6.045685279187817
G3 X8.236040609137056 Y6.289340101522843 I-0.24619289340101522 J0
G1 X7.5177664974619285 Y6.289340101522843
G1 X6.875634517766498 Y8.560913705583756
G1 X6.9847715736040605 Y8.560913705583756
G3 X7.228426395939086 Y8.807106598984772 I0 J0.24619289340101522
G1 X7.228426395939086 Y9.560913705583756
G1 X7.228426395939086 Y10.131979695431472
G1 X7.228426395939086 Y10.888324873096447
G3 X6.9847715736040605 Y11.134517766497463 I-0.24619289340101522 J0
G1 X6.296954314720812 Y11.134517766497463
G1 X5.814720812182741 Y14.18274111675127
G1 X6.020304568527919 Y14.18274111675127
G3 X6.2664974619289335 Y14.426395939086294 I0 J0.24619289340101522
G1 X6.2664974619289335 Y16.33248730964467
G3 X6.020304568527919 Y16.576142131979697 I-0.24619289340101522 J0
G1 X4.114213197969542 Y16.576142131979697
G3 X3.870558375634518 Y16.33248730964467 I0 J-0.24619289340101522
G1 X3.870558375634518 Y16.076142131979697
G1 X3.870558375634518 Y14.426395939086294
G3 X4.114213197969542 Y14.18274111675127 I0.24619289340101522 J0
G1 X4.700507614213198 Y14.18274111675127
G1 X5.182741116751269 Y11.134517766497463
G1 X4.901015228426396 Y11.134517766497463
G3 X4.654822335025381 Y10.888324873096447 I0 J-0.24619289340101522
G1 X4.654822335025381 Y10.634517766497462
G1 X4.654822335025381 Y8.807106598984772
G3 X4.743654822335025 Y8.619289340101522 I0.24619289340101522 J0
G1 X2.9619289340101522 Y4.901015228426396
G1 X1.484771573604061 Y4.901015228426396
G3 X1.2385786802030458 Y4.654822335025381 I0 J-0.24619289340101522
G1 X1.2385786802030458 Y1.2690355329949239
G3 X1.484771573604061 Y1.0228426395939085 I0.24619289340101522 J0
G1 X3.7969543147208125 Y1.0228426395939085
G3 X4.043147208121828 Y1.2690355329949239 I0 J0.24619289340101522
G1 X4.043147208121828 Y1.4492385786802031
G1 X15.969543147208123 Y0.8908629441624366
G3 X16.01015228426396 Y0.8883248730964467 I0.06852791878172589 J0.5456852791878173
G3 X16.071065989847714 Y0.8883248730964467 I0.027918781725888325 J0.5482233502538071
G3 X16.119289340101524 Y0.8908629441624366 I-0.010152284263959392 J0.5482233502538071
G3 X16.17258883248731 Y0.8984771573604061 I-0.06091370558375635 J0.5456852791878173
G1 X34.65989847715736 Y2.9213197969543145
G0 Z15
G0 X16.674111675126902 Y21.223096446700506
G1 Z-0.15 F100
G1 X13.48984771573604 Y21.241116751269033 F600
G1 X13.48984771573604 Y21.398477157360407
G3 X13.314720812182742 Y21.573604060913706 I-0.17512690355329952 J0
G1 X8.307106598984772 Y21.573604060913706
G3 X8.131979695431472 Y21.398477157360407 I0 J-0.17512690355329952
G1 X8.131979695431472 Y21.131979695431472
G1 X6.147208121827411 Y21.04060913705584
G3 X6.035532994923858 Y21.213197969543145 I-1.00253807106599 J-0.5329949238578681
G3 X5.794416243654822 Y21.441624365482234 I-0.8959390862944162 J-0.7081218274111676
G3 X5.4873096446700504 Y21.591370558375633 I-0.6446700507614213 J-0.9213197969543147
G3 X5.152284263959391 Y21.64213197969543 I-0.3350253807106599 J-1.0609137055837563
G3 X4.723350253807107 Y21.558375634517766 I0 J-1.116751269035533
G3 X4.355329949238579 Y21.31218274111675 I0.4365482233502538 J-1.0482233502538072
G3 X4.111675126903553 Y20.944162436548226 I0.8045685279187818 J-0.8020304568527918
G3 X4.025380710659898 Y20.51522842639594 I1.032994923857868 J-0.4289340101522843
G3 X4.111675126903553 Y20.086294416243653 I1.119289340101523 J0
G3 X4.355329949238579 Y19.720812182741117 I1.0482233502538072 J0.4365482233502538
G3 X4.723350253807107 Y19.4746192893401 I0.8020304568527918 J0.8020304568527918
G3 X5.152284263959391 Y19.388324873096447 I0.4289340101522843 J1.0304568527918783
G3 X5.51015228426396 Y19.446700507614214 I0 J1.1091370558375635
G3 X5.83248730964467 Y19.621827411167512 I-0.3629441624365482 J1.0609137055837563
G3 X6.0786802030456855 Y19.880710659898476 I-0.6979695431472082 J0.9035532994923857
G3 X6.187817258883249 Y20.08375634517766 I-0.9390862944162437 J0.6421319796954316
G1 X8.131979695431472 Y20.17258883248731
G1 X8.131979695431472 Y20.149746192893403
G3 X8.307106598984772 Y19.9746192893401 I0.17512690355329952 J0
G1 X9.784263959390863 Y19.9746192893401
G1 X7.7335025380710665 Y16.492385786802032
G1 X7.629441624365483 Y16.50507614213198
G1 X7.606598984771573 Y16.507614213197968
G3 X7.177664974619288 Y16.421319796954315 I0 J-1.116751269035533
G3 X6.812182741116751 Y16.1751269035533 I0.4365482233502538 J-1.0482233502538072
G3 X6.565989847715736 Y15.809644670050762 I0.8045685279187818 J-0.8045685279187818
G3 X6.479695431472081 Y15.380710659898478 I1.0304568527918783 J-0.4289340101522843
G3 X6.553299492385786 Y14.98730964467005 I1.1091370558375635 J0
G3 X6.758883248730965 Y14.642131979695431 I1.0532994923857868 J0.3984771573604061
G3 X7.071065989847716 Y14.393401015228427 I0.8578680203045685 J0.7538071065989848
G3 X7.317258883248731 Y14.294416243654823 I0.5406091370558376 J0.9898477157360407
G1 X7.840101522842639 Y10.875634517766496
G3 X7.677664974619289 Y10.753807106598984 I0.6573604060913706 J-1.0482233502538072
G3 X7.459390862944163 Y10.5 I0.817258883248731 J-0.9213197969543147
G3 X7.314720812182741 Y10.18781725888325 I1.012690355329949 J-0.6548223350253807
G3 X7.2664974619289335 Y9.847715736040609 I1.1472081218274113 J-0.3401015228426396
G3 X7.3578680203045685 Y9.383248730964468 I1.2055837563451777 J0
G3 X7.624365482233503 Y8.98984771573604 I1.131979695431472 J0.46954314720812185
G3 X8.02030456852792 Y8.723350253807107 I0.8654822335025381 J0.8654822335025381
G3 X8.48223350253807 Y8.631979695431472 I0.46446700507614214 J1.114213197969543
G3 X8.946700507614214 Y8.723350253807107 I0 J1.2055837563451777
G3 X9.342639593908629 Y8.98730964467005 I-0.47208121827411165 J1.131979695431472
G3 X9.606598984771574 Y9.383248730964468 I-0.8654822335025381 J0.8654822335025381
G3 X9.700507614213198 Y9.847715736040609 I-1.1116751269035532 J0.46446700507614214
G3 X9.621827411167512 Y10.271573604060913 I-1.1979695431472082 J0
G3 X9.398477157360407 Y10.644670050761423 I-1.1370558375634519 J-0.4289340101522843
G3 X9.063451776649746 Y10.911167512690357 I-0.9238578680203046 J-0.8121827411167513
G3 X8.789340101522843 Y11.02030456852792 I-0.583756345177665 J-1.0685279187817258
G1 X8.261421319796954 Y14.467005076142133
G3 X8.340101522842641 Y14.530456852791877 I-0.6675126903553299 J0.9289340101522843
G3 X8.49492385786802 Y14.692893401015228 I-0.7411167512690355 J0.8604060913705585
G3 X8.616751269035532 Y14.885786802030456 I-0.8908629441624366 J0.6903553299492386
G3 X8.68274111675127 Y15.048223350253807 I-1.00253807106599 J0.49492385786802034
G3 X8.733502538071066 Y15.111675126903554 I-0.3477157360406091 J0.3299492385786802
G3 X8.791878172588833 Y15.238578680203045 I-0.3984771573604061 J0.26649746192893403
G3 X8.814720812182742 Y15.378172588832488 I-0.4593908629441624 J0.13959390862944163
G1 X8.814720812182742 Y15.378172588832488
G3 X8.794416243654823 Y15.51776649746193 I-0.47969543147208127 J0
G3 X8.733502538071066 Y15.644670050761423 I-0.4593908629441624 J-0.13959390862944163
G3 X8.66751269035533 Y15.723350253807107 I-0.3984771573604061 J-0.26649746192893403
G1 X8.540609137055839 Y15.972081218274113
G1 X10.890862944162436 Y19.961928934010153
G1 X13.314720812182742 Y19.9746192893401
G3 X13.48984771573604 Y20.149746192893403 I0 J0.17512690355329952
G1 X13.48984771573604 Y20.28172588832487
G1 X15.69035532994924 Y20.269035532994923
G1 X11.451776649746193 Y17.091370558375633
G3 X11.380710659898476 Y17.04060913705584 I0.24873096446700507 J-0.4111675126903553
G3 X11.314720812182742 Y16.967005076142133 I0.3197969543147208 J-0.35786802030456855
G3 X11.263959390862944 Y16.880710659898476 I0.3857868020304569 J-0.28426395939086296
G3 X11.230964467005077 Y16.784263959390863 I0.4365482233502538 J-0.1979695431472081
G3 X11.225888324873097 Y16.758883248730964 I0.46700507614213194 J-0.10659898477157359
G3 X11.223350253807107 Y16.72842639593909 I0.47208121827411165 J-0.07868020304568528
G3 X11.220812182741117 Y16.69796954314721 I0.47715736040609136 J-0.050761421319796954
G1 X11.220812182741117 Y16.67766497461929
G1 X11.220812182741117 Y16.67258883248731
G1 X11.124365482233502 Y12.553299492385788
G1 X11.124365482233502 Y12.530456852791879
G3 X11.139593908629442 Y12.411167512690355 I0.47969543147208127 J0
G3 X11.200507614213198 Y12.274111675126903 I0.46446700507614214 J0.11928934010152284
G3 X11.299492385786802 Y12.16243654822335 I0.40609137055837563 J0.2563451776649746
G3 X11.426395939086294 Y12.086294416243655 I0.3071065989847716 J0.37055837563451777
G3 X11.571065989847716 Y12.053299492385786 I0.17766497461928935 J0.4467005076142132
G3 X11.69543147208122 Y12.060913705583756 I0.03299492385786802 J0.47969543147208127
G1 X18.8248730964467 Y11.918781725888326
G1 X18.779187817258883 Y10.411167512690355
G3 X18.616751269035532 Y10.31218274111675 I0.4619289340101523 J-0.9365482233502538
G3 X18.39593908629442 Y10.088832487309645 I0.6269035532994924 J-0.8401015228426396
G3 X18.251269035532996 Y9.802030456852792 I0.8299492385786802 J-0.6065989847715736
G3 X18.200507614213198 Y9.48730964467005 I0.9644670050761421 J-0.3147208121827411
G3 X18.279187817258883 Y9.093908629441623 I1.0228426395939085 J0
G3 X18.50253807106599 Y8.758883248730964 I0.9619289340101522 J0.4010152284263959
G3 X18.84010152284264 Y8.532994923857869 I0.7360406091370558 J0.7360406091370558
G3 X19.233502538071065 Y8.454314720812183 I0.3934010152284264 J0.9441624365482233
G3 X19.626903553299492 Y8.532994923857869 I0 J1.0228426395939085
G3 X19.961928934010153 Y8.758883248730964 I-0.4010152284263959 J0.9619289340101522
G3 X20.185279187817258 Y9.093908629441623 I-0.7360406091370558 J0.7360406091370558
G3 X20.230964467005073 Y9.230964467005077 I-0.9441624365482233 J0.3934010152284264
G3 X20.276649746192895 Y9.093908629441623 I0.9873096446700508 J0.25888324873096447
G3 X20.50253807106599 Y8.758883248730964 I0.9619289340101522 J0.4010152284263959
G3 X20.84010152284264 Y8.532994923857869 I0.7385786802030457 J0.7385786802030457
G3 X21.23350253807107 Y8.454314720812183 I0.3934010152284264 J0.9441624365482233
G3 X21.543147208121827 Y8.50253807106599 I0 J1.015228426395939
G3 X21.8248730964467 Y8.644670050761421 I-0.3147208121827411 J0.9796954314720813
G3 X22.045685279187815 Y8.855329949238579 I-0.6065989847715736 J0.8553299492385786
G3 X22.14467005076142 Y9.01269035532995 I-0.8274111675126904 J0.6395939086294417
G1 X23.31218274111675 Y9.01522842639594
G3 X23.423857868020303 Y8.829949238578681 I1.0279187817258884 J0.49238578680203043
G3 X23.66497461928934 Y8.588832487309645 I0.9187817258883249 J0.6776649746192893
G3 X23.979695431472084 Y8.426395939086294 I0.6624365482233502 J0.901015228426396
G3 X24.3248730964467 Y8.373096446700508 I0.3451776649746193 J1.0532994923857868
G3 X24.753807106598984 Y8.456852791878172 I0 J1.116751269035533
G3 X25.121827411167512 Y8.703045685279188 I-0.4365482233502538 J1.0482233502538072
G3 X25.365482233502537 Y9.071065989847716 I-0.8045685279187818 J0.8045685279187818
G3 X25.451776649746193 Y9.5 I-1.0304568527918783 J0.4289340101522843
G3 X25.365482233502537 Y9.928934010152284 I-1.116751269035533 J0
G3 X25.121827411167512 Y10.296954314720812 I-1.0482233502538072 J-0.4365482233502538
G3 X24.753807106598984 Y10.540609137055839 I-0.8045685279187818 J-0.8045685279187818
G3 X24.3248730964467 Y10.626903553299492 I-0.4289340101522843 J-1.0304568527918783
G3 X23.977157360406093 Y10.571065989847718 I0 J-1.1065989847715736
G3 X23.662436548223347 Y10.408629441624367 I0.35279187817258884 J-1.0634517766497462
G3 X23.418781725888323 Y10.16243654822335 I0.6802030456852792 J-0.9187817258883249
G3 X23.30710659898477 Y9.974619289340103 I0.9213197969543147 J-0.6725888324873096
G1 X22.142131979695428 Y9.972081218274111
G3 X22.04314720812183 Y10.124365482233502 I-0.9213197969543147 J-0.49238578680203043
G3 X21.822335025380713 Y10.335025380710661 I-0.8248730964467005 J-0.6472081218274112
G3 X21.54060913705584 Y10.472081218274113 I-0.5913705583756345 J-0.8401015228426396
G3 X21.23350253807107 Y10.52030456852792 I-0.3071065989847716 J-0.9695431472081218
G3 X20.84010152284264 Y10.441624365482234 I0 J-1.0228426395939085
G3 X20.50253807106599 Y10.218274111675127 I0.4010152284263959 J-0.9644670050761421
G3 X20.276649746192895 Y9.880710659898478 I0.7360406091370558 J-0.7385786802030457
G3 X20.230964467005073 Y9.746192893401016 I0.9416243654822334 J-0.3934010152284264
G3 X20.218274111675125 Y9.789340101522843 I-0.9898477157360407 J-0.25888324873096447
G3 X20.086294416243653 Y10.065989847715734 I-0.9873096446700508 J-0.30456852791878175
G3 X19.885786802030456 Y10.286802030456851 I-0.8654822335025381 J-0.5888324873096447
G3 X19.738578680203045 Y10.385786802030456 I-0.6573604060913706 J-0.8020304568527918
G1 X19.784263959390863 Y11.918781725888326
G1 X22.002538071065988 Y11.961928934010153
G3 X22.119289340101524 Y11.956852791878172 I0.08375634517766498 J0.47208121827411165
G3 X22.258883248730964 Y11.98730964467005 I-0.03553299492385787 J0.47969543147208127
G3 X22.380710659898476 Y12.055837563451776 I-0.17258883248730966 J0.4467005076142132
G3 X22.47969543147208 Y12.15989847715736 I-0.2969543147208122 J0.3781725888324873
G3 X22.540609137055835 Y12.286802030456855 I-0.3934010152284264 J0.27411167512690354
G3 X22.565989847715734 Y12.426395939086294 I-0.45685279187817257 J0.14720812182741116
G1 X22.565989847715734 Y12.459390862944161
G1 X22.52030456852792 Y14.078680203045685
G3 X22.71065989847716 Y14.19543147208122 I-0.5177664974619289 J1.0609137055837563
G3 X22.95939086294416 Y14.444162436548222 I-0.7081218274111676 J0.9441624365482233
G3 X23.121827411167516 Y14.766497461928934 I-0.9365482233502538 J0.6802030456852792
G3 X23.177664974619287 Y15.121827411167512 I-1.0888324873096447 J0.3553299492385787
G3 X23.088832487309645 Y15.565989847715736 I-1.1548223350253808 J0
G3 X22.835025380710658 Y15.944162436548224 I-1.0862944162436547 J-0.45177664974619286
G3 X22.456852791878173 Y16.19796954314721 I-0.8299492385786802 J-0.8299492385786802
G3 X22.01269035532995 Y16.286802030456855 I-0.44416243654822335 J-1.0659898477157361
G3 X21.568527918781726 Y16.19796954314721 I0 J-1.1548223350253808
G3 X21.19035532994924 Y15.944162436548224 I0.45177664974619286 J-1.0837563451776648
G3 X20.936548223350254 Y15.565989847715736 I0.83248730964467 J-0.8299492385786802
G3 X20.847715736040612 Y15.121827411167512 I1.0685279187817258 J-0.44416243654822335
G3 X20.908629441624367 Y14.751269035532994 I1.1472081218274113 J0
G3 X21.086294416243657 Y14.421319796954315 I1.0964467005076142 J0.3730964467005076
G3 X21.35279187817259 Y14.16751269035533 I0.9365482233502538 J0.7182741116751269
G3 X21.560913705583754 Y14.050761421319798 I0.6675126903553299 J0.967005076142132
G1 X21.593908629441625 Y12.913705583756345
G1 X19.368020304568528 Y12.868020304568528
G3 X19.33248730964467 Y12.870558375634518 I-0.053299492385786795 J-0.47715736040609136
G3 X19.286802030456855 Y12.870558375634518 I-0.005076142131979696 J-0.47969543147208127
G1 X19.26649746192893 Y12.868020304568528
G1 X12.096446700507615 Y13.01269035532995
G1 X12.175126903553299 Y16.434010152284266
G1 X17.34263959390863 Y20.30964467005076
G1 X17.355329949238577 Y20.31725888324873
G3 X17.383248730964468 Y20.33248730964467 I-0.24111675126903553 J0.416243654822335
G3 X17.48984771573604 Y20.421319796954315 I-0.2512690355329949 J0.4086294416243655
G3 X17.571065989847718 Y20.54822335025381 I-0.35786802030456855 J0.3197969543147208
G3 X17.609137055837564 Y20.69543147208122 I-0.4390862944162437 J0.19289340101522845
G3 X17.611675126903556 Y20.741116751269036 I-0.47715736040609136 J0.04822335025380711
G3 X17.604060913705585 Y20.817258883248734 I-0.47969543147208127 J0
G1 X18.860406091370557 Y37.36548223350254
G1 X33.76142131979695 Y37.421319796954315
G1 X41.05837563451777 Y37.52791878172589
G1 X41.06091370558375 Y37.46954314720812
G3 X40.90101522842639 Y37.36040609137056 I0.5583756345177665 J-0.9847715736040609
G3 X40.680203045685275 Y37.119289340101524 I0.7284263959390863 J-0.8807106598984772
G3 X40.53807106598985 Y36.817258883248726 I0.9314720812182741 J-0.6319796954314721
G3 X40.48730964467005 Y36.48984771573604 I1.0685279187817258 J-0.32741116751269034
G3 X40.5736040609137 Y36.06091370558376 I1.116751269035533 J0
G3 X40.81979695431472 Y35.692893401015226 I1.050761421319797 J0.4365482233502538
G3 X41.18781725888325 Y35.44670050761421 I0.8045685279187818 J0.8045685279187818
G3 X41.61675126903553 Y35.36294416243655 I0.4289340101522843 J1.0304568527918783
G3 X42.045685279187815 Y35.4492385786802 I0 J1.116751269035533
G3 X42.411167512690355 Y35.692893401015226 I-0.4365482233502538 J1.0482233502538072
G3 X42.65736040609137 Y36.06091370558376 I-0.8045685279187818 J0.8045685279187818
G3 X42.743654822335024 Y36.48984771573604 I-1.032994923857868 J0.4289340101522843
G3 X42.680203045685275 Y36.85532994923858 I-1.1091370558375635 J0
G3 X42.5 Y37.182741116751274 I-1.0609137055837563 J-0.37055837563451777
G3 X42.23096446700508 Y37.42893401015229 I-0.8959390862944162 J-0.7081218274111676
G3 X42.01776649746193 Y37.53807106598985 I-0.6192893401015229 J-0.9492385786802031
G1 X41.982233502538065 Y38.04060913705584
G1 X41.97969543147208 Y38.058375634517766
G1 X41.977157360406096 Y38.08121827411168
G3 X41.9263959390863 Y38.24111675126903 I-0.47461928934010156 J-0.06345177664974619
G3 X41.82233502538071 Y38.3756345177665 I-0.42385786802030456 J-0.2233502538071066
G3 X41.6751269035533 Y38.464467005076145 I-0.3197969543147208 J-0.35786802030456855
G3 X41.50761421319797 Y38.49746192893401 I-0.17258883248730966 J-0.4467005076142132
G3 X41.46192893401015 Y38.494923857868024 I-0.005076142131979696 J-0.47969543147208127
G3 X41.431472081218274 Y38.49238578680203 I0.04060913705583757 J-0.47715736040609136
G1 X33.76142131979695 Y38.380710659898476
G1 X18.477157360406093 Y38.3248730964467
G3 X18.446700507614214 Y38.32741116751269 I-0.06091370558375635 J-0.47461928934010156
G3 X18.398477157360407 Y38.32741116751269 I-0.030456852791878174 J-0.47969543147208127
G3 X18.238578680203045 Y38.29441624365482 I0.017766497461928935 J-0.47969543147208127
G3 X18.098984771573605 Y38.20812182741116 I0.1802030456852792 J-0.44416243654822335
G3 X17.997461928934012 Y38.08121827411168 I0.31725888324873097 J-0.3604060913705584
G3 X17.944162436548222 Y37.92639593908629 I0.41878172588832485 J-0.23350253807106597
G1 X17.941624365482234 Y37.90355329949239
G1 X17.939086294416246 Y37.878172588832484
G1 X16.6751269035533 Y21.223350253807105
G1 X16.609390862944164 Y21.293401015228426 F600
G1 X13.558375634517768 Y21.30964467005076 F600
G1 X13.558375634517768 Y21.398477157360407
G3 X13.314720812182742 Y21.64213197969543 I-0.24619289340101522 J0
G1 X8.307106598984772 Y21.64213197969543
G3 X8.063451776649746 Y21.398477157360407 I0 J-0.24619289340101522
G1 X8.063451776649746 Y21.197969543147206
G1 X6.187817258883249 Y21.11421319796954
G3 X6.088832487309644 Y21.256345177664976 I-1.0431472081218274 J-0.6040609137055838
G3 X5.83248730964467 Y21.497461928934012 I-0.9517766497461928 J-0.751269035532995
G3 X5.50761421319797 Y21.65736040609137 I-0.6852791878172588 J-0.9771573604060914
G3 X5.152284263959391 Y21.713197969543145 I-0.35786802030456855 J-1.1269035532994924
G3 X4.695431472081219 Y21.621827411167512 I0 J-1.1852791878172588
G3 X4.307106598984772 Y21.360406091370557 I0.46446700507614214 J-1.1116751269035532
G3 X4.0456852791878175 Y20.97208121827411 I0.8527918781725887 J-0.8527918781725887
G3 X3.9543147208121825 Y20.51522842639594 I1.0964467005076142 J-0.45685279187817257
G3 X4.0456852791878175 Y20.058375634517766 I1.1878172588832487 J0
G3 X4.307106598984772 Y19.670050761421322 I1.114213197969543 J0.46446700507614214
G3 X4.695431472081219 Y19.408629441624367 I0.8527918781725887 J0.8527918781725887
G3 X5.152284263959391 Y19.31725888324873 I0.45685279187817257 J1.0964467005076142
G3 X5.532994923857868 Y19.380710659898476 I0 J1.1776649746192893
G3 X5.875634517766497 Y19.565989847715738 I-0.3857868020304569 J1.1269035532994924
G3 X6.137055837563452 Y19.840101522842637 I-0.7411167512690355 J0.9593908629441625
G3 X6.2335025380710665 Y20.015228426395943 I-0.9949238578680203 J0.6802030456852792
G1 X8.068527918781726 Y20.098984771573605
G3 X8.307106598984772 Y19.906091370558375 I0.23857868020304568 J0.050761421319796954
G1 X9.66243654822335 Y19.906091370558375
G1 X7.697969543147209 Y16.568527918781726
G1 X7.6395939086294415 Y16.576142131979697
G3 X7.606598984771573 Y16.576142131979697 I-0.030456852791878174 J-0.2436548223350254
G3 X7.152284263959391 Y16.48477157360406 I0 J-1.1878172588832487
G3 X6.761421319796954 Y16.225888324873097 I0.46446700507614214 J-1.114213197969543
G3 X6.50253807106599 Y15.83502538071066 I0.8527918781725887 J-0.8527918781725887
G3 X6.411167512690356 Y15.380710659898478 I1.0964467005076142 J-0.45685279187817257
G3 X6.4873096446700504 Y14.961928934010151 I1.1802030456852792 J0
G3 X6.708121827411167 Y14.596446700507615 I1.119289340101523 J0.42385786802030456
G3 X7.038071065989849 Y14.33248730964467 I0.9086294416243655 J0.799492385786802
G3 X7.253807106598985 Y14.238578680203046 I0.5736040609137056 J1.050761421319797
G1 X7.7639593908629445 Y10.908629441624365
G3 X7.629441624365483 Y10.80456852791878 I0.7335025380710659 J-1.0837563451776648
G3 X7.401015228426396 Y10.538071065989847 I0.8629441624365481 J-0.9746192893401016
G3 X7.248730964467005 Y10.208121827411167 I1.0710659898477157 J-0.6928934010152283
G3 X7.228426395939086 Y10.131979695431472 I1.215736040609137 J-0.3604060913705584
G3 X7.195431472081219 Y9.847715736040609 I1.233502538071066 J-0.28426395939086296
G3 X7.228426395939086 Y9.560913705583756 I1.2766497461928932 J0
G3 X7.2944162436548226 Y9.357868020304569 I1.2436548223350254 J0.2868020304568528
G3 X7.573604060913706 Y8.939086294416244 I1.1954314720812182 J0.49746192893401014
G3 X7.992385786802031 Y8.65989847715736 I0.916243654822335 J0.916243654822335
G3 X8.48223350253807 Y8.560913705583756 I0.48984771573604063 J1.1776649746192893
G3 X8.972081218274111 Y8.65989847715736 I0 J1.2766497461928932
G3 X9.390862944162437 Y8.939086294416244 I-0.49746192893401014 J1.1954314720812182
G3 X9.67258883248731 Y9.357868020304569 I-0.916243654822335 J0.916243654822335
G3 X9.753807106598986 Y9.642131979695431 I-1.1776649746192893 J0.48984771573604063
G3 X9.769035532994923 Y9.847715736040609 I-1.2588832487309645 J0.20558375634517764
G3 X9.753807106598986 Y10.053299492385788 I-1.2690355329949239 J0
G3 X9.68781725888325 Y10.296954314720812 I-1.251269035532995 J-0.20558375634517764
G3 X9.451776649746193 Y10.69035532994924 I-1.2005076142131978 J-0.45431472081218277
G3 X9.096446700507615 Y10.972081218274113 I-0.9771573604060914 J-0.8578680203045685
G3 X8.850253807106599 Y11.076142131979696 I-0.616751269035533 J-1.1294416243654823
G1 X8.33756345177665 Y14.436548223350254
G3 X8.385786802030458 Y14.477157360406093 I-0.7436548223350253 J0.9593908629441625
G3 X8.550761421319796 Y14.6497461928934 I-0.7868020304568528 J0.9137055837563451
G3 X8.68020304568528 Y14.855329949238579 I-0.9441624365482233 J0.7335025380710659
G3 X8.743654822335024 Y15.01269035532995 I-1.0659898477157361 J0.5253807106598986
G3 X8.789340101522843 Y15.073604060913706 I-0.4086294416243655 J0.3654822335025381
G3 X8.860406091370558 Y15.218274111675127 I-0.45685279187817257 J0.3071065989847716
G3 X8.883248730964468 Y15.378172588832488 I-0.5253807106598986 J0.1598984771573604
G1 X8.883248730964468 Y15.378172588832488
G3 X8.860406091370558 Y15.538071065989847 I-0.5507614213197969 J0
G3 X8.791878172588833 Y15.685279187817258 I-0.5253807106598986 J-0.1598984771573604
G3 X8.725888324873097 Y15.763959390862945 I-0.45685279187817257 J-0.30456852791878175
G1 X8.621827411167512 Y15.969543147208123
G1 X10.928934010152284 Y19.893401015228427
G1 X13.314720812182742 Y19.906091370558375
G3 X13.558375634517768 Y20.149746192893403 I-0.002538071065989848 J0.24619289340101522
G1 X13.558375634517768 Y20.21065989847716
G1 X15.482233502538072 Y20.200507614213198
G1 X11.411167512690355 Y17.14720812182741
G3 X11.33502538071066 Y17.091370558375633 I0.2893401015228426 J-0.46700507614213194
G3 X11.258883248730964 Y17.00761421319797 I0.3654822335025381 J-0.4111675126903553
G3 X11.200507614213198 Y16.908629441624367 I0.4416243654822335 J-0.32741116751269034
G3 X11.16497461928934 Y16.799492385786802 I0.5 J-0.22842639593908629
G3 X11.157360406091371 Y16.769035532994923 I0.5355329949238579 J-0.1218274111675127
G3 X11.152284263959391 Y16.736040609137056 I0.5431472081218274 J-0.09137055837563453
G3 X11.149746192893401 Y16.703045685279186 I0.5456852791878173 J-0.05837563451776649
G1 X11.149746192893401 Y16.680203045685282
G1 X11.149746192893401 Y16.6751269035533
G1 X11.055837563451776 Y12.555837563451778
G1 X11.055837563451776 Y12.530456852791879
G3 X11.073604060913706 Y12.393401015228427 I0.5507614213197969 J0
G3 X11.139593908629442 Y12.236040609137056 I0.5329949238578681 J0.13705583756345177
G3 X11.253807106598986 Y12.109137055837564 I0.46446700507614214 J0.29441624365482233
G3 X11.401015228426397 Y12.02030456852792 I0.35025380710659904 J0.42385786802030456
G3 X11.568527918781726 Y11.98223350253807 I0.20304568527918782 J0.5101522842639594
G3 X11.700507614213198 Y11.989847715736042 I0.03807106598984772 J0.5482233502538071
G1 X18.753807106598984 Y11.850253807106599
G1 X18.710659898477157 Y10.454314720812183
G3 X18.576142131979697 Y10.368020304568528 I0.5304568527918782 J-0.9796954314720813
G3 X18.34010152284264 Y10.129441624365484 I0.6675126903553299 J-0.8959390862944162
G3 X18.18274111675127 Y9.8248730964467 I0.8857868020304569 J-0.6472081218274112
G3 X18.129441624365484 Y9.48730964467005 I1.0304568527918783 J-0.3375634517766497
G3 X18.213197969543145 Y9.065989847715736 I1.0939086294416243 J0
G3 X18.454314720812185 Y8.708121827411167 I1.0279187817258884 J0.42639593908629436
G3 X18.81218274111675 Y8.469543147208121 I0.7868020304568528 J0.7868020304568528
G3 X19.233502538071065 Y8.383248730964466 I0.4213197969543147 J1.0076142131979695
G3 X19.65228426395939 Y8.469543147208121 I0 J1.0913705583756346
G3 X20.01015228426396 Y8.708121827411167 I-0.4289340101522843 J1.0253807106598984
G3 X20.230964467005073 Y9.025380710659899 I-0.7868020304568528 J0.7868020304568528
G3 X20.454314720812185 Y8.708121827411167 I1.0076142131979695 J0.47208121827411165
G3 X20.81218274111675 Y8.469543147208121 I0.7868020304568528 J0.7868020304568528
G3 X21.23350253807107 Y8.383248730964466 I0.4213197969543147 J1.0076142131979695
G3 X21.563451776649746 Y8.436548223350254 I0 J1.0862944162436547
G3 X21.86548223350254 Y8.586294416243655 I-0.3350253807106599 J1.0456852791878173
G3 X22.101522842639593 Y8.814720812182742 I-0.6472081218274112 J0.9111675126903553
G3 X22.18781725888325 Y8.941624365482234 I-0.8807106598984772 J0.6827411167512689
G1 X23.26903553299492 Y8.946700507614214
G3 X23.36548223350254 Y8.789340101522843 I1.0710659898477157 J0.5634517766497462
G3 X23.624365482233504 Y8.532994923857869 I0.9746192893401016 J0.7182741116751269
G3 X23.95685279187817 Y8.360406091370558 I0.7030456852791878 J0.9593908629441625
G3 X24.3248730964467 Y8.30203045685279 I0.3680203045685279 J1.119289340101523
G3 X24.781725888324875 Y8.393401015228427 I0 J1.1878172588832487
G3 X25.17005076142132 Y8.654822335025381 I-0.46446700507614214 J1.114213197969543
G3 X25.431472081218274 Y9.043147208121828 I-0.8527918781725887 J0.8527918781725887
G3 X25.52284263959391 Y9.5 I-1.0964467005076142 J0.45685279187817257
G3 X25.431472081218274 Y9.956852791878173 I-1.1878172588832487 J0
G3 X25.17005076142132 Y10.345177664974619 I-1.114213197969543 J-0.46446700507614214
G3 X24.781725888324875 Y10.606598984771573 I-0.8527918781725887 J-0.8527918781725887
G3 X24.3248730964467 Y10.697969543147208 I-0.45685279187817257 J-1.0964467005076142
G3 X23.954314720812185 Y10.637055837563452 I0 J-1.1776649746192893
G3 X23.621827411167512 Y10.464467005076141 I0.3730964467005076 J-1.1294416243654823
G3 X23.36294416243655 Y10.205583756345177 I0.7208121827411168 J-0.9746192893401016
G3 X23.263959390862944 Y10.045685279187817 I0.9796954314720813 J-0.7131979695431472
G1 X22.18274111675127 Y10.040609137055839
G3 X22.096446700507613 Y10.167512690355329 I-0.9619289340101522 J-0.5609137055837563
G3 X21.860406091370557 Y10.390862944162436 I-0.8781725888324874 J-0.6903553299492386
G3 X21.560913705583754 Y10.540609137055839 I-0.6319796954314721 J-0.8984771573604061
G3 X21.23350253807107 Y10.591370558375635 I-0.3299492385786802 J-1.0355329949238579
G3 X20.81218274111675 Y10.507614213197968 I0 J-1.0939086294416243
G3 X20.454314720812185 Y10.266497461928934 I0.4289340101522843 J-1.0279187817258884
G3 X20.230964467005073 Y9.951776649746192 I0.7868020304568528 J-0.7868020304568528
G3 X20.14467005076142 Y10.106598984771573 I-1 J-0.46700507614213194
G3 X19.928934010152282 Y10.34010152284264 I-0.9238578680203046 J-0.6294416243654822
G3 X19.81218274111675 Y10.426395939086294 I-0.7005076142131981 J-0.8553299492385786
G1 X19.85279187817259 Y11.850253807106599
G1 X21.99746192893401 Y11.890862944162437
G3 X22.1243654822335 Y11.885786802030456 I0.08883248730964467 J0.5431472081218274
G3 X22.284263959390863 Y11.921319796954315 I-0.04060913705583757 J0.5482233502538071
G3 X22.423857868020303 Y12.002538071065988 I-0.1979695431472081 J0.5126903553299492
G3 X22.535532994923855 Y12.119289340101522 I-0.3401015228426396 J0.434010152284264
G3 X22.609137055837564 Y12.263959390862944 I-0.44923857868020306 J0.3147208121827411
G3 X22.63451776649746 Y12.423857868020304 I-0.5228426395939086 J0.1700507614213198
G1 X22.63451776649746 Y12.459390862944161
G1 X22.591370558375633 Y14.035532994923859
G3 X22.753807106598988 Y14.139593908629442 I-0.5888324873096447 J1.1040609137055837
G3 X23.01522842639594 Y14.403553299492387 I-0.751269035532995 J1
G3 X23.18781725888325 Y14.743654822335026 I-0.9923857868020304 J0.7208121827411168
G3 X23.248730964467008 Y15.121827411167512 I-1.1548223350253808 J0.3756345177664975
G3 X23.15482233502538 Y15.591370558375635 I-1.2258883248730965 J0
G3 X22.885786802030456 Y15.99492385786802 I-1.1497461928934012 J-0.47969543147208127
G3 X22.484771573604057 Y16.263959390862944 I-0.8807106598984772 J-0.8807106598984772
G3 X22.01269035532995 Y16.35786802030457 I-0.47208121827411165 J-1.1294416243654823
G3 X21.54060913705584 Y16.263959390862944 I0 J-1.2233502538071066
G3 X21.139593908629443 Y15.99492385786802 I0.47969543147208127 J-1.1472081218274113
G3 X20.873096446700508 Y15.591370558375635 I0.8807106598984772 J-0.8807106598984772
G3 X20.77664974619289 Y15.121827411167512 I1.131979695431472 J-0.47208121827411165
G3 X20.84263959390863 Y14.728426395939087 I1.215736040609137 J0
G3 X21.03045685279188 Y14.378172588832488 I1.1624365482233503 J0.3959390862944162
G3 X21.31218274111675 Y14.109137055837564 I0.9923857868020304 J0.7614213197969544
G3 X21.49238578680203 Y14.00507614213198 I0.7081218274111676 J1.0253807106598984
G1 X21.52030456852792 Y12.982233502538072
G1 X19.365482233502537 Y12.939086294416244
G3 X19.33502538071066 Y12.941624365482234 I-0.053299492385786795 J-0.5456852791878173
G3 X19.28172588832487 Y12.939086294416244 I-0.007614213197969543 J-0.5507614213197969
G1 X19.258883248730964 Y12.936548223350254
G1 X12.16751269035533 Y13.081218274111674
G1 X12.243654822335026 Y16.398477157360407
G1 X17.388324873096444 Y20.253807106598988
G3 X17.421319796954315 Y20.274111675126903 I-0.2690355329949239 J0.47969543147208127
G3 X17.54060913705584 Y20.3756345177665 I-0.2893401015228426 J0.46700507614213194
G3 X17.63451776649746 Y20.52030456852792 I-0.4111675126903553 J0.3654822335025381
G3 X17.67766497461929 Y20.68781725888325 I-0.5025380710659898 J0.22081218274111675
G3 X17.68020304568528 Y20.741116751269036 I-0.5482233502538071 J0.053299492385786795
G3 X17.6751269035533 Y20.819796954314718 I-0.5507614213197969 J0
G1 X18.926395939086294 Y37.296954314720814
G1 X33.76142131979695 Y37.3502538071066
G1 X40.90862944162437 Y37.45431472081218
G3 X40.85532994923858 Y37.41370558375635 I0.7131979695431472 J-0.9695431472081218
G3 X40.6243654822335 Y37.15736040609137 I0.7715736040609138 J-0.9340101522842639
G3 X40.46954314720813 Y36.840101522842644 I0.9898477157360407 J-0.6700507614213198
G3 X40.41878172588832 Y36.48984771573604 I1.134517766497462 J-0.3477157360406091
G3 X40.51015228426395 Y36.03299492385786 I1.1878172588832487 J0
G3 X40.76903553299492 Y35.64467005076142 I1.114213197969543 J0.46446700507614214
G3 X41.159898477157356 Y35.38324873096447 I0.8553299492385786 J0.8553299492385786
G3 X41.61675126903553 Y35.29187817258883 I0.45685279187817257 J1.0964467005076142
G3 X42.07360406091371 Y35.38324873096447 I0 J1.1852791878172588
G3 X42.46192893401015 Y35.64467005076142 I-0.46446700507614214 J1.1116751269035532
G3 X42.72081218274111 Y36.03299492385786 I-0.8553299492385786 J0.8527918781725887
G3 X42.81218274111676 Y36.48984771573604 I-1.0964467005076142 J0.45685279187817257
G3 X42.746192893401016 Y36.878172588832484 I-1.1802030456852792 J0
G3 X42.555837563451774 Y37.2258883248731 I-1.1269035532994924 J-0.3934010152284264
G3 X42.26903553299493 Y37.48984771573604 I-0.9492385786802031 J-0.7538071065989848
G3 X42.08629441624366 Y37.58629441624365 I-0.6573604060913706 J-1.0076142131979695
G1 X42.0507614213198 Y38.045685279187815
G1 X42.0507614213198 Y38.06598984771574
G3 X42.04822335025381 Y38.09137055837563 I-0.5482233502538071 J-0.050761421319796954
G3 X41.98730964467005 Y38.2741116751269 I-0.5456852791878173 J-0.07360406091370558
G3 X41.86802030456853 Y38.42893401015228 I-0.4873096446700508 J-0.2563451776649746
G3 X41.700507614213194 Y38.53045685279188 I-0.3654822335025381 J-0.4111675126903553
G3 X41.50761421319797 Y38.568527918781726 I-0.1979695431472081 J-0.5126903553299492
G3 X41.45685279187817 Y38.565989847715734 I-0.005076142131979696 J-0.5507614213197969
G3 X41.421319796954315 Y38.56091370558376 I0.04822335025380711 J-0.5482233502538071
G1 X33.76142131979695 Y38.4492385786802
G1 X18.477157360406093 Y38.39340101522843
G3 X18.451776649746193 Y38.39593908629442 I-0.06091370558375635 J-0.5456852791878173
G3 X18.39593908629442 Y38.398477157360404 I-0.03553299492385787 J-0.5482233502538071
G3 X18.213197969543145 Y38.357868020304565 I0.020304568527918784 J-0.5482233502538071
G3 X18.053299492385786 Y38.26142131979695 I0.20558375634517764 J-0.5101522842639594
G3 X17.936548223350254 Y38.11421319796955 I0.3629441624365482 J-0.4111675126903553
G3 X17.875634517766496 Y37.93908629441624 I0.48223350253807107 J-0.26649746192893403
G3 X17.870558375634516 Y37.91370558375634 I0.5431472081218274 J-0.09390862944162437
G3 X17.868020304568528 Y37.88324873096447 I0.5456852791878173 J-0.06598984771573604
G1 X16.609137055837564 Y21.294416243654823
G0 Z15
G0 X19.71446700507614 Y20.247715736040607
G1 Z-0.15 F100
G1 X17.106598984771573 Y16.263959390862944 F600
G1 X16.95939086294416 Y16.284263959390863
G3 X16.934010152284266 Y16.286802030456855 I-0.025380710659898477 J-0.17258883248730966
G3 X16.48984771573604 Y16.19796954314721 I0 J-1.1548223350253808
G3 X16.109137055837564 Y15.944162436548224 I0.45177664974619286 J-1.0837563451776648
G3 X15.855329949238579 Y15.565989847715736 I0.83248730964467 J-0.8299492385786802
G3 X15.766497461928935 Y15.121827411167512 I1.0659898477157361 J-0.44416243654822335
G3 X15.855329949238579 Y14.677664974619288 I1.1548223350253808 J0
G3 X16.109137055837564 Y14.29695431472081 I1.0837563451776648 J0.45177664974619286
G3 X16.48984771573604 Y14.043147208121827 I0.8299492385786802 J0.8299492385786802
G3 X16.934010152284266 Y13.954314720812182 I0.44416243654822335 J1.0659898477157361
G3 X17.378172588832488 Y14.043147208121827 I0 J1.1548223350253808
G3 X17.756345177664976 Y14.29695431472081 I-0.45177664974619286 J1.0837563451776648
G3 X18.01015228426396 Y14.677664974619288 I-0.8299492385786802 J0.8299492385786802
G3 X18.098984771573605 Y15.121827411167512 I-1.0659898477157361 J0.44416243654822335
G3 X18.081218274111674 Y15.319796954314722 I-1.1269035532994924 J0
G3 X18.027918781725887 Y15.51522842639594 I-1.119289340101523 J-0.20050761421319796
G3 X17.946700507614214 Y15.687817258883248 I-1.0913705583756346 J-0.4035532994923858
G3 X17.913705583756347 Y15.743654822335024 I-1.0609137055837563 J-0.6065989847715736
G1 X20.538071065989847 Y19.753807106598984
G3 X20.588832487309645 Y19.83248730964467 I-0.37055837563451777 J0.30456852791878175
G3 X20.62944162436548 Y19.931472081218274 I-0.42385786802030456 J0.22588832487309643
G3 X20.63705583756345 Y19.96954314720812 I-0.4593908629441624 J0.13451776649746194
G3 X20.644670050761423 Y20.00507614213198 I-0.46954314720812185 J0.09898477157360405
G1 X23.441624365482234 Y34.317258883248726
G1 X26.5 Y34.31979695431472
G1 X26.5 Y34.17766497461929
G3 X26.675126903553302 Y34.00253807106599 I0.17512690355329952 J0
G1 X31.682741116751266 Y34.00253807106599
G3 X31.85786802030457 Y34.17766497461929 I0 J0.17512690355329952
G1 X31.85786802030457 Y35.423857868020306
G3 X31.682741116751266 Y35.598984771573605 I-0.17512690355329952 J0
G1 X26.675126903553302 Y35.598984771573605
G3 X26.5 Y35.423857868020306 I0 J-0.17512690355329952
G1 X26.5 Y35.27918781725888
G1 X23.114213197969544 Y35.276649746192895
G3 X23.083756345177665 Y35.27918781725888 I-0.06598984771573604 J-0.47461928934010156
G3 X23.032994923857867 Y35.27918781725888 I-0.03299492385786802 J-0.47969543147208127
G3 X22.95939086294416 Y35.27157360406092 I0.012690355329949238 J-0.47969543147208127
G3 X22.885786802030456 Y35.253807106598984 I0.08629441624365483 J-0.47208121827411165
G3 X22.746192893401016 Y35.18274111675127 I0.1446700507614213 J-0.45685279187817257
G3 X22.63197969543147 Y35.06345177664975 I0.28426395939086296 J-0.3857868020304569
G3 X22.565989847715734 Y34.911167512690355 I0.3984771573604061 J-0.26649746192893403
G3 X22.553299492385786 Y34.796954314720814 I0.46700507614213194 J-0.11421319796954314
G1 X22.553299492385786 Y34.77664974619289
G1 X19.71319796954315 Y20.248730964467004
G1 X19.648223350253808 Y20.2746192893401 F600
G1 X17.073604060913706 Y16.33756345177665 F600
G1 X16.96954314720812 Y16.35532994923858
G3 X16.934010152284266 Y16.35786802030457 I-0.03553299492385787 J-0.24111675126903553
G3 X16.461928934010153 Y16.263959390862944 I0 J-1.2233502538071066
G3 X16.060913705583758 Y15.99492385786802 I0.47969543147208127 J-1.1497461928934012
G3 X15.791878172588834 Y15.591370558375635 I0.8807106598984772 J-0.8807106598984772
G3 X15.697969543147208 Y15.121827411167512 I1.131979695431472 J-0.47208121827411165
G3 X15.791878172588834 Y14.6497461928934 I1.2258883248730965 J0
G3 X16.060913705583758 Y14.248730964467004 I1.1497461928934012 J0.47715736040609136
G3 X16.461928934010153 Y13.97969543147208 I0.8807106598984772 J0.8807106598984772
G3 X16.934010152284266 Y13.885786802030458 I0.47208121827411165 J1.131979695431472
G3 X17.403553299492383 Y13.97969543147208 I0 J1.2258883248730965
G3 X17.804568527918782 Y14.248730964467004 I-0.47715736040609136 J1.1497461928934012
G3 X18.073604060913706 Y14.6497461928934 I-0.8807106598984772 J0.8807106598984772
G3 X18.16751269035533 Y15.121827411167512 I-1.131979695431472 J0.47208121827411165
G3 X18.149746192893403 Y15.33248730964467 I-1.1954314720812182 J0
G3 X18.093908629441625 Y15.538071065989847 I-1.1878172588832487 J-0.21319796954314718
G3 X18.007614213197968 Y15.723350253807107 I-1.1573604060913705 J-0.4289340101522843
G1 X17.99492385786802 Y15.741116751269036
G1 X20.596446700507617 Y19.715736040609137
G3 X20.649746192893403 Y19.799492385786802 I-0.4314720812182741 J0.3426395939086294
G3 X20.69543147208122 Y19.913705583756347 I-0.4847715736040609 J0.2563451776649746
G3 X20.705583756345177 Y19.95431472081218 I-0.5279187817258884 J0.15482233502538073
G3 X20.71319796954315 Y19.99492385786802 I-0.5380710659898478 J0.11421319796954314
G1 X23.49746192893401 Y34.246192893401016
G1 X26.431472081218274 Y34.24873096446701
G1 X26.431472081218274 Y34.17766497461929
G3 X26.675126903553302 Y33.931472081218274 I0.24619289340101522 J0
G1 X31.682741116751266 Y33.931472081218274
G3 X31.926395939086298 Y34.17766497461929 I0 J0.24619289340101522
G1 X31.926395939086298 Y35.423857868020306
G3 X31.682741116751266 Y35.67005076142132 I-0.24619289340101522 J0
G1 X26.675126903553302 Y35.67005076142132
G3 X26.431472081218274 Y35.423857868020306 I0 J-0.24619289340101522
G1 X26.431472081218274 Y35.347715736040605
G1 X23.114213197969544 Y35.34517766497462
G3 X23.088832487309645 Y35.3502538071066 I-0.06598984771573604 J-0.5456852791878173
G3 X23.030456852791875 Y35.3502538071066 I-0.03807106598984772 J-0.5482233502538071
G3 X22.946700507614214 Y35.34263959390863 I0.015228426395939087 J-0.5507614213197969
G3 X22.86294416243655 Y35.319796954314725 I0.09898477157360405 J-0.5406091370558376
G3 X22.705583756345177 Y35.23857868020305 I0.16751269035532995 J-0.5228426395939086
G3 X22.573604060913706 Y35.10152284263959 I0.32741116751269034 J-0.4416243654822335
G3 X22.49746192893401 Y34.92893401015229 I0.45685279187817257 J-0.30456852791878175
G3 X22.482233502538072 Y34.796954314720814 I0.5329949238578681 J-0.1319796954314721
G1 X22.482233502538072 Y34.78172588832487
G1 X19.64720812182741 Y20.274111675126903
G0 Z15
G0 X23.031725888324875 Y21.026903553299494
G1 Z-0.15 F100
G1 X19.68274111675127 Y16.253807106598984 F600
G1 X19.502538071065988 Y16.284263959390863
G3 X19.472081218274113 Y16.286802030456855 I-0.027918781725888325 J-0.17258883248730966
G3 X19.027918781725887 Y16.19796954314721 I0 J-1.1548223350253808
G3 X18.649746192893403 Y15.944162436548224 I0.45177664974619286 J-1.0837563451776648
G3 X18.39593908629442 Y15.565989847715736 I0.83248730964467 J-0.8299492385786802
G3 X18.307106598984774 Y15.121827411167512 I1.0659898477157361 J-0.44416243654822335
G3 X18.39593908629442 Y14.677664974619288 I1.1548223350253808 J0
G3 X18.649746192893403 Y14.29695431472081 I1.0837563451776648 J0.45177664974619286
G3 X19.027918781725887 Y14.043147208121827 I0.8299492385786802 J0.8299492385786802
G3 X19.472081218274113 Y13.954314720812182 I0.44416243654822335 J1.0659898477157361
G3 X19.916243654822335 Y14.043147208121827 I0 J1.1548223350253808
G3 X20.296954314720814 Y14.29695431472081 I-0.45177664974619286 J1.0862944162436547
G3 X20.550761421319798 Y14.677664974619288 I-0.8299492385786802 J0.8299492385786802
G3 X20.639593908629443 Y15.121827411167512 I-1.0659898477157361 J0.44416243654822335
G3 X20.621827411167516 Y15.309644670050762 I-1.1218274111675126 J0
G3 X20.573604060913702 Y15.497461928934012 I-1.119289340101523 J-0.19289340101522845
G3 X20.5 Y15.66243654822335 I-1.098984771573604 J-0.3857868020304569
G3 X20.472081218274113 Y15.710659898477157 I-1.0786802030456852 J-0.5812182741116751
G1 X23.845177664974617 Y20.51776649746193
G3 X23.921319796954315 Y20.621827411167516 I-0.35025380710659904 J0.32741116751269034
G3 X23.967005076142133 Y20.758883248730964 I-0.42385786802030456 J0.2233502538071066
G3 X23.977157360406093 Y20.80710659898477 I-0.46954314720812185 J0.09898477157360405
G3 X23.979695431472084 Y20.85279187817259 I-0.47715736040609136 J0.050761421319796954
G1 X25.116751269035532 Y32.286802030456855
G1 X26.621827411167512 Y32.296954314720814
G1 X26.621827411167512 Y32.17005076142132
G3 X26.796954314720814 Y31.99746192893401 I0.17512690355329952 J0
G1 X31.80456852791878 Y31.99746192893401
G3 X31.97969543147208 Y32.17005076142132 I0 J0.17512690355329952
G1 X31.97969543147208 Y33.41878172588832
G3 X31.80456852791878 Y33.59390862944162 I-0.17512690355329952 J0
G1 X26.796954314720814 Y33.59390862944162
G3 X26.621827411167512 Y33.41878172588832 I0 J-0.17512690355329952
G1 X26.621827411167512 Y33.256345177664976
G1 X24.748730964467004 Y33.243654822335024
G3 X24.72081218274112 Y33.246192893401016 I-0.06598984771573604 J-0.47461928934010156
G3 X24.6751269035533 Y33.24873096446701 I-0.03553299492385787 J-0.47969543147208127
G3 X24.591370558375637 Y33.24111675126903 I0.010152284263959392 J-0.47969543147208127
G3 X24.51269035532995 Y33.21827411167513 I0.09137055837563453 J-0.47208121827411165
G3 X24.368020304568528 Y33.13959390862944 I0.15482233502538073 J-0.45431472081218277
G3 X24.256345177664972 Y33.00761421319797 I0.29949238578680204 J-0.3756345177664975
G3 X24.195431472081218 Y32.84517766497462 I0.4137055837563452 J-0.2436548223350254
G3 X24.190355329949238 Y32.763959390862944 I0.47208121827411165 J-0.08121827411167513
G3 X24.19289340101523 Y32.700507614213194 I0.47969543147208127 J0
G1 X23.030456852791875 Y21.027918781725887
G1 X22.963705583756344 Y21.05203045685279 F600
G1 X19.6497461928934 Y16.32994923857868 F600
G1 X19.512690355329948 Y16.35279187817259
G3 X19.472081218274113 Y16.35786802030457 I-0.04060913705583757 J-0.24111675126903553
G3 X19.00253807106599 Y16.263959390862944 I0 J-1.2233502538071066
G3 X18.598984771573605 Y15.99492385786802 I0.47969543147208127 J-1.1497461928934012
G3 X18.33248730964467 Y15.591370558375635 I0.8807106598984772 J-0.8807106598984772
G3 X18.236040609137056 Y15.121827411167512 I1.131979695431472 J-0.47208121827411165
G3 X18.33248730964467 Y14.6497461928934 I1.2258883248730965 J0
G3 X18.598984771573605 Y14.248730964467004 I1.1497461928934012 J0.47715736040609136
G3 X19.00253807106599 Y13.97969543147208 I0.8807106598984772 J0.8807106598984772
G3 X19.472081218274113 Y13.885786802030458 I0.47208121827411165 J1.131979695431472
G3 X19.944162436548222 Y13.97969543147208 I0 J1.2258883248730965
G3 X20.34517766497462 Y14.248730964467004 I-0.47969543147208127 J1.1497461928934012
G3 X20.614213197969544 Y14.6497461928934 I-0.8807106598984772 J0.8807106598984772
G3 X20.708121827411166 Y15.121827411167512 I-1.1294416243654823 J0.47208121827411165
G3 X20.69289340101523 Y15.322335025380712 I-1.1928934010152283 J0
G3 X20.639593908629443 Y15.52030456852792 I-1.1903553299492384 J-0.20304568527918782
G3 X20.563451776649746 Y15.695431472081218 I-1.1649746192893402 J-0.4111675126903553
G1 X20.555837563451774 Y15.708121827411167
G1 X23.903553299492387 Y20.47715736040609
G3 X23.982233502538072 Y20.588832487309645 I-0.4086294416243655 J0.3680203045685279
G3 X24.038071065989847 Y20.746192893401016 I-0.4873096446700508 J0.2563451776649746
G3 X24.04568527918782 Y20.799492385786806 I-0.5380710659898478 J0.1116751269035533
G3 X24.048223350253807 Y20.85279187817259 I-0.5456852791878173 J0.05837563451776649
G1 X25.180203045685282 Y32.21827411167513
G1 X26.55329949238579 Y32.2258883248731
G1 X26.55329949238579 Y32.17005076142132
G3 X26.796954314720814 Y31.926395939086298 I0.24619289340101522 J0
G1 X31.80456852791878 Y31.926395939086298
G3 X32.04822335025381 Y32.17005076142132 I0 J0.24619289340101522
G1 X32.04822335025381 Y33.41878172588832
G3 X31.80456852791878 Y33.66497461928934 I-0.24619289340101522 J0
G1 X26.796954314720814 Y33.66497461928934
G3 X26.55329949238579 Y33.41878172588832 I0 J-0.24619289340101522
G1 X26.55329949238579 Y33.32741116751269
G1 X24.748730964467004 Y33.31472081218274
G1 X24.725888324873097 Y33.31725888324873
G3 X24.672588832487307 Y33.31979695431472 I-0.04060913705583757 J-0.5482233502538071
G3 X24.578680203045685 Y33.30964467005076 I0.010152284263959392 J-0.5507614213197969
G3 X24.487309644670052 Y33.28172588832487 I0.10406091370558375 J-0.5406091370558376
G3 X24.3248730964467 Y33.192893401015226 I0.1802030456852792 J-0.5203045685279188
G3 X24.195431472081218 Y33.04314720812182 I0.3426395939086294 J-0.4289340101522843
G3 X24.126903553299492 Y32.85786802030457 I0.47461928934010156 J-0.27918781725888325
G3 X24.119289340101524 Y32.763959390862944 I0.5406091370558376 J-0.09390862944162437
G3 X24.121827411167512 Y32.69796954314721 I0.5507614213197969 J0
G1 X22.96446700507614 Y21.053299492385786
G0 Z15
G0 X23.476142131979696 Y15.565228426395938
G1 Z-0.15 F100
G3 X23.388324873096447 Y15.121827411167512 I1.0659898477157361 J-0.44416243654822335 F600
G3 X23.477157360406093 Y14.677664974619288 I1.1548223350253808 J0
G3 X23.730964467005077 Y14.29695431472081 I1.0837563451776648 J0.45177664974619286
G3 X24.10913705583756 Y14.043147208121827 I0.8299492385786802 J0.83248730964467
G3 X24.553299492385786 Y13.954314720812182 I0.44416243654822335 J1.0659898477157361
G3 X24.99746192893401 Y14.043147208121827 I0 J1.1548223350253808
G3 X25.3756345177665 Y14.29695431472081 I-0.45177664974619286 J1.0837563451776648
G3 X25.62944162436548 Y14.677664974619288 I-0.8299492385786802 J0.8299492385786802
G3 X25.71827411167513 Y15.121827411167512 I-1.0685279187817258 J0.44416243654822335
G1 X25.71827411167513 Y15.121827411167512
G1 X25.71827411167513 Y15.121827411167512
G3 X25.62944162436548 Y15.565989847715736 I-1.1573604060913705 J0
G3 X25.3756345177665 Y15.944162436548224 I-1.0837563451776648 J-0.45177664974619286
G3 X24.99746192893401 Y16.19796954314721 I-0.8299492385786802 J-0.8299492385786802
G3 X24.553299492385786 Y16.286802030456855 I-0.44416243654822335 J-1.0659898477157361
G3 X24.10913705583756 Y16.19796954314721 I0 J-1.1548223350253808
G3 X23.730964467005077 Y15.944162436548224 I0.45177664974619286 J-1.0862944162436547
G3 X23.477157360406093 Y15.565989847715736 I0.83248730964467 J-0.83248730964467
G1 X23.411421319796954 Y15.59213197969543 F600
G3 X23.317258883248734 Y15.121827411167512 I1.1294416243654823 J-0.47208121827411165 F600
G3 X23.411167512690355 Y14.6497461928934 I1.2233502538071066 J0
G3 X23.68020304568528 Y14.248730964467004 I1.1497461928934012 J0.47969543147208127
G3 X24.081218274111677 Y13.97969543147208 I0.8807106598984772 J0.8807106598984772
G3 X24.553299492385786 Y13.885786802030458 I0.47208121827411165 J1.131979695431472
G3 X25.0253807106599 Y13.97969543147208 I0 J1.2258883248730965
G3 X25.42639593908629 Y14.248730964467004 I-0.47715736040609136 J1.1472081218274113
G3 X25.69543147208122 Y14.6497461928934 I-0.8807106598984772 J0.8781725888324874
G3 X25.789340101522843 Y15.121827411167512 I-1.131979695431472 J0.47208121827411165
G1 X25.789340101522843 Y15.121827411167512
G1 X25.789340101522843 Y15.121827411167512
G3 X25.69543147208122 Y15.591370558375635 I-1.2258883248730965 J0
G3 X25.42639593908629 Y15.99492385786802 I-1.1497461928934012 J-0.47715736040609136
G3 X25.0253807106599 Y16.263959390862944 I-0.8807106598984772 J-0.8781725888324874
G3 X24.553299492385786 Y16.35786802030457 I-0.47208121827411165 J-1.1294416243654823
G3 X24.081218274111677 Y16.263959390862944 I0 J-1.2258883248730965
G3 X23.68020304568528 Y15.99492385786802 I0.47969543147208127 J-1.1497461928934012
G3 X23.411167512690355 Y15.591370558375635 I0.8807106598984772 J-0.8807106598984772
G0 Z15
G0 X15.215989847715736 Y15.944416243654823
G1 Z-0.15 F100
G3 X14.83756345177665 Y16.19796954314721 I-0.83248730964467 J-0.83248730964467 F600
G3 X14.393401015228427 Y16.286802030456855 I-0.44416243654822335 J-1.0659898477157361
G3 X13.949238578680204 Y16.19796954314721 I0 J-1.1548223350253808
G3 X13.568527918781726 Y15.944162436548224 I0.45177664974619286 J-1.0837563451776648
G3 X13.31725888324873 Y15.565989847715736 I0.83248730964467 J-0.8299492385786802
G3 X13.228426395939085 Y15.121827411167512 I1.0659898477157361 J-0.44416243654822335
G3 X13.31725888324873 Y14.677664974619288 I1.1548223350253808 J0
G3 X13.568527918781726 Y14.29695431472081 I1.0837563451776648 J0.45177664974619286
G3 X13.949238578680204 Y14.043147208121827 I0.8299492385786802 J0.8299492385786802
G3 X14.393401015228427 Y13.954314720812182 I0.44416243654822335 J1.0659898477157361
G3 X14.83756345177665 Y14.043147208121827 I0 J1.1548223350253808
G3 X15.215736040609137 Y14.29695431472081 I-0.45177664974619286 J1.0862944162436547
G3 X15.469543147208123 Y14.677664974619288 I-0.8299492385786802 J0.8299492385786802
G3 X15.558375634517766 Y15.121827411167512 I-1.0659898477157361 J0.44416243654822335
G3 X15.469543147208123 Y15.565989847715736 I-1.1548223350253808 J0
G3 X15.215736040609137 Y15.944162436548224 I-1.0862944162436547 J-0.45177664974619286
G1 X15.265482233502539 Y15.993908629441624 F600
G3 X14.862944162436548 Y16.263959390862944 I-0.8807106598984772 J-0.8807106598984772 F600
G3 X14.393401015228427 Y16.35786802030457 I-0.47208121827411165 J-1.1294416243654823
G3 X13.921319796954315 Y16.263959390862944 I0 J-1.2233502538071066
G3 X13.52030456852792 Y15.99492385786802 I0.47969543147208127 J-1.1497461928934012
G3 X13.251269035532996 Y15.591370558375635 I0.8807106598984772 J-0.8807106598984772
G3 X13.15736040609137 Y15.121827411167512 I1.131979695431472 J-0.47208121827411165
G3 X13.251269035532996 Y14.6497461928934 I1.2258883248730965 J0
G3 X13.52030456852792 Y14.248730964467004 I1.1497461928934012 J0.47715736040609136
G3 X13.921319796954315 Y13.97969543147208 I0.8807106598984772 J0.8807106598984772
G3 X14.393401015228427 Y13.885786802030458 I0.47208121827411165 J1.131979695431472
G3 X14.862944162436548 Y13.97969543147208 I0 J1.2258883248730965
G3 X15.266497461928934 Y14.248730964467004 I-0.47969543147208127 J1.1497461928934012
G3 X15.535532994923857 Y14.6497461928934 I-0.8807106598984772 J0.8807106598984772
G3 X15.629441624365484 Y15.121827411167512 I-1.1294416243654823 J0.47208121827411165
G3 X15.535532994923857 Y15.591370558375635 I-1.2258883248730965 J0
G3 X15.266497461928934 Y15.99492385786802 I-1.1497461928934012 J-0.47969543147208127
G0 Z15
G0 X18.37284263959391 Y4.14010152284264
G1 Z-0.15 F100
G1 X18.373096446700508 Y4.362944162436548 F600
G3 X17.776649746192895 Y4.956852791878172 I-0.5939086294416244 J0
G1 X17.682741116751266 Y4.956852791878172
G1 X17.682741116751266 Y5.053299492385786
G3 X17.088832487309645 Y5.647208121827411 I-0.5939086294416244 J0
G1 X16.868020304568528 Y5.647208121827411
G3 X16.271573604060915 Y5.053299492385786 I0 J-0.5939086294416244
G1 X16.271573604060915 Y4.956852791878172
G1 X16.17766497461929 Y4.956852791878172
G3 X15.581218274111674 Y4.362944162436548 I0 J-0.5939086294416244
G1 X15.581218274111674 Y4.1395939086294415
G3 X16.17766497461929 Y3.5456852791878175 I0.5939086294416244 J0
G1 X16.271573604060915 Y3.5456852791878175
G1 X16.271573604060915 Y3.449238578680203
G3 X16.868020304568528 Y2.8553299492385786 I0.5939086294416244 J0
G1 X17.088832487309645 Y2.8553299492385786
G3 X17.682741116751266 Y3.449238578680203 I0 J0.5939086294416244
G1 X17.682741116751266 Y3.5456852791878175
G1 X17.776649746192895 Y3.5456852791878175
G3 X18.373096446700508 Y4.1395939086294415 I0 J0.5939086294416244
G0 Z15
G0 X18.44289340101523 Y4.14010152284264
G1 Z-0.15 F100
G1 X18.441624365482234 Y4.362944162436548 F600
G3 X17.776649746192895 Y5.027918781725889 I-0.6649746192893401 J0
G1 X17.753807106598984 Y5.027918781725889
G1 X17.753807106598984 Y5.053299492385786
G3 X17.088832487309645 Y5.718274111675127 I-0.6649746192893401 J0
G1 X16.868020304568528 Y5.718274111675127
G3 X16.203045685279186 Y5.053299492385786 I0 J-0.6649746192893401
G1 X16.203045685279186 Y5.027918781725889
G1 X16.17766497461929 Y5.027918781725889
G3 X15.51269035532995 Y4.362944162436548 I0 J-0.6649746192893401
G1 X15.51269035532995 Y4.1395939086294415
G3 X16.17766497461929 Y3.474619289340102 I0.6649746192893401 J0
G1 X16.203045685279186 Y3.474619289340102
G1 X16.203045685279186 Y3.449238578680203
G3 X16.868020304568528 Y2.784263959390863 I0.6649746192893401 J0
G1 X17.088832487309645 Y2.784263959390863
G3 X17.753807106598984 Y3.449238578680203 I0 J0.6649746192893401
G1 X17.753807106598984 Y3.474619289340102
G1 X17.776649746192895 Y3.474619289340102
G3 X18.441624365482234 Y4.1395939086294415 I0 J0.6649746192893401
G0 Z15
G0 X16.134010152284265 Y3.4063451776649747
G1 Z-0.15 F100
G3 X16.868020304568528 Y2.715736040609137 I0.7335025380710659 J0.043147208121827416 F600
G1 X17.088832487309645 Y2.715736040609137
G3 X17.82233502538071 Y3.4060913705583755 I0 J0.7360406091370558
G3 X18.512690355329948 Y4.1395939086294415 I-0.043147208121827416 J0.7335025380710659
G1 X18.512690355329948 Y4.362944162436548
G3 X17.82233502538071 Y5.096446700507614 I-0.7360406091370558 J0
G3 X17.088832487309645 Y5.786802030456853 I-0.7335025380710659 J-0.043147208121827416
G1 X16.868020304568528 Y5.786802030456853
G3 X16.134517766497463 Y5.096446700507614 I0 J-0.7360406091370558
G3 X15.441624365482234 Y4.362944162436548 I0.043147208121827416 J-0.7335025380710659
G1 X15.441624365482234 Y4.1395939086294415
G3 X16.134517766497463 Y3.4060913705583755 I0.7360406091370558 J0
G1 X16.07005076142132 Y3.3421319796954316 F600
G3 X16.868020304568528 Y2.6446700507614214 I0.7969543147208122 J0.10659898477157359 F600
G1 X16.880710659898476 Y2.6446700507614214
G1 X17.088832487309645 Y2.6446700507614214
G3 X17.378172588832488 Y2.7005076142131976 I0 J0.8045685279187818
G3 X17.885786802030456 Y3.3426395939086295 I-0.2918781725888325 J0.751269035532995
G3 X18.583756345177665 Y4.1395939086294415 I-0.10659898477157359 J0.7969543147208122
G1 X18.583756345177665 Y4.362944162436548
G3 X17.885786802030456 Y5.159898477157361 I-0.8045685279187818 J0
G3 X17.088832487309645 Y5.8578680203045685 I-0.7969543147208122 J-0.10659898477157359
G1 X16.868020304568528 Y5.8578680203045685
G3 X16.071065989847714 Y5.159898477157361 I0 J-0.8045685279187818
G3 X15.370558375634518 Y4.362944162436548 I0.10659898477157359 J-0.7969543147208122
G1 X15.370558375634518 Y4.1395939086294415
G3 X16.071065989847714 Y3.3426395939086295 I0.8045685279187818 J0
G0 Z15
G0 X15.721573604060914 Y4.362690355329949
G1 Z-0.15 F100
G1 X15.720812182741117 Y4.1395939086294415 F600
G3 X16.17766497461929 Y3.6852791878172586 I0.45431472081218277 J0
G1 X16.413705583756347 Y3.6852791878172586
G1 X16.413705583756347 Y3.449238578680203
G3 X16.868020304568528 Y2.99492385786802 I0.45431472081218277 J0
G1 X17.088832487309645 Y2.99492385786802
G3 X17.543147208121827 Y3.449238578680203 I0 J0.45431472081218277
G1 X17.543147208121827 Y3.6852791878172586
G1 X17.776649746192895 Y3.6852791878172586
G3 X18.23350253807107 Y4.1395939086294415 I0 J0.45431472081218277
G1 X18.23350253807107 Y4.362944162436548
G3 X17.776649746192895 Y4.817258883248731 I-0.45431472081218277 J0
G1 X17.543147208121827 Y4.817258883248731
G1 X17.543147208121827 Y5.053299492385786
G3 X17.088832487309645 Y5.50761421319797 I-0.45431472081218277 J0
G1 X16.868020304568528 Y5.50761421319797
G3 X16.413705583756347 Y5.053299492385786 I0 J-0.45431472081218277
G1 X16.413705583756347 Y4.817258883248731
G1 X16.17766497461929 Y4.817258883248731
G3 X15.720812182741117 Y4.362944162436548 I0 J-0.45431472081218277
G0 Z15
G0 X15.651522842639594 Y4.362690355329949
G1 Z-0.15 F100
G1 X15.652284263959391 Y4.1395939086294415 F600
G3 X16.17766497461929 Y3.614213197969543 I0.5253807106598986 J0
G1 X16.34263959390863 Y3.614213197969543
G1 X16.34263959390863 Y3.449238578680203
G3 X16.868020304568528 Y2.923857868020305 I0.5253807106598986 J0
G1 X17.088832487309645 Y2.923857868020305
G3 X17.611675126903556 Y3.449238578680203 I0 J0.5253807106598986
G1 X17.611675126903556 Y3.614213197969543
G1 X17.776649746192895 Y3.614213197969543
G3 X18.30203045685279 Y4.1395939086294415 I0 J0.5253807106598986
G1 X18.30203045685279 Y4.362944162436548
G3 X17.776649746192895 Y4.888324873096447 I-0.5253807106598986 J0
G1 X17.611675126903556 Y4.888324873096447
G1 X17.611675126903556 Y5.053299492385786
G3 X17.088832487309645 Y5.5786802030456855 I-0.5253807106598986 J0
G1 X16.868020304568528 Y5.5786802030456855
G3 X16.34263959390863 Y5.053299492385786 I0 J-0.5253807106598986
G1 X16.34263959390863 Y4.888324873096447
G1 X16.17766497461929 Y4.888324873096447
G3 X15.652284263959391 Y4.362944162436548 I0 J-0.5253807106598986
G0 Z15
G0 X13.068020304568527 Y7.238832487309645
G1 Z-0.15 F100
G2 X13.548223350253807 Y7.682741116751269 I3.1091370558375635 J-2.875634517766498 F600
G2 X13.802030456852792 Y7.977157360406092 I3.3350253807106602 J-2.6116751269035534
G1 X13.421319796954315 Y7.9873096446700504
G2 X13.355329949238579 Y7.822335025380712 I-4.926395939086294 J1.8604060913705585
G2 X13.068527918781726 Y7.238578680203046 I-4.878172588832487 J2.032994923857868
G0 Z15
G0 X15.741370558375635 Y6.2916243654822335
G1 Z-0.15 F100
G3 X15.565989847715736 Y6.467005076142131 I-0.17512690355329952 J0 F600
G1 X13.774111675126903 Y6.467005076142131
G1 X12.027918781725887 Y9.17258883248731
G3 X12.071065989847716 Y9.241116751269034 I-1.0583756345177666 J0.7182741116751269
G3 X12.15989847715736 Y9.423857868020304 I-1.0456852791878173 J0.6218274111675127
G3 X12.218274111675127 Y9.631979695431472 I-1.1065989847715736 J0.42639593908629436
G3 X12.238578680203045 Y9.847715736040609 I-1.1522842639593909 J0.21573604060913704
G3 X12.147208121827411 Y10.31218274111675 I-1.2055837563451777 J0
G3 X11.880710659898476 Y10.705583756345177 I-1.131979695431472 J-0.47208121827411165
G3 X11.487309644670052 Y10.972081218274113 I-0.8654822335025381 J-0.8654822335025381
G3 X11.022842639593907 Y11.063451776649746 I-0.46446700507614214 J-1.1116751269035532
G3 X10.558375634517766 Y10.972081218274113 I0 J-1.2055837563451777
G3 X10.16243654822335 Y10.705583756345177 I0.47208121827411165 J-1.131979695431472
G3 X9.898477157360405 Y10.31218274111675 I0.868020304568528 J-0.868020304568528
G3 X9.807106598984772 Y9.847715736040609 I1.1116751269035532 J-0.46446700507614214
G3 X9.898477157360405 Y9.383248730964468 I1.2055837563451777 J0
G3 X10.16243654822335 Y8.98730964467005 I1.131979695431472 J0.47208121827411165
G3 X10.558375634517766 Y8.723350253807107 I0.8654822335025381 J0.868020304568528
G3 X11.022842639593907 Y8.631979695431472 I0.46446700507614214 J1.114213197969543
G3 X11.048223350253807 Y8.634517766497462 I0 J0.17512690355329952
G1 X11.218274111675125 Y8.65989847715736
G1 X13.00507614213198 Y5.890862944162436
G3 X13.073604060913706 Y5.802030456852791 I0.4111675126903553 J0.24873096446700507
G1 X13.076142131979696 Y5.223350253807107
G1 X10.885786802030458 Y5.459390862944162
G3 X10.779187817258883 Y5.682741116751268 I-1.0634517766497462 J-0.37055837563451777
G3 X10.530456852791879 Y5.967005076142132 I-0.9695431472081218 J-0.6015228426395939
G3 X10.197969543147208 Y6.154822335025381 I-0.7131979695431472 J-0.8730964467005076
G3 X9.82233502538071 Y6.220812182741117 I-0.3756345177664975 J-1.0482233502538072
G3 X9.393401015228427 Y6.134517766497462 I0 J-1.116751269035533
G3 X9.027918781725889 Y5.888324873096447 I0.4365482233502538 J-1.0482233502538072
G3 X8.781725888324873 Y5.522842639593909 I0.8020304568527918 J-0.8020304568527918
G3 X8.695431472081218 Y5.093908629441625 I1.032994923857868 J-0.4289340101522843
G3 X8.781725888324873 Y4.662436548223351 I1.119289340101523 J0
G3 X9.027918781725889 Y4.2969543147208125 I1.050761421319797 J0.4365482233502538
G3 X9.393401015228427 Y4.050761421319796 I0.8045685279187818 J0.8020304568527918
G3 X9.82233502538071 Y3.964467005076142 I0.4289340101522843 J1.0304568527918783
G3 X10.142131979695431 Y4.0126903553299496 I0 J1.1091370558375635
G3 X10.434010152284262 Y4.147208121827411 I-0.3223350253807106 J1.0710659898477157
G3 X10.670050761421319 Y4.355329949238579 I-0.6269035532994924 J0.9543147208121827
G3 X10.781725888324873 Y4.50761421319797 I-0.868020304568528 J0.751269035532995
G1 X13.076142131979696 Y4.258883248730965
G1 X13.076142131979696 Y2.906091370558376
G3 X13.251269035532996 Y2.7309644670050757 I0.17512690355329952 J0
G1 X15.565989847715736 Y2.7309644670050757
G3 X15.741116751269036 Y2.906091370558376 I0 J0.17512690355329952
G1 X15.741116751269036 Y6.291878172588833
G0 Z15
G0 X16.69263959390863 Y3.965228426395939
G1 Z-0.15 F100
G1 X16.692893401015226 Y3.449238578680203 F600
G3 X16.868020304568528 Y3.2741116751269033 I0.17512690355329952 J0
G1 X17.088832487309645 Y3.2741116751269033
G3 X17.261421319796955 Y3.449238578680203 I0 J0.17512690355329952
G1 X17.261421319796955 Y3.964467005076142
G1 X17.776649746192895 Y3.964467005076142
G3 X17.951776649746193 Y4.1395939086294415 I0 J0.17512690355329952
G1 X17.951776649746193 Y4.362944162436548
G3 X17.776649746192895 Y4.538071065989848 I-0.17512690355329952 J0
G1 X17.261421319796955 Y4.538071065989848
G1 X17.261421319796955 Y5.053299492385786
G3 X17.088832487309645 Y5.228426395939087 I-0.17512690355329952 J0
G1 X16.868020304568528 Y5.228426395939087
G3 X16.692893401015226 Y5.053299492385786 I0 J-0.17512690355329952
G1 X16.692893401015226 Y4.538071065989848
G1 X16.17766497461929 Y4.538071065989848
G3 X16.00253807106599 Y4.362944162436548 I0 J-0.17512690355329952
G1 X16.00253807106599 Y4.1395939086294415
G3 X16.17766497461929 Y3.964467005076142 I0.17512690355329952 J0
G1 X16.692893401015226 Y3.964467005076142
G1 X16.62284263959391 Y3.8951776649746193 F600
G1 X16.621827411167512 Y3.449238578680203 F600
G3 X16.868020304568528 Y3.205583756345178 I0.24619289340101522 J0
G1 X17.088832487309645 Y3.205583756345178
G3 X17.33248730964467 Y3.449238578680203 I0 J0.24619289340101522
G1 X17.33248730964467 Y3.895939086294416
G1 X17.776649746192895 Y3.895939086294416
G3 X18.022842639593907 Y4.1395939086294415 I0 J0.24619289340101522
G1 X18.022842639593907 Y4.362944162436548
G3 X17.776649746192895 Y4.606598984771574 I-0.24619289340101522 J0
G1 X17.33248730964467 Y4.606598984771574
G1 X17.33248730964467 Y5.053299492385786
G3 X17.088832487309645 Y5.2969543147208125 I-0.24619289340101522 J0
G1 X16.868020304568528 Y5.2969543147208125
G3 X16.621827411167512 Y5.053299492385786 I0 J-0.24619289340101522
G1 X16.621827411167512 Y4.606598984771574
G1 X16.17766497461929 Y4.606598984771574
G3 X15.931472081218274 Y4.362944162436548 I0 J-0.24619289340101522
G1 X15.931472081218274 Y4.1395939086294415
G3 X16.17766497461929 Y3.895939086294416 I0.24619289340101522 J0
G1 X16.621827411167512 Y3.895939086294416
G1 X16.552791878172588 Y3.8251269035532993 F600
G1 X16.553299492385786 Y3.449238578680203 F600
G3 X16.868020304568528 Y3.134517766497462 I0.3147208121827411 J0
G1 X17.088832487309645 Y3.134517766497462
G3 X17.403553299492383 Y3.449238578680203 I0 J0.3147208121827411
G1 X17.403553299492383 Y3.8248730964467006
G1 X17.776649746192895 Y3.8248730964467006
G3 X18.093908629441625 Y4.1395939086294415 I0 J0.3147208121827411
G1 X18.093908629441625 Y4.362944162436548
G3 X17.776649746192895 Y4.677664974619289 I-0.3147208121827411 J0
G1 X17.403553299492383 Y4.677664974619289
G1 X17.403553299492383 Y5.053299492385786
G3 X17.088832487309645 Y5.368020304568528 I-0.3147208121827411 J0
G1 X16.868020304568528 Y5.368020304568528
G3 X16.553299492385786 Y5.053299492385786 I0 J-0.3147208121827411
G1 X16.553299492385786 Y4.677664974619289
G1 X16.17766497461929 Y4.677664974619289
G3 X15.860406091370558 Y4.362944162436548 I0 J-0.3147208121827411
G1 X15.860406091370558 Y4.1395939086294415
G3 X16.17766497461929 Y3.8248730964467006 I0.3147208121827411 J0
G1 X16.553299492385786 Y3.8248730964467006
G0 Z15
G0 X15.791624365482233 Y4.362690355329949
G1 Z-0.15 F100
G1 X15.791878172588834 Y4.1395939086294415 F600
G3 X16.17766497461929 Y3.7563451776649748 I0.3857868020304569 J0
G1 X16.482233502538072 Y3.7563451776649748
G1 X16.482233502538072 Y3.449238578680203
G3 X16.868020304568528 Y3.065989847715736 I0.3857868020304569 J0
G1 X17.088832487309645 Y3.065989847715736
G3 X17.472081218274113 Y3.449238578680203 I0 J0.3857868020304569
G1 X17.472081218274113 Y3.7563451776649748
G1 X17.776649746192895 Y3.7563451776649748
G3 X18.16243654822335 Y4.1395939086294415 I0 J0.3857868020304569
G1 X18.16243654822335 Y4.362944162436548
G3 X17.776649746192895 Y4.748730964467005 I-0.3857868020304569 J0
G1 X17.472081218274113 Y4.748730964467005
G1 X17.472081218274113 Y5.053299492385786
G3 X17.088832487309645 Y5.439086294416243 I-0.3857868020304569 J0
G1 X16.868020304568528 Y5.439086294416243
G3 X16.482233502538072 Y5.053299492385786 I0 J-0.3857868020304569
G1 X16.482233502538072 Y4.748730964467005
G1 X16.17766497461929 Y4.748730964467005
G3 X15.791878172588834 Y4.362944162436548 I0 J-0.3857868020304569
G0 Z15
G0 X29.191624365482234 Y7.513197969543147
G1 Z-0.15 F100
G1 X29.439086294416246 Y7.540609137055837 F600
G1 X29.256345177664972 Y7.677664974619289
G2 X29.190355329949238 Y7.5126903553299496 I-4.9213197969543145 J1.8197969543147208
G1 X29.113959390862945 Y7.508883248730965 F600
G2 X29.081218274111677 Y7.431472081218274 I-4.7969543147208125 J1.99746192893401 F600
G1 X29.619289340101524 Y7.489847715736041
G1 X29.22335025380711 Y7.791878172588832
G2 X29.114213197969544 Y7.50761421319797 I-4.888324873096447 J1.7081218274111676
G1 X29.049238578680203 Y7.535786802030457 F600
G2 X28.967005076142133 Y7.347715736040609 I-4.7335025380710665 J1.9720812182741119 F600
G1 X29.80203045685279 Y7.439086294416244
G1 X29.18781725888325 Y7.906091370558376
G2 X29.048223350253807 Y7.535532994923858 I-4.852791878172589 J1.5939086294416245
G1 X28.98477157360406 Y7.562690355329949 F600
G2 X28.8502538071066 Y7.263959390862944 I-4.66751269035533 J1.9441624365482233 F600
G1 X29.906091370558375 Y7.380710659898478
G2 X29.85786802030457 Y7.4847715736040605 I4.5786802030456855 J2.1065989847715736
G1 X29.149746192893403 Y8.02284263959391
G2 X28.984771573604064 Y7.563451776649747 I-4.814720812182741 J1.4771573604060915
G1 X28.92005076142132 Y7.589593908629442 F600
G2 X28.72842639593909 Y7.180203045685279 I-4.604060913705584 J1.918781725888325 F600
G1 X30.01015228426396 Y7.322335025380711
G2 X29.91624365482234 Y7.527918781725889 I4.472081218274112 J2.16497461928934
G1 X29.111675126903553 Y8.139593908629442
G2 X28.921319796954315 Y7.588832487309645 I-4.776649746192893 J1.3604060913705585
G1 X28.855583756345176 Y7.616497461928934 F600
G2 X28.601522842639593 Y7.096446700507614 I-4.538071065989848 J1.8908629441624367 F600
G1 X30.116751269035532 Y7.261421319796955
G2 X29.972081218274113 Y7.573604060913706 I4.365482233502538 J2.2233502538071064
G1 X29.071065989847718 Y8.258883248730966
G2 X28.85532994923858 Y7.616751269035533 I-4.736040609137056 J1.2411167512690355
G1 X28.790862944162438 Y7.643401015228426 F600
G2 X28.47208121827411 Y7.0126903553299496 I-4.474619289340102 J1.8629441624365481 F600
G1 X30.22842639593909 Y7.2030456852791875
G2 X30.03045685279188 Y7.616751269035533 I4.256345177664975 J2.281725888324873
G1 X29.03045685279188 Y8.378172588832488
G2 X28.79187817258883 Y7.644670050761421 I-4.695431472081219 J1.1218274111675126
G1 X28.726395939086295 Y7.670304568527919 F600
G2 X28.33756345177665 Y6.926395939086294 I-4.408629441624365 J1.8375634517766497 F600
G1 X30.340101522842637 Y7.147208121827411
G2 X30.086294416243653 Y7.662436548223351 I4.144670050761421 J2.3401015228426396
G1 X28.984771573604064 Y8.5
G2 X28.725888324873097 Y7.67005076142132 I-4.649746192893401 J1
G1 X28.661675126903553 Y7.697208121827411 F600
G2 X28.19543147208122 Y6.84010152284264 I-4.345177664974619 J1.8096446700507616 F600
G1 X30.454314720812185 Y7.088832487309644
G2 X30.14467005076142 Y7.7055837563451774 I4.030456852791878 J2.3984771573604062
G1 X28.939086294416242 Y8.624365482233502
G2 X28.662436548223347 Y7.697969543147209 I-4.604060913705584 J0.8756345177664975
G1 X28.59695431472081 Y7.724111675126903 F600
G2 X28.04822335025381 Y6.753807106598985 I-4.279187817258883 J1.7817258883248732 F600
G1 X30.555837563451774 Y7.027918781725888
G1 X30.555837563451774 Y7.060913705583757
G2 X30.20304568527919 Y7.751269035532995 I3.918781725888325 J2.4441624365482233
G1 X28.890862944162436 Y8.748730964467006
G2 X28.596446700507613 Y7.723350253807107 I-4.555837563451776 J0.751269035532995
G1 X28.53248730964467 Y7.751015228426396 F600
G2 X27.893401015228427 Y6.66751269035533 I-4.215736040609137 J1.7563451776649748 F600
G1 X30.62944162436548 Y6.967005076142132
G1 X30.626903553299492 Y7.0812182741116745
G2 X30.258883248730967 Y7.7944162436548226 I3.850253807106599 J2.4238578680203045
G1 X28.840101522842637 Y8.875634517766498
G2 X28.532994923857867 Y7.751269035532995 I-4.50507614213198 J0.6243654822335025
G1 X28.46776649746193 Y7.777918781725888 F600
G2 X27.72842639593909 Y6.578680203045685 I-4.149746192893401 J1.7284263959390864 F600
G1 X30.7005076142132 Y6.903553299492385
G1 X30.69543147208122 Y7.101522842639594
G2 X30.31725888324873 Y7.83756345177665 I3.7817258883248734 J2.4010152284263957
G1 X28.784263959390863 Y9.00507614213198
G2 X28.46700507614213 Y7.779187817258883 I-4.449238578680203 J0.49492385786802034
G1 X28.403299492385788 Y7.80507614213198 F600
G2 X27.555837563451778 Y6.48984771573604 I-4.086294416243655 J1.7030456852791878 F600
G1 X30.77157360406091 Y6.84010152284264
G1 X30.763959390862944 Y7.121827411167513
G2 X30.3756345177665 Y7.883248730964468 I3.7106598984771573 J2.380710659898477
G1 X28.725888324873097 Y9.137055837563452
G2 X28.403553299492387 Y7.804568527918781 I-4.3908629441624365 J0.3629441624365482
G1 X28.338578680203046 Y7.831979695431472 F600
G2 X27.398477157360407 Y6.426395939086294 I-4.020304568527918 J1.6751269035532994 F600
G2 X27.36802030456853 Y6.398477157360406 I-3.081218274111675 J3.081218274111675
G1 X30.84263959390863 Y6.779187817258884
G1 X30.83502538071066 Y7.144670050761421
G2 X30.434010152284262 Y7.926395939086294 I3.6421319796954315 J2.3604060913705585
G1 X28.66497461928934 Y9.271573604060915
G2 X28.33756345177665 Y7.83248730964467 I-4.32994923857868 J0.22842639593908629
G1 X28.273857868020304 Y7.858883248730964 F600
G2 X27.34771573604061 Y6.477157360406092 I-3.9568527918781724 J1.6472081218274113 F600
G2 X27.16751269035533 Y6.307106598984772 I-3.030456852791878 J3.030456852791878
G1 X30.913705583756347 Y6.715736040609137
G1 X30.903553299492387 Y7.164974619289341
G2 X30.492385786802032 Y7.969543147208121 I3.5710659898477157 J2.3375634517766497
G1 X28.601522842639593 Y9.408629441624365
G2 X28.274111675126903 Y7.8578680203045685 I-4.266497461928934 J0.09137055837563453
G1 X28.20939086294416 Y7.885786802030457 F600
G2 X27.299492385786802 Y6.525380710659898 I-3.8934010152284264 J1.6218274111675126 F600
G2 X26.94670050761421 Y6.210659898477157 I-2.9822335025380706 J2.9822335025380706
G1 X30.98477157360406 Y6.65228426395939
G1 X30.9746192893401 Y7.187817258883249
G2 X30.550761421319798 Y8.01522842639594 I3.50253807106599 J2.317258883248731
G1 X28.532994923857867 Y9.548223350253807
G2 X28.532994923857867 Y9.5 I-4.197969543147208 J-0.04822335025380711
G2 X28.208121827411166 Y7.885786802030457 I-4.197969543147208 J0
G1 X28.14467005076142 Y7.912690355329949 F600
G2 X27.248730964467004 Y6.5761421319796955 I-3.8274111675126905 J1.5939086294416245 F600
G2 X26.700507614213194 Y6.114213197969543 I-2.931472081218274 J2.931472081218274
G1 X31.055837563451778 Y6.591370558375634
G1 X31.04314720812183 Y7.208121827411168
G2 X30.609137055837564 Y8.058375634517766 I3.434010152284264 J2.2944162436548226
G1 X28.456852791878173 Y9.692893401015228
G2 X28.461928934010153 Y9.5 I-4.121827411167513 J-0.19289340101522845
G2 X28.144670050761423 Y7.913705583756345 I-4.126903553299492 J0
G1 X28.08020304568528 Y7.939593908629441 F600
G2 X27.200507614213198 Y6.624365482233503 I-3.7639593908629445 J1.5685279187817258 F600
G2 X26.416243654822335 Y6.0126903553299496 I-2.883248730964467 J2.883248730964467
G1 X31.129441624365484 Y6.527918781725889
G1 X31.111675126903556 Y7.230964467005077
G2 X30.66751269035533 Y8.101522842639593 I3.362944162436548 J2.2715736040609134
G1 X28.378172588832488 Y9.842639593908629
G2 X28.39086294416244 Y9.5 I-4.043147208121828 J-0.3426395939086294
G2 X28.081218274111674 Y7.939086294416243 I-4.055837563451777 J0
G1 X28.01548223350254 Y7.966497461928934 F600
G2 X27.1497461928934 Y6.6751269035532985 I-3.697969543147208 J1.5406091370558375 F600
G2 X26.068527918781726 Y5.903553299492385 I-2.8324873096446703 J2.8324873096446703
G1 X31.200507614213198 Y6.464467005076142
G1 X31.18274111675127 Y7.253807106598985
G2 X30.725888324873097 Y8.144670050761421 I3.2944162436548226 J2.251269035532995
G1 X28.291878172588834 Y9.99492385786802
G2 X28.32233502538071 Y9.5 I-3.9568527918781724 J-0.49492385786802034
G2 X28.01522842639594 Y7.967005076142132 I-3.9873096446700504 J0
G1 X27.950761421319797 Y7.993401015228426 F600
G2 X27.101522842639593 Y6.723350253807107 I-3.634517766497462 J1.512690355329949 F600
G2 X25.82994923857868 Y5.873096446700508 I-2.784263959390863 J2.784263959390863
G2 X25.586294416243653 Y5.781725888324873 I-1.5050761421319798 J3.6167512690355332
G1 X31.27157360406091 Y6.403553299492386
G1 X31.251269035532996 Y7.276649746192893
G2 X30.784263959390863 Y8.187817258883248 I3.2258883248730963 J2.228426395939086
G1 X28.19796954314721 Y10.15482233502538
G2 X28.251269035532992 Y9.5 I-3.8629441624365484 J-0.6548223350253807
G2 X27.951776649746193 Y7.992385786802031 I-3.916243654822335 J0
G0 Z15
G0 X20.719035532994923 Y5.388832487309645
G1 Z-0.15 F100
G1 X23.03553299492386 Y5.6421319796954315 F600
G2 X22.67258883248731 Y5.784263959390863 I1.2918781725888326 J3.847715736040609
G2 X22.439086294416242 Y5.7030456852791875 I-1.4289340101522843 J3.7030456852791875
G2 X21.23350253807107 Y5.5152284263959395 I-1.2081218274111676 J3.7664974619289335
G2 X20.65482233502538 Y5.555837563451776 I0 J3.9619289340101522
G2 X20.71827411167513 Y5.3883248730964475 I-2.878172588832487 J-1.1928934010152283
G1 X20.670558375634517 Y5.313197969543147 F600
G1 X23.398477157360404 Y5.611675126903553 F600
G2 X23.083756345177665 Y5.7005076142131985 I0.9263959390862944 J3.868020304568528
G2 X22.6751269035533 Y5.8604060913705585 I1.2461928934010151 J3.7893401015228427
G2 X22.418781725888323 Y5.769035532994923 I-1.4314720812182742 J3.6269035532994924
G2 X21.23350253807107 Y5.583756345177665 I-1.1852791878172588 J3.700507614213198
G2 X20.538071065989847 Y5.647208121827411 I0 J3.8934010152284264
G2 X20.670050761421322 Y5.312182741116751 I-2.7614213197969546 J-1.2842639593908631
G1 X20.621319796954314 Y5.2373096446700504 F600
G1 X23.895939086294415 Y5.596446700507615 F600
G2 X23.10406091370558 Y5.766497461928934 I0.4289340101522843 J3.885786802030457
G2 X22.67766497461929 Y5.936548223350254 I1.2233502538071066 J3.723350253807107
G2 X22.395939086294415 Y5.83502538071066 I-1.434010152284264 J3.550761421319797
G2 X21.23350253807107 Y5.654822335025381 I-1.1649746192893402 J3.634517766497462
G2 X20.413705583756343 Y5.743654822335026 I0 J3.8223350253807107
G2 X20.621827411167516 Y5.238578680203045 I-2.6345177664974617 J-1.3807106598984773
G0 Z15
G0 X20.57081218274112 Y5.161421319796954
G1 Z-0.15 F100
G1 X31.34263959390863 Y6.340101522842639 F600
G1 X31.32233502538071 Y7.299492385786802
G2 X30.84263959390863 Y8.230964467005077 I3.1548223350253806 J2.205583756345178
G1 X28.093908629441625 Y10.322335025380712
G2 X28.18274111675127 Y9.5 I-3.7588832487309642 J-0.8223350253807106
G2 X27.885786802030456 Y8.02030456852792 I-3.847715736040609 J0
G2 X27.050761421319795 Y6.774111675126903 I-3.568527918781726 J1.4873096446700507
G2 X25.804568527918782 Y5.939086294416244 I-2.733502538071066 J2.733502538071066
G2 X24.3248730964467 Y5.6421319796954315 I-1.4796954314720812 J3.550761421319797
G2 X23.126903553299492 Y5.83502538071066 I0 J3.83756345177665
G2 X22.67766497461929 Y6.0126903553299496 I1.2005076142131978 J3.6573604060913705
G2 X22.375634517766496 Y5.903553299492385 I-1.434010152284264 J3.472081218274112
G2 X21.23350253807107 Y5.723350253807107 I-1.1421319796954315 J3.565989847715736
G2 X20.274111675126903 Y5.84771573604061 I0 J3.753807106598985
G2 X20.571065989847718 Y5.162436548223351 I-2.49492385786802 J-1.4873096446700507
G1 X20.519289340101523 Y5.0852791878172585 F600
G1 X31.413705583756343 Y6.276649746192894 F600
G1 X31.390862944162436 Y7.322335025380711
G2 X30.903553299492387 Y8.274111675126903 I3.086294416243655 J2.182741116751269
G1 X27.97715736040609 Y10.497461928934012
G2 X28.111675126903553 Y9.5 I-3.6421319796954315 J-0.9974619289340102
G2 X27.82233502538071 Y8.048223350253807 I-3.776649746192893 J0
G2 X27.002538071065988 Y6.82233502538071 I-3.50507614213198 J1.4593908629441623
G2 X25.77664974619289 Y6.00253807106599 I-2.685279187817259 J2.685279187817259
G2 X24.3248730964467 Y5.713197969543147 I-1.4517766497461928 J3.487309644670051
G2 X23.14720812182741 Y5.901015228426396 I0 J3.769035532994924
G2 X22.680203045685282 Y6.088832487309644 I1.1802030456852792 J3.5913705583756346
G2 X22.35532994923858 Y5.969543147208122 I-1.4365482233502538 J3.3959390862944163
G2 X21.23350253807107 Y5.794416243654822 I-1.1218274111675126 J3.5
G2 X20.233502538071065 Y5.934010152284264 I0 J3.682741116751269
G2 X20.15228426395939 Y5.911167512690355 I-1 J3.5431472081218276
G2 X20.52030456852792 Y5.086294416243655 I-2.3756345177664975 J-1.548223350253807
G1 X20.466243654822335 Y5.009137055837564 F600
G1 X31.484771573604064 Y6.215736040609137 F600
G1 X31.45939086294416 Y7.345177664974619
G2 X30.961928934010153 Y8.31725888324873 I3.015228426395939 J2.1598984771573604
G1 X27.84771573604061 Y10.685279187817258
G2 X28.043147208121827 Y9.5 I-3.5126903553299496 J-1.1852791878172588
G2 X27.756345177664976 Y8.073604060913706 I-3.708121827411168 J0
G2 X26.95177664974619 Y6.873096446700507 I-3.439086294416244 J1.434010152284264
G2 X25.751269035532992 Y6.068527918781726 I-2.6345177664974617 J2.6345177664974617
G2 X24.3248730964467 Y5.781725888324873 I-1.4263959390862944 J3.4213197969543145
G2 X23.170050761421322 Y5.967005076142132 I0 J3.697969543147208
G2 X22.682741116751266 Y6.167512690355331 I1.1573604060913705 J3.5228426395939088
G2 X22.33248730964467 Y6.035532994923858 I-1.4390862944162435 J3.3197969543147208
G2 X21.23350253807107 Y5.865482233502538 I-1.098984771573604 J3.434010152284264
G2 X20.233502538071065 Y6.00507614213198 I0 J3.6116751269035534
G2 X20.038071065989847 Y5.9543147208121825 I-1 J3.469543147208122
G2 X20.467005076142133 Y5.010152284263959 I-2.261421319796954 J-1.5913705583756346
G1 X20.411928934010152 Y4.932741116751269 F600
G1 X31.555837563451774 Y6.152284263959391 F600
G1 X31.53045685279188 Y7.368020304568528
G2 X31.0253807106599 Y8.345177664974619 I2.946700507614213 J2.1370558375634516
G1 X31.022842639593907 Y8.357868020304569
G1 X27.69796954314721 Y10.885786802030458
G2 X27.972081218274113 Y9.5 I-3.362944162436548 J-1.3857868020304567
G2 X27.69289340101523 Y8.101522842639593 I-3.6370558375634516 J0
G2 X26.903553299492383 Y6.9213197969543145 I-3.3756345177664975 J1.4060913705583755
G2 X25.723350253807105 Y6.131979695431472 I-2.5862944162436547 J2.5862944162436547
G2 X24.3248730964467 Y5.852791878172589 I-1.398477157360406 J3.3578680203045685
