(Generated by PartKam Version 0.05)

G21 G90 G40

(drill 2)
G0 Z15
T0 M6
G17
M3
G0 X14.392893401015229 Y15.121319796954316
G1 Z-1 F400
G1 Z0 F400
G0 Z15
G0 X16.93299492385787 Y15.121319796954316
G1 Z-1 F400
G1 Z0 F400
G0 Z15
G0 X19.473096446700506 Y15.121319796954316
G1 Z-1 F400
G1 Z0 F400
G0 Z15
G0 X22.012944162436547 Y15.121319796954316
G1 Z-1 F400
G1 Z0 F400
G0 Z15
G0 X24.553045685279187 Y15.121319796954316
G1 Z-1 F400
G1 Z0 F400
G0 Z15
G0 X27.09289340101523 Y15.121319796954316
G1 Z-1 F400
G1 Z0 F400
G0 Z15
G0 X36.88350253807106 Y18.83197969543147
G1 Z-1 F400
G1 Z0 F400
G0 Z15
G0 X36.88350253807106 Y28.991878172588834
G1 Z-1 F400
G1 Z0 F400
G0 Z15
G0 X34.484771573604064 Y9.4997461928934
G1 Z-1 F400
G1 Z0 F400
G0 Z15
G0 X24.324619289340102 Y9.4997461928934
G1 Z-1 F400
G1 Z0 F400
G0 Z15
G0 X37.22233502538071 Y35.1746192893401
G1 Z-1 F400
G1 Z0 F400
G0 Z15
G0 X37.22233502538071 Y35.1746192893401
G1 Z-1 F400
G1 Z0 F400
G0 Z15
G0 X37.22233502538071 Y32.6746192893401
G1 Z-1 F400
G1 Z0 F400
G0 Z15
G0 X21.23248730964467 Y9.48756345177665
G1 Z-1 F400
G1 Z0 F400
G0 Z15
G0 X19.23248730964467 Y9.48756345177665
G1 Z-1 F400
G1 Z0 F400
G0 Z15
G0 X5.15253807106599 Y30.675888324873096
G1 Z-1 F400
G1 Z0 F400
G0 Z15
G0 X5.15253807106599 Y20.515736040609138
G1 Z-1 F400
G1 Z0 F400
G0 Z15
G0 X41.615736040609136 Y36.489593908629445
G1 Z-1 F400
G1 Z0 F400
G0 Z15
G0 X41.615736040609136 Y26.329695431472082
G1 Z-1 F400
G1 Z0 F400
G0 Z15
G0 X33.99568527918782 Y12.613451776649747
G1 Z-1 F400
G1 Z0 F400
G0 Z15
G0 X33.99568527918782 Y22.773604060913705
G1 Z-1 F400
G1 Z0 F400
G0 Z15
G0 X5.94263959390863 Y9.847715736040609
G1 Z-1 F400
G1 Z0 F400
G0 Z15
G0 X5.94263959390863 Y9.847715736040609
G1 Z-1 F400
G1 Z0 F400
G0 Z15
G0 X8.482741116751269 Y9.847715736040609
G1 Z-1 F400
G1 Z0 F400
G0 Z15
G0 X11.02284263959391 Y9.847715736040609
G1 Z-1 F400
G1 Z0 F400
G0 Z15
G0 X5.067766497461929 Y15.379441624365482
G1 Z-1 F400
G1 Z0 F400
G0 Z15
G0 X5.067766497461929 Y15.379441624365482
G1 Z-1 F400
G1 Z0 F400
G0 Z15
G0 X7.6078680203045685 Y15.379441624365482
G1 Z-1 F400
G1 Z0 F400
G0 Z15
G0 X7.283248730964467 Y5.092385786802031
G1 Z-1 F400
G1 Z0 F400
G0 Z15
G0 X7.283248730964467 Y5.092385786802031
G1 Z-1 F400
G1 Z0 F400
G0 Z15
G0 X9.823350253807106 Y5.092385786802031
G1 Z-1 F400
G1 Z0 F400
G0 Z15
M5
M30
